(G-CODE GENERATED BY FLATCAM v8.991 - www.flatcam.org - Version Date: 2019/12/27)

(Name: lamp-remote-mcu)
(Type: G-code from Geometry)
(Units: MM)

(Created on Friday, 28 April 2023 at 20:41)

(TOOL DIAMETER: 0.1 mm)
(Feedrate: 60.0 mm/min)
(Feedrate_Z: 60.0 mm/min)
(Feedrate rapids 1500.0 mm/min)

(Z_Cut: -0.4 mm)
(Z_Move: 2.0 mm)
(Z Toolchange: 15.0 mm)
(X,Y Toolchange: 0.0000, 0.0000 mm)
(Z Start: None mm)
(Z End: 15.0 mm)
(Steps per circle: 64)
(Preprocessor Geometry: default)

(X range:    0.4504 ...   27.4000  mm)
(Y range:    0.1254 ...   18.6246  mm)

(Spindle Speed: None RPM)
G21
G90
G94




G01 F60.00
G00 Z2.0000

M03
G00 X5.9222 Y3.4180
G01 F60.00
G01 Z-0.4000
G01 F60.00
G01 X5.9332 Y3.3440
G01 X5.9523 Y3.2667
G01 X5.9808 Y3.1870
G01 X6.0128 Y3.1194
G01 X6.0535 Y3.0510
G01 X6.1039 Y2.9830
G01 X6.1576 Y2.9241
G01 X6.2130 Y2.8739
G01 X6.2810 Y2.8235
G01 X6.3494 Y2.7828
G01 X6.4170 Y2.7508
G01 X6.4920 Y2.7237
G01 X6.5549 Y2.7077
G01 X6.5549 Y2.2700
G01 X6.5556 Y2.2553
G01 X6.5588 Y2.2335
G01 X6.5632 Y2.2169
G01 X6.5674 Y2.2053
G01 X6.5768 Y2.1853
G01 X6.5859 Y2.1707
G01 X6.5932 Y2.1609
G01 X6.6062 Y2.1462
G01 X7.8762 Y0.8762
G01 X7.8909 Y0.8632
G01 X7.9007 Y0.8559
G01 X7.9153 Y0.8468
G01 X7.9353 Y0.8374
G01 X7.9469 Y0.8332
G01 X7.9635 Y0.8288
G01 X7.9804 Y0.8261
G01 X8.0000 Y0.8249
G01 X17.5402 Y0.8249
G01 X17.5550 Y0.8256
G01 X17.5720 Y0.8279
G01 X17.5934 Y0.8332
G01 X17.6050 Y0.8374
G01 X17.6206 Y0.8445
G01 X17.6354 Y0.8531
G01 X17.6494 Y0.8632
G01 X17.6640 Y0.8762
G01 X20.3393 Y3.5515
G01 X20.3492 Y3.5623
G01 X20.3596 Y3.5760
G01 X20.3710 Y3.5949
G01 X20.3781 Y3.6105
G01 X20.3822 Y3.6221
G01 X20.3876 Y3.6435
G01 X20.3899 Y3.6605
G01 X20.3905 Y3.6728
G01 X20.3906 Y4.7520
G01 X22.9635 Y7.3249
G01 X24.0000 Y7.3249
G01 X24.0147 Y7.3256
G01 X24.0317 Y7.3279
G01 X24.0485 Y7.3318
G01 X24.0647 Y7.3374
G01 X24.0803 Y7.3445
G01 X24.0993 Y7.3559
G01 X24.1129 Y7.3663
G01 X24.1255 Y7.3780
G01 X24.1368 Y7.3909
G01 X24.1469 Y7.4048
G01 X24.1555 Y7.4197
G01 X24.1626 Y7.4353
G01 X24.1668 Y7.4469
G01 X24.1721 Y7.4683
G01 X24.1744 Y7.4853
G01 X24.1751 Y7.5000
G01 X24.1751 Y9.6231
G01 X24.1744 Y9.6379
G01 X24.1721 Y9.6549
G01 X24.1668 Y9.6763
G01 X24.1626 Y9.6878
G01 X24.1555 Y9.7035
G01 X24.1469 Y9.7183
G01 X24.1368 Y9.7323
G01 X24.1238 Y9.7469
G01 X22.9224 Y10.9483
G01 X22.9115 Y10.9582
G01 X22.8979 Y10.9687
G01 X22.8790 Y10.9800
G01 X22.8633 Y10.9871
G01 X22.8518 Y10.9913
G01 X22.8352 Y10.9957
G01 X22.8182 Y10.9984
G01 X22.7986 Y10.9996
G01 X21.7014 Y10.9996
G01 X21.6867 Y10.9989
G01 X21.6696 Y10.9966
G01 X21.6529 Y10.9927
G01 X21.6367 Y10.9871
G01 X21.6210 Y10.9800
G01 X21.6062 Y10.9714
G01 X21.5922 Y10.9613
G01 X21.5776 Y10.9483
G01 X15.8043 Y5.1751
G01 X13.0579 Y5.1751
G01 X15.9733 Y8.0904
G01 X15.9832 Y8.1013
G01 X15.9937 Y8.1149
G01 X16.0027 Y8.1295
G01 X16.0103 Y8.1450
G01 X16.0177 Y8.1658
G01 X16.0216 Y8.1825
G01 X16.0239 Y8.1995
G01 X16.0246 Y8.2142
G01 X16.0246 Y12.2355
G01 X16.0239 Y12.2502
G01 X16.0216 Y12.2672
G01 X16.0163 Y12.2886
G01 X16.0121 Y12.3002
G01 X16.0050 Y12.3158
G01 X15.9937 Y12.3347
G01 X15.9864 Y12.3446
G01 X15.9750 Y12.3575
G01 X15.2444 Y13.0882
G01 X15.2661 Y13.1045
G01 X15.3277 Y13.1607
G01 X15.3836 Y13.2227
G01 X15.4303 Y13.2858
G01 X15.4734 Y13.3572
G01 X15.5093 Y13.4325
G01 X15.5391 Y13.5156
G01 X15.5591 Y13.5966
G01 X15.5711 Y13.6791
G01 X15.5749 Y13.7625
G01 X15.5711 Y13.8409
G01 X15.5581 Y13.9282
G01 X15.5376 Y14.0091
G01 X15.5112 Y14.0830
G01 X15.4757 Y14.1585
G01 X15.4303 Y14.2342
G01 X15.3836 Y14.2973
G01 X15.3277 Y14.3593
G01 X15.2661 Y14.4155
G01 X15.1992 Y14.4653
G01 X15.1278 Y14.5084
G01 X15.0480 Y14.5462
G01 X14.9694 Y14.5741
G01 X14.8884 Y14.5941
G01 X14.8108 Y14.6056
G01 X14.7275 Y14.6099
G01 X13.9250 Y14.6100
G01 X13.8441 Y14.6061
G01 X13.7616 Y14.5941
G01 X13.6759 Y14.5726
G01 X13.5975 Y14.5443
G01 X13.5265 Y14.5107
G01 X13.4548 Y14.4681
G01 X13.3877 Y14.4186
G01 X13.3223 Y14.3593
G01 X13.2664 Y14.2973
G01 X13.2197 Y14.2342
G01 X13.1766 Y14.1628
G01 X13.1388 Y14.0830
G01 X13.1109 Y14.0044
G01 X13.0909 Y13.9234
G01 X13.0794 Y13.8458
G01 X13.0751 Y13.7625
G01 X13.0794 Y13.6742
G01 X13.0919 Y13.5918
G01 X13.1124 Y13.5109
G01 X13.1388 Y13.4370
G01 X13.1743 Y13.3615
G01 X13.2197 Y13.2858
G01 X13.2695 Y13.2189
G01 X13.3257 Y13.1573
G01 X13.3877 Y13.1014
G01 X13.4508 Y13.0547
G01 X13.5222 Y13.0116
G01 X13.5975 Y12.9757
G01 X13.6759 Y12.9474
G01 X13.7616 Y12.9259
G01 X13.8441 Y12.9139
G01 X13.9250 Y12.9100
G01 X14.7250 Y12.9100
G01 X14.8108 Y12.9144
G01 X14.8884 Y12.9259
G01 X14.9071 Y12.9303
G01 X15.6745 Y12.1630
G01 X15.6745 Y8.2867
G01 X12.5628 Y5.1751
G01 X10.7700 Y5.1751
G01 X10.7504 Y5.1739
G01 X10.7383 Y5.1721
G01 X10.7215 Y5.1682
G01 X10.7053 Y5.1626
G01 X10.6853 Y5.1532
G01 X10.6707 Y5.1441
G01 X10.6609 Y5.1368
G01 X10.6462 Y5.1238
G01 X9.7064 Y4.1840
G01 X9.6506 Y4.2172
G01 X9.5784 Y4.2511
G01 X9.5080 Y4.2763
G01 X9.4308 Y4.2959
G01 X9.3471 Y4.3083
G01 X9.2675 Y4.3119
G01 X9.1929 Y4.3083
G01 X9.1092 Y4.2959
G01 X9.0320 Y4.2763
G01 X8.9616 Y4.2511
G01 X8.8851 Y4.2149
G01 X8.8169 Y4.1737
G01 X8.7568 Y4.1292
G01 X8.6941 Y4.0724
G01 X8.6408 Y4.0132
G01 X8.5935 Y3.9490
G01 X8.5528 Y3.8806
G01 X8.5208 Y3.8130
G01 X8.4937 Y3.7380
G01 X8.4741 Y3.6608
G01 X8.4622 Y3.5820
G01 X8.4581 Y3.4975
G01 X8.4617 Y3.4229
G01 X8.4732 Y3.3440
G01 X8.4923 Y3.2667
G01 X8.5189 Y3.1916
G01 X8.5551 Y3.1151
G01 X8.5963 Y3.0469
G01 X8.6439 Y2.9830
G01 X8.6976 Y2.9241
G01 X8.7530 Y2.8739
G01 X8.8169 Y2.8263
G01 X8.8851 Y2.7851
G01 X8.9570 Y2.7508
G01 X9.0367 Y2.7223
G01 X9.1140 Y2.7032
G01 X9.1929 Y2.6917
G01 X9.2725 Y2.6881
G01 X9.3471 Y2.6917
G01 X9.4308 Y2.7041
G01 X9.5080 Y2.7237
G01 X9.5830 Y2.7508
G01 X9.6549 Y2.7851
G01 X9.7231 Y2.8263
G01 X9.7832 Y2.8708
G01 X9.8424 Y2.9241
G01 X9.8961 Y2.9830
G01 X9.9437 Y3.0469
G01 X9.9872 Y3.1194
G01 X10.0211 Y3.1916
G01 X10.0463 Y3.2620
G01 X10.0659 Y3.3392
G01 X10.0778 Y3.4180
G01 X10.0819 Y3.4975
G01 X10.0783 Y3.5771
G01 X10.0659 Y3.6608
G01 X10.0463 Y3.7380
G01 X10.0211 Y3.8084
G01 X9.9872 Y3.8806
G01 X9.9540 Y3.9364
G01 X10.8425 Y4.8249
G01 X15.8769 Y4.8249
G01 X15.8965 Y4.8261
G01 X15.9086 Y4.8279
G01 X15.9253 Y4.8318
G01 X15.9461 Y4.8393
G01 X15.9572 Y4.8445
G01 X15.9720 Y4.8531
G01 X15.9860 Y4.8632
G01 X16.0006 Y4.8762
G01 X21.7739 Y10.6494
G01 X22.7261 Y10.6494
G01 X23.8249 Y9.5506
G01 X23.8249 Y7.6751
G01 X22.8885 Y7.6750
G01 X22.8763 Y7.6744
G01 X22.8592 Y7.6721
G01 X22.8378 Y7.6668
G01 X22.8263 Y7.6626
G01 X22.8106 Y7.6555
G01 X22.7917 Y7.6441
G01 X22.7781 Y7.6337
G01 X22.7672 Y7.6238
G01 X20.0917 Y4.9483
G01 X20.0818 Y4.9374
G01 X20.0713 Y4.9238
G01 X20.0623 Y4.9092
G01 X20.0547 Y4.8937
G01 X20.0487 Y4.8777
G01 X20.0443 Y4.8611
G01 X20.0416 Y4.8441
G01 X20.0405 Y4.8270
G01 X20.0404 Y3.7478
G01 X17.4677 Y1.1751
G01 X8.0725 Y1.1751
G01 X6.9051 Y2.3425
G01 X6.9051 Y2.7077
G01 X6.9680 Y2.7237
G01 X7.0384 Y2.7489
G01 X7.1149 Y2.7851
G01 X7.1831 Y2.8263
G01 X7.2432 Y2.8708
G01 X7.3059 Y2.9276
G01 X7.3592 Y2.9868
G01 X7.4037 Y3.0469
G01 X7.4449 Y3.1151
G01 X7.4811 Y3.1916
G01 X7.5063 Y3.2620
G01 X7.5259 Y3.3392
G01 X7.5378 Y3.4180
G01 X7.5419 Y3.5025
G01 X7.5383 Y3.5771
G01 X7.5268 Y3.6560
G01 X7.5077 Y3.7333
G01 X7.4811 Y3.8084
G01 X7.4449 Y3.8849
G01 X7.4037 Y3.9531
G01 X7.3592 Y4.0132
G01 X7.3059 Y4.0724
G01 X7.2432 Y4.1292
G01 X7.1831 Y4.1737
G01 X7.1149 Y4.2149
G01 X7.0384 Y4.2511
G01 X6.9633 Y4.2777
G01 X6.8860 Y4.2968
G01 X6.8120 Y4.3078
G01 X6.7325 Y4.3119
G01 X6.6480 Y4.3078
G01 X6.5740 Y4.2968
G01 X6.4967 Y4.2777
G01 X6.4170 Y4.2492
G01 X6.3494 Y4.2172
G01 X6.2810 Y4.1765
G01 X6.2130 Y4.1261
G01 X6.1541 Y4.0724
G01 X6.1008 Y4.0132
G01 X6.0563 Y3.9531
G01 X6.0151 Y3.8849
G01 X5.9789 Y3.8084
G01 X5.9537 Y3.7380
G01 X5.9341 Y3.6608
G01 X5.9217 Y3.5771
G01 X5.9181 Y3.4975
G01 X5.9222 Y3.4180
G00 Z2.0000
G00 X5.4594 Y8.5942
G01 F60.00
G01 Z-0.4000
G01 F60.00
G01 X5.4709 Y8.5166
G01 X5.4909 Y8.4356
G01 X5.5207 Y8.3525
G01 X5.5566 Y8.2772
G01 X5.5997 Y8.2058
G01 X5.6464 Y8.1427
G01 X5.7023 Y8.0807
G01 X5.7677 Y8.0214
G01 X5.8308 Y7.9747
G01 X5.9022 Y7.9316
G01 X5.9775 Y7.8957
G01 X6.0559 Y7.8674
G01 X6.1416 Y7.8459
G01 X6.2241 Y7.8339
G01 X6.3050 Y7.8300
G01 X7.1050 Y7.8300
G01 X7.1908 Y7.8344
G01 X7.2732 Y7.8469
G01 X7.3541 Y7.8674
G01 X7.4325 Y7.8957
G01 X7.5078 Y7.9316
G01 X7.5792 Y7.9747
G01 X7.6461 Y8.0245
G01 X7.7077 Y8.0807
G01 X7.7636 Y8.1427
G01 X7.8103 Y8.2058
G01 X7.8534 Y8.2772
G01 X7.8893 Y8.3525
G01 X7.9176 Y8.4309
G01 X7.9381 Y8.5118
G01 X7.9506 Y8.5942
G01 X7.9549 Y8.6775
G01 X7.9511 Y8.7609
G01 X7.9391 Y8.8434
G01 X7.9191 Y8.9244
G01 X7.8912 Y9.0030
G01 X7.8557 Y9.0785
G01 X7.8131 Y9.1502
G01 X7.7636 Y9.2173
G01 X7.7077 Y9.2793
G01 X7.6461 Y9.3355
G01 X7.6244 Y9.3518
G01 X9.8621 Y11.5895
G01 X9.8751 Y11.6041
G01 X9.8824 Y11.6140
G01 X9.8914 Y11.6286
G01 X9.9009 Y11.6486
G01 X9.9064 Y11.6648
G01 X9.9104 Y11.6815
G01 X9.9122 Y11.6937
G01 X9.9133 Y11.7133
G01 X9.9133 Y15.8313
G01 X11.3315 Y17.2494
G01 X18.1261 Y17.2494
G01 X18.8994 Y16.4761
G01 X18.8995 Y15.6516
G01 X18.9001 Y15.6393
G01 X18.9024 Y15.6223
G01 X18.9078 Y15.6009
G01 X18.9119 Y15.5893
G01 X18.9190 Y15.5737
G01 X18.9276 Y15.5589
G01 X18.9377 Y15.5449
G01 X18.9507 Y15.5303
G01 X21.0138 Y13.4672
G01 X21.0247 Y13.4572
G01 X21.0424 Y13.4441
G01 X21.0573 Y13.4354
G01 X21.0729 Y13.4283
G01 X21.0892 Y13.4228
G01 X21.1059 Y13.4188
G01 X21.1229 Y13.4165
G01 X21.1376 Y13.4159
G01 X23.1727 Y13.4159
G01 X25.9771 Y10.6114
G01 X25.9272 Y10.5741
G01 X25.8654 Y10.5181
G01 X25.8059 Y10.4528
G01 X25.7531 Y10.3820
G01 X25.7052 Y10.3021
G01 X25.6676 Y10.2221
G01 X25.6381 Y10.1389
G01 X25.6169 Y10.0532
G01 X25.6046 Y9.9707
G01 X25.6001 Y9.8825
G01 X25.6042 Y9.7942
G01 X25.6169 Y9.7068
G01 X25.6395 Y9.6164
G01 X25.6695 Y9.5333
G01 X25.7075 Y9.4536
G01 X25.7531 Y9.3780
G01 X25.8028 Y9.3110
G01 X25.8654 Y9.2419
G01 X25.9310 Y9.1828
G01 X25.9980 Y9.1331
G01 X26.0736 Y9.0875
G01 X26.1579 Y9.0476
G01 X26.2364 Y9.0195
G01 X26.3220 Y8.9978
G01 X26.4142 Y8.9842
G01 X26.5025 Y8.9801
G01 X26.5858 Y8.9842
G01 X26.6732 Y8.9969
G01 X26.7636 Y9.0195
G01 X26.8421 Y9.0476
G01 X26.9221 Y9.0852
G01 X27.0020 Y9.1331
G01 X27.0690 Y9.1828
G01 X27.1346 Y9.2419
G01 X27.1972 Y9.3110
G01 X27.2469 Y9.3780
G01 X27.2925 Y9.4536
G01 X27.3324 Y9.5379
G01 X27.3605 Y9.6164
G01 X27.3822 Y9.7020
G01 X27.3958 Y9.7942
G01 X27.3999 Y9.8825
G01 X27.3958 Y9.9658
G01 X27.3822 Y10.0580
G01 X27.3605 Y10.1436
G01 X27.3305 Y10.2267
G01 X27.2925 Y10.3064
G01 X27.2469 Y10.3820
G01 X27.1941 Y10.4528
G01 X27.1346 Y10.5181
G01 X27.0690 Y10.5772
G01 X27.0020 Y10.6269
G01 X26.9264 Y10.6725
G01 X26.8421 Y10.7124
G01 X26.7589 Y10.7419
G01 X26.6732 Y10.7631
G01 X26.5907 Y10.7754
G01 X26.5025 Y10.7799
G01 X26.4093 Y10.7754
G01 X26.3268 Y10.7631
G01 X26.3216 Y10.7621
G01 X23.3690 Y13.7147
G01 X23.3543 Y13.7278
G01 X23.3404 Y13.7378
G01 X23.3255 Y13.7464
G01 X23.3144 Y13.7517
G01 X23.2936 Y13.7591
G01 X23.2769 Y13.7631
G01 X23.2648 Y13.7649
G01 X23.2452 Y13.7660
G01 X21.2101 Y13.7660
G01 X19.2496 Y15.7266
G01 X19.2496 Y16.5486
G01 X19.2484 Y16.5682
G01 X19.2457 Y16.5852
G01 X19.2413 Y16.6018
G01 X19.2371 Y16.6133
G01 X19.2300 Y16.6290
G01 X19.2187 Y16.6479
G01 X19.2082 Y16.6615
G01 X19.1983 Y16.6724
G01 X18.3224 Y17.5483
G01 X18.3115 Y17.5582
G01 X18.2979 Y17.5687
G01 X18.2833 Y17.5777
G01 X18.2679 Y17.5853
G01 X18.2518 Y17.5913
G01 X18.2352 Y17.5957
G01 X18.2182 Y17.5984
G01 X18.1986 Y17.5996
G01 X11.2590 Y17.5996
G01 X11.2443 Y17.5989
G01 X11.2224 Y17.5957
G01 X11.2058 Y17.5913
G01 X11.1897 Y17.5853
G01 X11.1743 Y17.5777
G01 X11.1597 Y17.5687
G01 X11.1460 Y17.5582
G01 X11.1352 Y17.5483
G01 X9.6145 Y16.0276
G01 X9.6014 Y16.0129
G01 X9.5941 Y16.0031
G01 X9.5851 Y15.9885
G01 X9.5756 Y15.9685
G01 X9.5701 Y15.9523
G01 X9.5661 Y15.9355
G01 X9.5643 Y15.9234
G01 X9.5632 Y15.9038
G01 X9.5632 Y11.7858
G01 X7.2871 Y9.5097
G01 X7.2684 Y9.5141
G01 X7.1908 Y9.5256
G01 X7.1050 Y9.5300
G01 X6.3050 Y9.5300
G01 X6.2241 Y9.5261
G01 X6.1416 Y9.5141
G01 X6.0606 Y9.4941
G01 X5.9820 Y9.4662
G01 X5.9065 Y9.4307
G01 X5.8348 Y9.3881
G01 X5.7677 Y9.3386
G01 X5.7023 Y9.2793
G01 X5.6464 Y9.2173
G01 X5.5997 Y9.1542
G01 X5.5543 Y9.0785
G01 X5.5188 Y9.0030
G01 X5.4924 Y8.9291
G01 X5.4709 Y8.8434
G01 X5.4594 Y8.7658
G01 X5.4551 Y8.6825
G01 X5.4594 Y8.5942
G00 Z2.0000
G00 X5.4594 Y11.1342
G01 F60.00
G01 Z-0.4000
G01 F60.00
G01 X5.4709 Y11.0566
G01 X5.4909 Y10.9756
G01 X5.5207 Y10.8925
G01 X5.5566 Y10.8172
G01 X5.5997 Y10.7458
G01 X5.6464 Y10.6827
G01 X5.7023 Y10.6207
G01 X5.7677 Y10.5614
G01 X5.8308 Y10.5147
G01 X5.9022 Y10.4716
G01 X5.9775 Y10.4357
G01 X6.0559 Y10.4074
G01 X6.1416 Y10.3859
G01 X6.2241 Y10.3739
G01 X6.3050 Y10.3700
G01 X7.1050 Y10.3700
G01 X7.1859 Y10.3739
G01 X7.2684 Y10.3859
G01 X7.3541 Y10.4074
G01 X7.4325 Y10.4357
G01 X7.5078 Y10.4716
G01 X7.5792 Y10.5147
G01 X7.6461 Y10.5645
G01 X7.7077 Y10.6207
G01 X7.7605 Y10.6789
G01 X7.8103 Y10.7458
G01 X7.8557 Y10.8215
G01 X7.8912 Y10.8970
G01 X7.9191 Y10.9756
G01 X7.9391 Y11.0566
G01 X7.9511 Y11.1391
G01 X7.9549 Y11.2225
G01 X7.9506 Y11.3058
G01 X7.9381 Y11.3882
G01 X7.9176 Y11.4691
G01 X7.8893 Y11.5475
G01 X7.8534 Y11.6228
G01 X7.8103 Y11.6942
G01 X7.7605 Y11.7611
G01 X7.7043 Y11.8227
G01 X7.6461 Y11.8755
G01 X7.6244 Y11.8918
G01 X9.4125 Y13.6800
G01 X9.4256 Y13.6946
G01 X9.4356 Y13.7086
G01 X9.4442 Y13.7234
G01 X9.4514 Y13.7390
G01 X9.4555 Y13.7506
G01 X9.4609 Y13.7720
G01 X9.4631 Y13.7890
G01 X9.4638 Y13.8037
G01 X9.4638 Y16.0175
G01 X11.2712 Y17.8249
G01 X18.1863 Y17.8249
G01 X19.3490 Y16.6623
G01 X19.3490 Y15.8378
G01 X19.3496 Y15.8255
G01 X19.3519 Y15.8085
G01 X19.3573 Y15.7871
G01 X19.3614 Y15.7755
G01 X19.3685 Y15.7599
G01 X19.3772 Y15.7451
G01 X19.3872 Y15.7311
G01 X19.4002 Y15.7165
G01 X21.2000 Y13.9167
G01 X21.2147 Y13.9036
G01 X21.2246 Y13.8963
G01 X21.2392 Y13.8873
G01 X21.2591 Y13.8778
G01 X21.2754 Y13.8723
G01 X21.2921 Y13.8683
G01 X21.3042 Y13.8665
G01 X21.3238 Y13.8654
G01 X24.8070 Y13.8654
G01 X25.7520 Y12.9204
G01 X25.7052 Y12.8421
G01 X25.6676 Y12.7621
G01 X25.6381 Y12.6789
G01 X25.6169 Y12.5932
G01 X25.6046 Y12.5107
G01 X25.6001 Y12.4175
G01 X25.6046 Y12.3293
G01 X25.6178 Y12.2420
G01 X25.6395 Y12.1564
G01 X25.6676 Y12.0779
G01 X25.7052 Y11.9979
G01 X25.7531 Y11.9180
G01 X25.8059 Y11.8472
G01 X25.8654 Y11.7819
G01 X25.9272 Y11.7259
G01 X25.9980 Y11.6731
G01 X26.0779 Y11.6252
G01 X26.1579 Y11.5876
G01 X26.2364 Y11.5595
G01 X26.3220 Y11.5378
G01 X26.4093 Y11.5246
G01 X26.5025 Y11.5201
G01 X26.5907 Y11.5246
G01 X26.6780 Y11.5378
G01 X26.7636 Y11.5595
G01 X26.8421 Y11.5876
G01 X26.9221 Y11.6252
G01 X27.0020 Y11.6731
G01 X27.0728 Y11.7259
G01 X27.1381 Y11.7854
G01 X27.1972 Y11.8510
G01 X27.2469 Y11.9180
G01 X27.2925 Y11.9936
G01 X27.3305 Y12.0733
G01 X27.3605 Y12.1564
G01 X27.3831 Y12.2468
G01 X27.3958 Y12.3342
G01 X27.3999 Y12.4225
G01 X27.3958 Y12.5058
G01 X27.3831 Y12.5932
G01 X27.3605 Y12.6836
G01 X27.3305 Y12.7667
G01 X27.2925 Y12.8464
G01 X27.2469 Y12.9220
G01 X27.1972 Y12.9890
G01 X27.1381 Y13.0546
G01 X27.0728 Y13.1141
G01 X27.0020 Y13.1669
G01 X26.9221 Y13.2148
G01 X26.8421 Y13.2524
G01 X26.7636 Y13.2805
G01 X26.6732 Y13.3031
G01 X26.5907 Y13.3154
G01 X26.5025 Y13.3199
G01 X26.4093 Y13.3154
G01 X26.3268 Y13.3031
G01 X26.2411 Y13.2819
G01 X26.1533 Y13.2505
G01 X26.0736 Y13.2125
G01 X25.9996 Y13.1680
G01 X25.0033 Y14.1642
G01 X24.9887 Y14.1773
G01 X24.9788 Y14.1846
G01 X24.9642 Y14.1936
G01 X24.9442 Y14.2031
G01 X24.9280 Y14.2086
G01 X24.9113 Y14.2126
G01 X24.8991 Y14.2144
G01 X24.8795 Y14.2155
G01 X21.3963 Y14.2155
G01 X19.6991 Y15.9128
G01 X19.6990 Y16.7373
G01 X19.6980 Y16.7544
G01 X19.6961 Y16.7666
G01 X19.6922 Y16.7833
G01 X19.6848 Y16.8041
G01 X19.6795 Y16.8152
G01 X19.6709 Y16.8300
G01 X19.6609 Y16.8440
G01 X19.6478 Y16.8586
G01 X18.3826 Y18.1238
G01 X18.3680 Y18.1368
G01 X18.3540 Y18.1469
G01 X18.3392 Y18.1555
G01 X18.3236 Y18.1626
G01 X18.3120 Y18.1668
G01 X18.2906 Y18.1721
G01 X18.2736 Y18.1744
G01 X18.2589 Y18.1751
G01 X11.1987 Y18.1751
G01 X11.1840 Y18.1744
G01 X11.1670 Y18.1721
G01 X11.1503 Y18.1682
G01 X11.1295 Y18.1607
G01 X11.1141 Y18.1532
G01 X11.0995 Y18.1441
G01 X11.0858 Y18.1337
G01 X11.0749 Y18.1238
G01 X9.1650 Y16.2138
G01 X9.1550 Y16.2029
G01 X9.1446 Y16.1893
G01 X9.1333 Y16.1703
G01 X9.1261 Y16.1547
G01 X9.1220 Y16.1432
G01 X9.1176 Y16.1266
G01 X9.1148 Y16.1096
G01 X9.1137 Y16.0900
G01 X9.1137 Y13.8763
G01 X7.2871 Y12.0497
G01 X7.2684 Y12.0541
G01 X7.1908 Y12.0656
G01 X7.1050 Y12.0700
G01 X6.3050 Y12.0700
G01 X6.2192 Y12.0656
G01 X6.1416 Y12.0541
G01 X6.0606 Y12.0341
G01 X5.9820 Y12.0062
G01 X5.9022 Y11.9684
G01 X5.8308 Y11.9253
G01 X5.7677 Y11.8786
G01 X5.7023 Y11.8193
G01 X5.6464 Y11.7573
G01 X5.5997 Y11.6942
G01 X5.5566 Y11.6228
G01 X5.5188 Y11.5430
G01 X5.4909 Y11.4644
G01 X5.4709 Y11.3834
G01 X5.4594 Y11.3058
G01 X5.4551 Y11.2175
G01 X5.4594 Y11.1342
G00 Z2.0000
G00 X5.4594 Y13.6742
G01 F60.00
G01 Z-0.4000
G01 F60.00
G01 X5.4709 Y13.5966
G01 X5.4909 Y13.5156
G01 X5.5207 Y13.4325
G01 X5.5543 Y13.3615
G01 X5.5969 Y13.2898
G01 X5.6495 Y13.2189
G01 X5.7057 Y13.1573
G01 X5.7639 Y13.1045
G01 X5.8348 Y13.0519
G01 X5.9065 Y13.0093
G01 X5.9775 Y12.9757
G01 X6.0606 Y12.9459
G01 X6.1416 Y12.9259
G01 X6.2192 Y12.9144
G01 X6.3025 Y12.9101
G01 X7.1050 Y12.9100
G01 X7.1859 Y12.9139
G01 X7.2732 Y12.9269
G01 X7.3541 Y12.9474
G01 X7.4280 Y12.9738
G01 X7.5078 Y13.0116
G01 X7.5792 Y13.0547
G01 X7.6423 Y13.1014
G01 X7.7077 Y13.1607
G01 X7.7636 Y13.2227
G01 X7.8103 Y13.2858
G01 X7.8534 Y13.3572
G01 X7.8912 Y13.4370
G01 X7.9176 Y13.5109
G01 X7.9381 Y13.5918
G01 X7.9511 Y13.6791
G01 X7.9549 Y13.7625
G01 X7.9506 Y13.8458
G01 X7.9391 Y13.9234
G01 X7.9176 Y14.0091
G01 X7.8893 Y14.0875
G01 X7.8557 Y14.1585
G01 X7.8131 Y14.2302
G01 X7.7605 Y14.3011
G01 X7.7043 Y14.3627
G01 X7.6461 Y14.4155
G01 X7.5792 Y14.4653
G01 X7.5035 Y14.5107
G01 X7.4325 Y14.5443
G01 X7.3755 Y14.5649
G01 X11.0850 Y18.2745
G01 X18.3725 Y18.2745
G01 X19.7985 Y16.8485
G01 X19.7985 Y16.0240
G01 X19.7992 Y16.0117
G01 X19.8014 Y15.9947
G01 X19.8068 Y15.9733
G01 X19.8109 Y15.9617
G01 X19.8181 Y15.9461
G01 X19.8267 Y15.9313
G01 X19.8367 Y15.9173
G01 X19.8498 Y15.9027
G01 X21.3862 Y14.3662
G01 X21.3971 Y14.3563
G01 X21.4108 Y14.3458
G01 X21.4297 Y14.3345
G01 X21.4453 Y14.3274
G01 X21.4569 Y14.3232
G01 X21.4783 Y14.3179
G01 X21.4953 Y14.3156
G01 X21.5100 Y14.3149
G01 X25.8731 Y14.3149
G01 X25.9310 Y14.2628
G01 X25.9980 Y14.2131
G01 X26.0736 Y14.1675
G01 X26.1533 Y14.1295
G01 X26.2364 Y14.0995
G01 X26.3268 Y14.0769
G01 X26.4142 Y14.0642
G01 X26.5025 Y14.0601
G01 X26.5907 Y14.0646
G01 X26.6780 Y14.0778
G01 X26.7636 Y14.0995
G01 X26.8421 Y14.1276
G01 X26.9221 Y14.1652
G01 X26.9979 Y14.2104
G01 X27.0690 Y14.2628
G01 X27.1346 Y14.3219
G01 X27.1941 Y14.3872
G01 X27.2469 Y14.4580
G01 X27.2925 Y14.5336
G01 X27.3305 Y14.6133
G01 X27.3605 Y14.6964
G01 X27.3822 Y14.7820
G01 X27.3954 Y14.8693
G01 X27.3999 Y14.9575
G01 X27.3958 Y15.0458
G01 X27.3831 Y15.1332
G01 X27.3619 Y15.2189
G01 X27.3324 Y15.3021
G01 X27.2948 Y15.3821
G01 X27.2496 Y15.4579
G01 X27.1972 Y15.5290
G01 X27.1381 Y15.5946
G01 X27.0728 Y15.6541
G01 X27.0020 Y15.7069
G01 X26.9264 Y15.7525
G01 X26.8467 Y15.7905
G01 X26.7636 Y15.8205
G01 X26.6780 Y15.8422
G01 X26.5907 Y15.8554
G01 X26.5025 Y15.8599
G01 X26.4142 Y15.8558
G01 X26.3268 Y15.8431
G01 X26.2364 Y15.8205
G01 X26.1533 Y15.7905
G01 X26.0736 Y15.7525
G01 X25.9980 Y15.7069
G01 X25.9310 Y15.6572
G01 X25.8654 Y15.5981
G01 X25.8028 Y15.5290
G01 X25.7504 Y15.4579
G01 X25.7052 Y15.3821
G01 X25.6676 Y15.3021
G01 X25.6381 Y15.2189
G01 X25.6169 Y15.1332
G01 X25.6046 Y15.0507
G01 X25.6001 Y14.9575
G01 X25.6046 Y14.8693
G01 X25.6178 Y14.7820
G01 X25.6381 Y14.7011
G01 X25.6507 Y14.6650
G01 X21.5825 Y14.6650
G01 X20.1486 Y16.0990
G01 X20.1486 Y16.9235
G01 X20.1480 Y16.9357
G01 X20.1457 Y16.9528
G01 X20.1403 Y16.9742
G01 X20.1362 Y16.9857
G01 X20.1290 Y17.0014
G01 X20.1204 Y17.0162
G01 X20.1104 Y17.0302
G01 X20.0973 Y17.0448
G01 X18.5688 Y18.5733
G01 X18.5542 Y18.5864
G01 X18.5402 Y18.5964
G01 X18.5254 Y18.6050
G01 X18.5098 Y18.6121
G01 X18.4935 Y18.6177
G01 X18.4768 Y18.6216
G01 X18.4598 Y18.6239
G01 X18.4451 Y18.6246
G01 X11.0125 Y18.6246
G01 X10.9978 Y18.6239
G01 X10.9808 Y18.6216
G01 X10.9641 Y18.6177
G01 X10.9433 Y18.6103
G01 X10.9279 Y18.6027
G01 X10.9133 Y18.5937
G01 X10.8996 Y18.5832
G01 X10.8887 Y18.5733
G01 X6.9254 Y14.6100
G01 X6.3050 Y14.6100
G01 X6.2241 Y14.6061
G01 X6.1416 Y14.5941
G01 X6.0559 Y14.5726
G01 X5.9775 Y14.5443
G01 X5.9065 Y14.5107
G01 X5.8348 Y14.4681
G01 X5.7639 Y14.4155
G01 X5.7023 Y14.3593
G01 X5.6495 Y14.3011
G01 X5.5997 Y14.2342
G01 X5.5543 Y14.1585
G01 X5.5188 Y14.0830
G01 X5.4909 Y14.0044
G01 X5.4709 Y13.9234
G01 X5.4594 Y13.8458
G01 X5.4551 Y13.7575
G01 X5.4594 Y13.6742
G00 Z2.0000
G00 X1.1544 Y10.7091
G01 F60.00
G01 Z-0.4000
G01 F60.00
G01 X1.1659 Y10.6315
G01 X1.1859 Y10.5505
G01 X1.2138 Y10.4719
G01 X1.2493 Y10.3964
G01 X1.2947 Y10.3206
G01 X1.3414 Y10.2576
G01 X1.3973 Y10.1956
G01 X1.4589 Y10.1394
G01 X1.5258 Y10.0896
G01 X1.6015 Y10.0442
G01 X1.6770 Y10.0087
G01 X1.7509 Y9.9823
G01 X1.8318 Y9.9618
G01 X1.9142 Y9.9493
G01 X2.0025 Y9.9449
G01 X2.0858 Y9.9493
G01 X2.1634 Y9.9608
G01 X2.2444 Y9.9808
G01 X2.3275 Y10.0106
G01 X2.3985 Y10.0442
G01 X2.4641 Y10.0832
G01 X5.2406 Y7.3067
G01 X5.2553 Y7.2936
G01 X5.2692 Y7.2836
G01 X5.2841 Y7.2750
G01 X5.2997 Y7.2679
G01 X5.3160 Y7.2623
G01 X5.3327 Y7.2584
G01 X5.3497 Y7.2561
G01 X5.3644 Y7.2554
G01 X9.9697 Y7.2554
G01 X8.0597 Y5.3454
G01 X8.0467 Y5.3307
G01 X8.0393 Y5.3209
G01 X8.0303 Y5.3063
G01 X8.0209 Y5.2863
G01 X8.0153 Y5.2701
G01 X8.0114 Y5.2534
G01 X8.0096 Y5.2412
G01 X8.0084 Y5.2216
G01 X8.0084 Y2.8165
G01 X8.0091 Y2.8018
G01 X8.0114 Y2.7848
G01 X8.0167 Y2.7634
G01 X8.0209 Y2.7518
G01 X8.0280 Y2.7362
G01 X8.0393 Y2.7172
G01 X8.0498 Y2.7036
G01 X8.0580 Y2.6945
G01 X8.4627 Y2.2897
G01 X8.4774 Y2.2767
G01 X8.4872 Y2.2693
G01 X8.5019 Y2.2603
G01 X8.5218 Y2.2509
G01 X8.5381 Y2.2453
G01 X8.5548 Y2.2414
G01 X8.5669 Y2.2396
G01 X8.5865 Y2.2384
G01 X10.7235 Y2.2384
G01 X10.7382 Y2.2391
G01 X10.7552 Y2.2414
G01 X10.7766 Y2.2467
G01 X10.7882 Y2.2509
G01 X10.8038 Y2.2580
G01 X10.8228 Y2.2693
G01 X10.8326 Y2.2767
G01 X10.8455 Y2.2880
G01 X11.3736 Y2.8160
G01 X11.4294 Y2.7828
G01 X11.4970 Y2.7508
G01 X11.5767 Y2.7223
G01 X11.6540 Y2.7032
G01 X11.7280 Y2.6922
G01 X11.8125 Y2.6881
G01 X11.8871 Y2.6917
G01 X11.9660 Y2.7032
G01 X12.0480 Y2.7237
G01 X12.1184 Y2.7489
G01 X12.1906 Y2.7828
G01 X12.2590 Y2.8235
G01 X12.2683 Y2.8301
G01 X12.2783 Y2.8279
G01 X12.2904 Y2.8261
G01 X12.3100 Y2.8249
G01 X15.4208 Y2.8249
G01 X15.4403 Y2.6952
G01 X15.4775 Y2.5477
G01 X15.5271 Y2.4091
G01 X15.5919 Y2.2715
G01 X15.6699 Y2.1409
G01 X15.7603 Y2.0186
G01 X15.8658 Y1.9023
G01 X15.9786 Y1.8003
G01 X16.1009 Y1.7099
G01 X16.2315 Y1.6319
G01 X16.3646 Y1.5690
G01 X16.5124 Y1.5161
G01 X16.6600 Y1.4794
G01 X16.8105 Y1.4573
G01 X16.9625 Y1.4501
G01 X17.1144 Y1.4578
G01 X17.2600 Y1.4794
G01 X17.4123 Y1.5175
G01 X17.5554 Y1.5690
G01 X17.6928 Y1.6342
G01 X17.8231 Y1.7126
G01 X17.9414 Y1.8003
G01 X18.0577 Y1.9058
G01 X18.1597 Y2.0186
G01 X18.2501 Y2.1409
G01 X18.3281 Y2.2715
G01 X18.3929 Y2.4091
G01 X18.4425 Y2.5477
G01 X18.4806 Y2.7000
G01 X18.5022 Y2.8456
G01 X18.5099 Y2.9975
G01 X18.5027 Y3.1495
G01 X18.4806 Y3.3000
G01 X18.4425 Y3.4523
G01 X18.3929 Y3.5909
G01 X18.3281 Y3.7285
G01 X18.2501 Y3.8591
G01 X18.1721 Y3.9646
G01 X22.3755 Y8.1680
G01 X22.3837 Y8.1771
G01 X22.3941 Y8.1907
G01 X22.4055 Y8.2097
G01 X22.4126 Y8.2253
G01 X22.4168 Y8.2369
G01 X22.4221 Y8.2583
G01 X22.4244 Y8.2753
G01 X22.4251 Y8.2900
G01 X22.4251 Y8.4657
G01 X22.4572 Y8.4707
G01 X22.5571 Y8.4960
G01 X22.6495 Y8.5290
G01 X22.7428 Y8.5729
G01 X22.8313 Y8.6256
G01 X22.9142 Y8.6868
G01 X22.9942 Y8.7593
G01 X23.0632 Y8.8358
G01 X23.1244 Y8.9187
G01 X23.1771 Y9.0072
G01 X23.2191 Y9.0959
G01 X23.2554 Y9.1976
G01 X23.2802 Y9.2976
G01 X23.2951 Y9.3995
G01 X23.2999 Y9.5025
G01 X23.2951 Y9.6005
G01 X23.2793 Y9.7072
G01 X23.2540 Y9.8071
G01 X23.2210 Y9.8995
G01 X23.1771 Y9.9928
G01 X23.1244 Y10.0813
G01 X23.0601 Y10.1680
G01 X22.9907 Y10.2442
G01 X22.9180 Y10.3101
G01 X22.8313 Y10.3744
G01 X22.7428 Y10.4271
G01 X22.6541 Y10.4691
G01 X22.5524 Y10.5054
G01 X22.4524 Y10.5302
G01 X22.3554 Y10.5446
G01 X22.2475 Y10.5499
G01 X22.1446 Y10.5446
G01 X22.0476 Y10.5302
G01 X21.9429 Y10.5040
G01 X21.8505 Y10.4710
G01 X21.7572 Y10.4271
G01 X21.6646 Y10.3716
G01 X21.5858 Y10.3132
G01 X21.5093 Y10.2442
G01 X21.4368 Y10.1642
G01 X21.3784 Y10.0854
G01 X21.3252 Y9.9971
G01 X21.2790 Y9.8995
G01 X21.2446 Y9.8024
G01 X21.2198 Y9.7024
G01 X21.2054 Y9.6054
G01 X21.2001 Y9.4975
G01 X21.2054 Y9.3946
G01 X21.2198 Y9.2976
G01 X21.2446 Y9.1976
G01 X21.2790 Y9.1005
G01 X21.3252 Y9.0029
G01 X21.3784 Y8.9146
G01 X21.4368 Y8.8358
G01 X21.5058 Y8.7593
G01 X21.5820 Y8.6899
G01 X21.6646 Y8.6284
G01 X21.7572 Y8.5729
G01 X21.8505 Y8.5290
G01 X21.9429 Y8.4960
G01 X22.0428 Y8.4707
G01 X22.0749 Y8.4657
G01 X22.0749 Y8.3625
G01 X17.9246 Y4.2121
G01 X17.8191 Y4.2901
G01 X17.6928 Y4.3658
G01 X17.5509 Y4.4329
G01 X17.4076 Y4.4839
G01 X17.2600 Y4.5206
G01 X17.1144 Y4.5422
G01 X16.9575 Y4.5499
G01 X16.8056 Y4.5422
G01 X16.6600 Y4.5206
G01 X16.5077 Y4.4825
G01 X16.3646 Y4.4310
G01 X16.2272 Y4.3658
G01 X16.0969 Y4.2874
G01 X15.9786 Y4.1997
G01 X15.8623 Y4.0942
G01 X15.7603 Y3.9814
G01 X15.6726 Y3.8631
G01 X15.5942 Y3.7328
G01 X15.5290 Y3.5954
G01 X15.4761 Y3.4476
G01 X15.4403 Y3.3048
G01 X15.4208 Y3.1751
G01 X12.5535 Y3.1751
G01 X12.5611 Y3.1916
G01 X12.5863 Y3.2620
G01 X12.6068 Y3.3440
G01 X12.6178 Y3.4180
G01 X12.6219 Y3.4975
G01 X12.6178 Y3.5820
G01 X12.6068 Y3.6560
G01 X12.5877 Y3.7333
G01 X12.5611 Y3.8084
G01 X12.5249 Y3.8849
G01 X12.4837 Y3.9531
G01 X12.4392 Y4.0132
G01 X12.3824 Y4.0759
G01 X12.3232 Y4.1292
G01 X12.2631 Y4.1737
G01 X12.1949 Y4.2149
G01 X12.1184 Y4.2511
G01 X12.0433 Y4.2777
G01 X11.9660 Y4.2968
G01 X11.8920 Y4.3078
G01 X11.8075 Y4.3119
G01 X11.7329 Y4.3083
G01 X11.6540 Y4.2968
G01 X11.5767 Y4.2777
G01 X11.5016 Y4.2511
G01 X11.4294 Y4.2172
G01 X11.3569 Y4.1737
G01 X11.2930 Y4.1261
G01 X11.2341 Y4.0724
G01 X11.1839 Y4.0170
G01 X11.1363 Y3.9531
G01 X11.0951 Y3.8849
G01 X11.0589 Y3.8084
G01 X11.0323 Y3.7333
G01 X11.0132 Y3.6560
G01 X11.0022 Y3.5820
G01 X10.9981 Y3.4975
G01 X11.0022 Y3.4180
G01 X11.0132 Y3.3440
G01 X11.0323 Y3.2667
G01 X11.0608 Y3.1870
G01 X11.0928 Y3.1194
G01 X11.1260 Y3.0636
G01 X10.6510 Y2.5886
G01 X8.6590 Y2.5886
G01 X8.3586 Y2.8890
G01 X8.3586 Y5.1491
G01 X10.5066 Y7.2971
G01 X11.6215 Y7.2971
G01 X11.6533 Y7.2989
G01 X11.6824 Y7.3034
G01 X11.7109 Y7.3108
G01 X11.7386 Y7.3210
G01 X11.7651 Y7.3338
G01 X11.7902 Y7.3491
G01 X11.8137 Y7.3668
G01 X11.8353 Y7.3868
G01 X11.8549 Y7.4088
G01 X11.8695 Y7.4285
G01 X11.8849 Y7.4536
G01 X11.8977 Y7.4801
G01 X11.9078 Y7.5077
G01 X11.9152 Y7.5362
G01 X11.9202 Y7.5702
G01 X11.9215 Y7.5971
G01 X11.9215 Y7.6374
G01 X13.5825 Y7.6374
G01 X13.6095 Y7.6386
G01 X13.6386 Y7.6427
G01 X13.6720 Y7.6511
G01 X13.6996 Y7.6612
G01 X13.7218 Y7.6717
G01 X13.7472 Y7.6866
G01 X13.7710 Y7.7040
G01 X13.7929 Y7.7236
G01 X13.9006 Y7.8311
G01 X13.9250 Y7.8300
G01 X14.7250 Y7.8300
G01 X14.8108 Y7.8344
G01 X14.8932 Y7.8469
G01 X14.9741 Y7.8674
G01 X15.0480 Y7.8938
G01 X15.1235 Y7.9293
G01 X15.1992 Y7.9747
G01 X15.2661 Y8.0245
G01 X15.3277 Y8.0807
G01 X15.3805 Y8.1389
G01 X15.4303 Y8.2058
G01 X15.4757 Y8.2815
G01 X15.5112 Y8.3570
G01 X15.5376 Y8.4309
G01 X15.5581 Y8.5118
G01 X15.5706 Y8.5942
G01 X15.5749 Y8.6775
G01 X15.5706 Y8.7658
G01 X15.5591 Y8.8434
G01 X15.5391 Y8.9244
G01 X15.5093 Y9.0075
G01 X15.4757 Y9.0785
G01 X15.4331 Y9.1502
G01 X15.3805 Y9.2211
G01 X15.3243 Y9.2827
G01 X15.2661 Y9.3355
G01 X15.1952 Y9.3881
G01 X15.1235 Y9.4307
G01 X15.0525 Y9.4643
G01 X14.9694 Y9.4941
G01 X14.8884 Y9.5141
G01 X14.8108 Y9.5256
G01 X14.7250 Y9.5300
G01 X13.9250 Y9.5300
G01 X13.9006 Y9.5289
G01 X12.6307 Y10.7987
G01 X12.6307 Y12.2151
G01 X12.6446 Y12.2204
G01 X12.6711 Y12.2332
G01 X12.6962 Y12.2485
G01 X12.7159 Y12.2631
G01 X12.7414 Y12.2862
G01 X12.7610 Y12.3082
G01 X12.7756 Y12.3279
G01 X12.7932 Y12.3573
G01 X12.8056 Y12.3840
G01 X12.8139 Y12.4071
G01 X12.8222 Y12.4404
G01 X12.8258 Y12.4647
G01 X12.8275 Y12.4941
G01 X12.8276 Y13.3215
G01 X12.8263 Y13.3485
G01 X12.8222 Y13.3777
G01 X12.8153 Y13.4063
G01 X12.8037 Y13.4386
G01 X12.7932 Y13.4608
G01 X12.7783 Y13.4861
G01 X12.7610 Y13.5099
G01 X12.7414 Y13.5319
G01 X12.7197 Y13.5518
G01 X12.6962 Y13.5696
G01 X12.6711 Y13.5849
G01 X12.6446 Y13.5977
G01 X12.6170 Y13.6079
G01 X12.5885 Y13.6152
G01 X12.5594 Y13.6198
G01 X12.5300 Y13.6215
G01 X11.2251 Y13.6215
G01 X11.1957 Y13.6198
G01 X11.1715 Y13.6162
G01 X11.1428 Y13.6093
G01 X11.1105 Y13.5977
G01 X11.0840 Y13.5849
G01 X11.0589 Y13.5696
G01 X11.0392 Y13.5550
G01 X11.0172 Y13.5354
G01 X10.9941 Y13.5099
G01 X10.9768 Y13.4861
G01 X10.9619 Y13.4608
G01 X10.9514 Y13.4386
G01 X10.9412 Y13.4110
G01 X10.9339 Y13.3825
G01 X10.9293 Y13.3534
G01 X10.9276 Y13.3215
G01 X10.9276 Y12.4965
G01 X10.9288 Y12.4696
G01 X10.9329 Y12.4404
G01 X10.9398 Y12.4118
G01 X10.9514 Y12.3795
G01 X10.9619 Y12.3573
G01 X10.9768 Y12.3319
G01 X10.9973 Y12.3044
G01 X11.0172 Y12.2827
G01 X11.0354 Y12.2662
G01 X11.0630 Y12.2458
G01 X11.0883 Y12.2309
G01 X11.1105 Y12.2204
G01 X11.1381 Y12.2102
G01 X11.1666 Y12.2028
G01 X11.1957 Y12.1983
G01 X11.2276 Y12.1965
G01 X12.0305 Y12.1965
G01 X12.0305 Y10.6744
G01 X12.0322 Y10.6426
G01 X12.0358 Y10.6183
G01 X12.0427 Y10.5897
G01 X12.0524 Y10.5618
G01 X12.0671 Y10.5308
G01 X12.0825 Y10.5057
G01 X12.0971 Y10.4859
G01 X12.1184 Y10.4622
G01 X13.3123 Y9.2683
G01 X13.2664 Y9.2173
G01 X13.2169 Y9.1502
G01 X13.1743 Y9.0785
G01 X13.1407 Y9.0075
G01 X13.1109 Y8.9244
G01 X13.0909 Y8.8434
G01 X13.0794 Y8.7658
G01 X13.0751 Y8.6775
G01 X13.0794 Y8.5942
G01 X13.0919 Y8.5118
G01 X13.1124 Y8.4309
G01 X13.1388 Y8.3570
G01 X13.1743 Y8.2815
G01 X13.2003 Y8.2376
G01 X11.9215 Y8.2376
G01 X11.9215 Y8.4221
G01 X11.9198 Y8.4540
G01 X11.9152 Y8.4831
G01 X11.9078 Y8.5116
G01 X11.8996 Y8.5347
G01 X11.8872 Y8.5614
G01 X11.8695 Y8.5908
G01 X11.8518 Y8.6143
G01 X11.8319 Y8.6360
G01 X11.8137 Y8.6524
G01 X11.7902 Y8.6702
G01 X11.7651 Y8.6855
G01 X11.7386 Y8.6983
G01 X11.7109 Y8.7085
G01 X11.6776 Y8.7168
G01 X11.6485 Y8.7209
G01 X11.6215 Y8.7221
G01 X10.3215 Y8.7221
G01 X10.2945 Y8.7209
G01 X10.2654 Y8.7168
G01 X10.2368 Y8.7099
G01 X10.2045 Y8.6983
G01 X10.1823 Y8.6878
G01 X10.1569 Y8.6729
G01 X10.1293 Y8.6524
G01 X10.1077 Y8.6325
G01 X10.0912 Y8.6143
G01 X10.0708 Y8.5867
G01 X10.0558 Y8.5614
G01 X10.0453 Y8.5392
G01 X10.0352 Y8.5116
G01 X10.0278 Y8.4831
G01 X10.0233 Y8.4540
G01 X10.0215 Y8.4221
G01 X10.0215 Y7.6055
G01 X5.4369 Y7.6055
G01 X2.7117 Y10.3308
G01 X2.7507 Y10.3964
G01 X2.7843 Y10.4674
G01 X2.8126 Y10.5458
G01 X2.8331 Y10.6267
G01 X2.8456 Y10.7091
G01 X2.8499 Y10.7924
G01 X2.8461 Y10.8758
G01 X2.8341 Y10.9583
G01 X2.8126 Y11.0440
G01 X2.7843 Y11.1224
G01 X2.7507 Y11.1934
G01 X2.7081 Y11.2650
G01 X2.6586 Y11.3322
G01 X2.6027 Y11.3942
G01 X2.5373 Y11.4535
G01 X2.4702 Y11.5029
G01 X2.3985 Y11.5456
G01 X2.3275 Y11.5792
G01 X2.3001 Y11.5892
G01 X2.3001 Y13.4107
G01 X2.3275 Y13.4208
G01 X2.4028 Y13.4567
G01 X2.4742 Y13.4998
G01 X2.5373 Y13.5465
G01 X2.5993 Y13.6024
G01 X2.6555 Y13.6640
G01 X2.7081 Y13.7350
G01 X2.7507 Y13.8066
G01 X2.7862 Y13.8821
G01 X2.8126 Y13.9560
G01 X2.8331 Y14.0369
G01 X2.8456 Y14.1194
G01 X2.8499 Y14.2027
G01 X2.8456 Y14.2909
G01 X2.8341 Y14.3685
G01 X2.8141 Y14.4495
G01 X2.7843 Y14.5326
G01 X2.7507 Y14.6036
G01 X2.7081 Y14.6753
G01 X2.6555 Y14.7462
G01 X2.5993 Y14.8078
G01 X2.5411 Y14.8606
G01 X2.4702 Y14.9132
G01 X2.3985 Y14.9558
G01 X2.3230 Y14.9913
G01 X2.2491 Y15.0177
G01 X2.1682 Y15.0382
G01 X2.0858 Y15.0507
G01 X2.0025 Y15.0551
G01 X1.9191 Y15.0512
G01 X1.8366 Y15.0392
G01 X1.7556 Y15.0192
G01 X1.6770 Y14.9913
G01 X1.6015 Y14.9558
G01 X1.5298 Y14.9132
G01 X1.4627 Y14.8637
G01 X1.4007 Y14.8078
G01 X1.3445 Y14.7462
G01 X1.2947 Y14.6794
G01 X1.2516 Y14.6079
G01 X1.2157 Y14.5326
G01 X1.1874 Y14.4542
G01 X1.1669 Y14.3733
G01 X1.1544 Y14.2909
G01 X1.1501 Y14.2076
G01 X1.1539 Y14.1242
G01 X1.1659 Y14.0417
G01 X1.1874 Y13.9560
G01 X1.2157 Y13.8776
G01 X1.2516 Y13.8023
G01 X1.2947 Y13.7309
G01 X1.3445 Y13.6640
G01 X1.4007 Y13.6024
G01 X1.4589 Y13.5497
G01 X1.5258 Y13.4998
G01 X1.5972 Y13.4567
G01 X1.6725 Y13.4208
G01 X1.6999 Y13.4107
G01 X1.6999 Y11.5892
G01 X1.6725 Y11.5792
G01 X1.5972 Y11.5433
G01 X1.5258 Y11.5002
G01 X1.4627 Y11.4535
G01 X1.4007 Y11.3976
G01 X1.3445 Y11.3360
G01 X1.2919 Y11.2650
G01 X1.2493 Y11.1934
G01 X1.2138 Y11.1179
G01 X1.1874 Y11.0440
G01 X1.1669 Y10.9631
G01 X1.1544 Y10.8806
G01 X1.1501 Y10.7973
G01 X1.1544 Y10.7091
G00 Z2.0000
G00 X0.4504 Y9.5419
G01 F60.00
G01 Z-0.4000
G01 F60.00
G01 X0.4516 Y9.5174
G01 X0.4557 Y9.4883
G01 X0.4626 Y9.4596
G01 X0.4723 Y9.4318
G01 X0.4847 Y9.4051
G01 X0.4996 Y9.3797
G01 X0.5201 Y9.3521
G01 X0.5383 Y9.3322
G01 X1.1500 Y8.7204
G01 X1.1500 Y7.4949
G01 X1.1510 Y7.4851
G01 X1.1538 Y7.4758
G01 X1.1584 Y7.4671
G01 X1.1646 Y7.4595
G01 X1.1722 Y7.4533
G01 X1.1809 Y7.4487
G01 X1.1902 Y7.4458
G01 X1.2000 Y7.4449
G01 X2.4256 Y7.4449
G01 X3.8899 Y5.9806
G01 X3.8899 Y4.2541
G01 X3.8770 Y4.2492
G01 X3.8094 Y4.2172
G01 X3.7410 Y4.1765
G01 X3.6768 Y4.1292
G01 X3.6141 Y4.0724
G01 X3.5608 Y4.0132
G01 X3.5135 Y3.9490
G01 X3.4728 Y3.8806
G01 X3.4408 Y3.8130
G01 X3.4137 Y3.7380
G01 X3.3932 Y3.6560
G01 X3.3817 Y3.5771
G01 X3.3781 Y3.4975
G01 X3.3817 Y3.4229
G01 X3.3932 Y3.3440
G01 X3.4123 Y3.2667
G01 X3.4389 Y3.1916
G01 X3.4728 Y3.1194
G01 X3.5163 Y3.0469
G01 X3.5639 Y2.9830
G01 X3.6176 Y2.9241
G01 X3.6768 Y2.8708
G01 X3.7369 Y2.8263
G01 X3.8051 Y2.7851
G01 X3.8770 Y2.7508
G01 X3.9567 Y2.7223
G01 X4.0340 Y2.7032
G01 X4.1129 Y2.6917
G01 X4.1925 Y2.6881
G01 X4.2671 Y2.6917
G01 X4.3460 Y2.7032
G01 X4.4233 Y2.7223
G01 X4.4984 Y2.7489
G01 X4.5110 Y2.7546
G01 X7.0523 Y0.2133
G01 X7.0723 Y0.1951
G01 X7.0958 Y0.1774
G01 X7.1209 Y0.1620
G01 X7.1474 Y0.1492
G01 X7.1751 Y0.1391
G01 X7.2036 Y0.1317
G01 X7.2375 Y0.1266
G01 X7.2645 Y0.1254
G01 X19.4655 Y0.1254
G01 X19.4925 Y0.1266
G01 X19.5264 Y0.1317
G01 X19.5549 Y0.1391
G01 X19.5826 Y0.1492
G01 X19.6091 Y0.1620
G01 X19.6342 Y0.1774
G01 X19.6577 Y0.1951
G01 X19.6759 Y0.2116
G01 X20.9144 Y1.4500
G01 X23.5400 Y1.4500
G01 X23.5449 Y1.4502
G01 X23.5545 Y1.4522
G01 X23.5591 Y1.4538
G01 X23.5678 Y1.4584
G01 X23.5717 Y1.4613
G01 X23.5787 Y1.4683
G01 X23.5816 Y1.4722
G01 X23.5862 Y1.4809
G01 X23.5890 Y1.4902
G01 X23.5900 Y1.5000
G01 X23.5900 Y4.1824
G01 X25.9996 Y6.5920
G01 X26.0779 Y6.5452
G01 X26.1579 Y6.5076
G01 X26.2364 Y6.4795
G01 X26.3268 Y6.4569
G01 X26.4142 Y6.4442
G01 X26.5025 Y6.4401
G01 X26.5858 Y6.4442
G01 X26.6732 Y6.4569
G01 X26.7636 Y6.4795
G01 X26.8421 Y6.5076
G01 X26.9221 Y6.5452
G01 X27.0020 Y6.5931
G01 X27.0690 Y6.6428
G01 X27.1346 Y6.7019
G01 X27.1972 Y6.7710
G01 X27.2496 Y6.8421
G01 X27.2948 Y6.9179
G01 X27.3305 Y6.9933
G01 X27.3605 Y7.0764
G01 X27.3831 Y7.1668
G01 X27.3958 Y7.2542
G01 X27.3999 Y7.3425
G01 X27.3954 Y7.4307
G01 X27.3822 Y7.5180
G01 X27.3605 Y7.6036
G01 X27.3324 Y7.6821
G01 X27.2948 Y7.7621
G01 X27.2496 Y7.8379
G01 X27.1972 Y7.9090
G01 X27.1346 Y7.9781
G01 X27.0690 Y8.0372
G01 X27.0020 Y8.0869
G01 X26.9264 Y8.1325
G01 X26.8421 Y8.1724
G01 X26.7589 Y8.2019
G01 X26.6732 Y8.2231
G01 X26.5907 Y8.2354
G01 X26.5025 Y8.2399
G01 X26.4093 Y8.2354
G01 X26.3268 Y8.2231
G01 X26.2918 Y8.2146
G01 X22.2567 Y12.2497
G01 X22.2567 Y12.9606
G01 X22.2555 Y12.9875
G01 X22.2514 Y13.0167
G01 X22.2430 Y13.0500
G01 X22.2329 Y13.0776
G01 X22.2201 Y13.1041
G01 X22.2048 Y13.1293
G01 X22.1870 Y13.1528
G01 X22.1671 Y13.1744
G01 X22.1489 Y13.1909
G01 X22.1254 Y13.2086
G01 X22.0960 Y13.2263
G01 X22.0692 Y13.2386
G01 X22.0461 Y13.2469
G01 X22.0176 Y13.2543
G01 X21.9886 Y13.2588
G01 X21.9592 Y13.2605
G01 X21.1543 Y13.2605
G01 X21.1249 Y13.2588
G01 X21.0958 Y13.2543
G01 X21.0673 Y13.2469
G01 X21.0397 Y13.2368
G01 X21.0132 Y13.2240
G01 X20.9880 Y13.2086
G01 X20.9646 Y13.1909
G01 X20.9429 Y13.1709
G01 X20.9233 Y13.1490
G01 X20.9060 Y13.1252
G01 X20.8910 Y13.0998
G01 X20.8806 Y13.0776
G01 X20.8690 Y13.0453
G01 X20.8621 Y13.0167
G01 X20.8580 Y12.9875
G01 X20.8567 Y12.9606
G01 X20.8567 Y11.8832
G01 X20.1486 Y11.1751
G01 X17.5725 Y11.1751
G01 X17.1751 Y11.5725
G01 X17.1751 Y13.5000
G01 X17.1739 Y13.5196
G01 X17.1712 Y13.5365
G01 X17.1668 Y13.5531
G01 X17.1626 Y13.5647
G01 X17.1555 Y13.5803
G01 X17.1441 Y13.5993
G01 X17.1337 Y13.6129
G01 X17.1238 Y13.6238
G01 X15.6238 Y15.1238
G01 X15.6129 Y15.1337
G01 X15.5993 Y15.1441
G01 X15.5803 Y15.1555
G01 X15.5647 Y15.1626
G01 X15.5531 Y15.1668
G01 X15.5317 Y15.1721
G01 X15.5147 Y15.1744
G01 X15.5000 Y15.1751
G01 X12.0000 Y15.1751
G01 X11.9853 Y15.1744
G01 X11.9683 Y15.1721
G01 X11.9469 Y15.1668
G01 X11.9308 Y15.1607
G01 X11.9197 Y15.1555
G01 X11.9048 Y15.1469
G01 X11.8909 Y15.1368
G01 X11.8762 Y15.1238
G01 X10.5293 Y13.7768
G01 X10.5162 Y13.7622
G01 X10.5062 Y13.7482
G01 X10.4975 Y13.7334
G01 X10.4904 Y13.7177
G01 X10.4849 Y13.7015
G01 X10.4809 Y13.6848
G01 X10.4786 Y13.6678
G01 X10.4780 Y13.6530
G01 X10.4780 Y11.8471
G01 X10.3215 Y11.8471
G01 X10.2897 Y11.8454
G01 X10.2606 Y11.8408
G01 X10.2321 Y11.8335
G01 X10.2045 Y11.8233
G01 X10.1780 Y11.8105
G01 X10.1528 Y11.7952
G01 X10.1331 Y11.7806
G01 X10.1112 Y11.7610
G01 X10.0881 Y11.7355
G01 X10.0708 Y11.7117
G01 X10.0558 Y11.6864
G01 X10.0453 Y11.6642
G01 X10.0352 Y11.6366
G01 X10.0278 Y11.6081
G01 X10.0233 Y11.5790
G01 X10.0215 Y11.5471
G01 X10.0215 Y10.7221
G01 X10.0233 Y10.6903
G01 X10.0278 Y10.6612
G01 X10.0352 Y10.6327
G01 X10.0453 Y10.6051
G01 X10.0558 Y10.5829
G01 X10.0708 Y10.5575
G01 X10.0881 Y10.5338
G01 X10.1112 Y10.5083
G01 X10.1331 Y10.4887
G01 X10.1569 Y10.4714
G01 X10.1823 Y10.4565
G01 X10.2045 Y10.4460
G01 X10.2368 Y10.4344
G01 X10.2654 Y10.4275
G01 X10.2897 Y10.4239
G01 X10.3191 Y10.4222
G01 X11.6215 Y10.4221
G01 X11.6485 Y10.4234
G01 X11.6776 Y10.4275
G01 X11.7109 Y10.4358
G01 X11.7340 Y10.4441
G01 X11.7607 Y10.4565
G01 X11.7902 Y10.4741
G01 X11.8099 Y10.4887
G01 X11.8319 Y10.5083
G01 X11.8549 Y10.5338
G01 X11.8695 Y10.5535
G01 X11.8849 Y10.5786
G01 X11.8977 Y10.6051
G01 X11.9078 Y10.6327
G01 X11.9152 Y10.6612
G01 X11.9198 Y10.6903
G01 X11.9214 Y10.7197
G01 X11.9214 Y11.5496
G01 X11.9202 Y11.5741
G01 X11.9162 Y11.6033
G01 X11.9092 Y11.6319
G01 X11.8996 Y11.6597
G01 X11.8849 Y11.6907
G01 X11.8695 Y11.7158
G01 X11.8518 Y11.7393
G01 X11.8319 Y11.7610
G01 X11.8099 Y11.7806
G01 X11.7902 Y11.7952
G01 X11.7651 Y11.8105
G01 X11.7386 Y11.8233
G01 X11.7109 Y11.8335
G01 X11.6824 Y11.8408
G01 X11.6533 Y11.8454
G01 X11.6215 Y11.8471
G01 X10.8281 Y11.8471
G01 X10.8281 Y13.5805
G01 X12.0725 Y14.8249
G01 X15.4275 Y14.8249
G01 X16.8249 Y13.4275
G01 X16.8249 Y11.5000
G01 X16.8261 Y11.4804
G01 X16.8288 Y11.4635
G01 X16.8332 Y11.4469
G01 X16.8374 Y11.4353
G01 X16.8445 Y11.4197
G01 X16.8559 Y11.4007
G01 X16.8663 Y11.3871
G01 X16.8745 Y11.3780
G01 X17.3762 Y10.8762
G01 X17.3909 Y10.8632
G01 X17.4007 Y10.8559
G01 X17.4153 Y10.8468
G01 X17.4308 Y10.8393
G01 X17.4469 Y10.8332
G01 X17.4683 Y10.8279
G01 X17.4853 Y10.8256
G01 X17.5000 Y10.8249
G01 X20.2211 Y10.8249
G01 X20.2359 Y10.8256
G01 X20.2529 Y10.8279
G01 X20.2743 Y10.8332
G01 X20.2858 Y10.8374
G01 X20.3015 Y10.8445
G01 X20.3204 Y10.8559
G01 X20.3341 Y10.8663
G01 X20.3432 Y10.8745
G01 X20.9564 Y11.4877
G01 X20.9683 Y11.4772
G01 X20.9921 Y11.4598
G01 X21.0175 Y11.4449
G01 X21.0397 Y11.4344
G01 X21.0720 Y11.4228
G01 X21.1006 Y11.4159
G01 X21.1298 Y11.4118
G01 X21.1567 Y11.4106
G01 X21.9567 Y11.4106
G01 X21.9886 Y11.4123
G01 X22.0176 Y11.4169
G01 X22.0461 Y11.4243
G01 X22.0738 Y11.4344
G01 X22.0960 Y11.4449
G01 X22.1213 Y11.4598
G01 X22.1451 Y11.4772
G01 X22.1671 Y11.4968
G01 X22.1870 Y11.5184
G01 X22.2048 Y11.5419
G01 X22.2201 Y11.5670
G01 X22.2329 Y11.5935
G01 X22.2430 Y11.6212
G01 X22.2504 Y11.6497
G01 X22.2555 Y11.6836
G01 X22.2567 Y11.7106
G01 X22.2567 Y11.7545
G01 X25.9557 Y8.0556
G01 X25.9272 Y8.0341
G01 X25.8619 Y7.9746
G01 X25.8028 Y7.9090
G01 X25.7504 Y7.8379
G01 X25.7052 Y7.7621
G01 X25.6676 Y7.6821
G01 X25.6381 Y7.5989
G01 X25.6169 Y7.5132
G01 X25.6042 Y7.4258
G01 X25.6001 Y7.3375
G01 X25.6046 Y7.2493
G01 X25.6178 Y7.1620
G01 X25.6395 Y7.0764
G01 X25.6695 Y6.9933
G01 X25.7075 Y6.9136
G01 X25.7520 Y6.8396
G01 X23.4624 Y4.5500
G01 X20.5400 Y4.5500
G01 X20.5302 Y4.5490
G01 X20.5209 Y4.5462
G01 X20.5122 Y4.5416
G01 X20.5046 Y4.5354
G01 X20.4984 Y4.5278
G01 X20.4938 Y4.5191
G01 X20.4910 Y4.5098
G01 X20.4900 Y4.5000
G01 X20.4900 Y1.8744
G01 X19.3412 Y0.7256
G01 X7.3888 Y0.7256
G01 X4.9354 Y3.1790
G01 X4.9411 Y3.1916
G01 X4.9663 Y3.2620
G01 X4.9859 Y3.3392
G01 X4.9978 Y3.4180
G01 X5.0019 Y3.4975
G01 X4.9983 Y3.5771
G01 X4.9868 Y3.6560
G01 X4.9663 Y3.7380
G01 X4.9392 Y3.8130
G01 X4.9049 Y3.8849
G01 X4.8637 Y3.9531
G01 X4.8161 Y4.0170
G01 X4.7624 Y4.0759
G01 X4.7032 Y4.1292
G01 X4.6390 Y4.1765
G01 X4.5706 Y4.2172
G01 X4.5030 Y4.2492
G01 X4.4901 Y4.2541
G01 X4.4901 Y6.1049
G01 X4.4889 Y6.1319
G01 X4.4848 Y6.1610
G01 X4.4764 Y6.1943
G01 X4.4663 Y6.2220
G01 X4.4558 Y6.2442
G01 X4.4409 Y6.2696
G01 X4.4235 Y6.2933
G01 X4.4022 Y6.3171
G01 X2.8500 Y7.8693
G01 X2.8500 Y9.0949
G01 X2.8490 Y9.1046
G01 X2.8478 Y9.1094
G01 X2.8462 Y9.1140
G01 X2.8416 Y9.1227
G01 X2.8354 Y9.1302
G01 X2.8278 Y9.1365
G01 X2.8236 Y9.1390
G01 X2.8145 Y9.1427
G01 X2.8049 Y9.1446
G01 X2.8000 Y9.1449
G01 X1.5744 Y9.1449
G01 X1.0506 Y9.6687
G01 X1.0506 Y15.3313
G01 X1.5744 Y15.8551
G01 X2.8000 Y15.8551
G01 X2.8049 Y15.8554
G01 X2.8145 Y15.8573
G01 X2.8236 Y15.8610
G01 X2.8278 Y15.8635
G01 X2.8354 Y15.8698
G01 X2.8416 Y15.8773
G01 X2.8462 Y15.8860
G01 X2.8478 Y15.8906
G01 X2.8490 Y15.8954
G01 X2.8500 Y15.9051
G01 X2.8500 Y16.4050
G01 X5.4622 Y16.4050
G01 X5.4589 Y16.3809
G01 X5.4551 Y16.2975
G01 X5.4594 Y16.2142
G01 X5.4709 Y16.1366
G01 X5.4924 Y16.0509
G01 X5.5188 Y15.9770
G01 X5.5543 Y15.9015
G01 X5.5969 Y15.8298
G01 X5.6464 Y15.7627
G01 X5.7057 Y15.6973
G01 X5.7677 Y15.6414
G01 X5.8308 Y15.5947
G01 X5.9065 Y15.5493
G01 X5.9820 Y15.5138
G01 X6.0606 Y15.4859
G01 X6.1416 Y15.4659
G01 X6.2241 Y15.4539
G01 X6.3050 Y15.4500
G01 X7.1050 Y15.4500
G01 X7.1908 Y15.4544
G01 X7.2732 Y15.4669
G01 X7.3541 Y15.4874
G01 X7.4280 Y15.5138
G01 X7.5035 Y15.5493
G01 X7.5792 Y15.5947
G01 X7.6423 Y15.6414
G01 X7.7043 Y15.6973
G01 X7.7636 Y15.7627
G01 X7.8131 Y15.8298
G01 X7.8557 Y15.9015
G01 X7.8893 Y15.9725
G01 X7.9191 Y16.0556
G01 X7.9391 Y16.1366
G01 X7.9506 Y16.2142
G01 X7.9549 Y16.3025
G01 X7.9506 Y16.3858
G01 X7.9391 Y16.4634
G01 X7.9191 Y16.5444
G01 X7.8893 Y16.6275
G01 X7.8557 Y16.6985
G01 X7.8131 Y16.7702
G01 X7.7636 Y16.8373
G01 X7.7043 Y16.9027
G01 X7.6423 Y16.9586
G01 X7.5752 Y17.0081
G01 X7.5035 Y17.0507
G01 X7.4280 Y17.0862
G01 X7.3494 Y17.1141
G01 X7.2684 Y17.1341
G01 X7.1859 Y17.1461
G01 X7.1050 Y17.1500
G01 X6.3050 Y17.1500
G01 X6.2192 Y17.1456
G01 X6.1416 Y17.1341
G01 X6.0606 Y17.1141
G01 X5.9820 Y17.0862
G01 X5.9022 Y17.0484
G01 X5.8306 Y17.0052
G01 X2.8500 Y17.0052
G01 X2.8498 Y17.5100
G01 X2.8490 Y17.5149
G01 X2.8462 Y17.5242
G01 X2.8416 Y17.5329
G01 X2.8387 Y17.5368
G01 X2.8354 Y17.5405
G01 X2.8278 Y17.5467
G01 X2.8236 Y17.5492
G01 X2.8145 Y17.5530
G01 X2.8098 Y17.5542
G01 X2.8000 Y17.5551
G01 X1.2000 Y17.5551
G01 X1.1902 Y17.5542
G01 X1.1809 Y17.5513
G01 X1.1722 Y17.5467
G01 X1.1646 Y17.5405
G01 X1.1584 Y17.5329
G01 X1.1538 Y17.5242
G01 X1.1510 Y17.5149
G01 X1.1500 Y17.5051
G01 X1.1500 Y16.2796
G01 X0.5383 Y15.6678
G01 X0.5201 Y15.6479
G01 X0.4996 Y15.6203
G01 X0.4847 Y15.5949
G01 X0.4723 Y15.5682
G01 X0.4641 Y15.5451
G01 X0.4567 Y15.5165
G01 X0.4516 Y15.4826
G01 X0.4504 Y15.4556
G01 X0.4504 Y9.5419
G00 Z2.0000
G00 X10.9293 Y15.5897
G01 F60.00
G01 Z-0.4000
G01 F60.00
G01 X10.9339 Y15.5606
G01 X10.9412 Y15.5321
G01 X10.9495 Y15.5090
G01 X10.9619 Y15.4823
G01 X10.9795 Y15.4529
G01 X10.9941 Y15.4332
G01 X11.0137 Y15.4112
G01 X11.0392 Y15.3881
G01 X11.0589 Y15.3735
G01 X11.0840 Y15.3582
G01 X11.1150 Y15.3435
G01 X11.1428 Y15.3338
G01 X11.1715 Y15.3269
G01 X11.2006 Y15.3228
G01 X11.2276 Y15.3215
G01 X12.5276 Y15.3215
G01 X12.5545 Y15.3228
G01 X12.5837 Y15.3269
G01 X12.6170 Y15.3352
G01 X12.6446 Y15.3454
G01 X12.6711 Y15.3582
G01 X12.6962 Y15.3735
G01 X12.7159 Y15.3881
G01 X12.7414 Y15.4112
G01 X12.7610 Y15.4332
G01 X12.7756 Y15.4529
G01 X12.7932 Y15.4823
G01 X12.8056 Y15.5090
G01 X12.8153 Y15.5368
G01 X12.8222 Y15.5654
G01 X12.8258 Y15.5897
G01 X12.8275 Y15.6191
G01 X12.8276 Y15.9999
G01 X13.0750 Y15.9999
G01 X13.0752 Y15.4951
G01 X13.0760 Y15.4902
G01 X13.0788 Y15.4809
G01 X13.0834 Y15.4722
G01 X13.0896 Y15.4646
G01 X13.0933 Y15.4613
G01 X13.1014 Y15.4559
G01 X13.1059 Y15.4538
G01 X13.1152 Y15.4510
G01 X13.1250 Y15.4500
G01 X15.5299 Y15.4502
G01 X15.5348 Y15.4510
G01 X15.5441 Y15.4538
G01 X15.5528 Y15.4584
G01 X15.5604 Y15.4646
G01 X15.5637 Y15.4683
G01 X15.5691 Y15.4764
G01 X15.5728 Y15.4855
G01 X15.5748 Y15.4951
G01 X15.5750 Y16.1249
G01 X16.7083 Y16.1249
G01 X16.7049 Y16.1005
G01 X16.7001 Y16.0025
G01 X16.7054 Y15.8946
G01 X16.7198 Y15.7976
G01 X16.7446 Y15.6976
G01 X16.7790 Y15.6005
G01 X16.8229 Y15.5072
G01 X16.8784 Y15.4146
G01 X16.9368 Y15.3358
G01 X17.0058 Y15.2593
G01 X17.0858 Y15.1868
G01 X17.1687 Y15.1256
G01 X17.2572 Y15.0729
G01 X17.3459 Y15.0309
G01 X17.4429 Y14.9960
G01 X17.5428 Y14.9707
G01 X17.6495 Y14.9549
G01 X17.7525 Y14.9501
G01 X17.8505 Y14.9549
G01 X17.9572 Y14.9707
G01 X18.0524 Y14.9946
G01 X18.1040 Y15.0127
G01 X18.2058 Y14.9109
G01 X18.2058 Y13.2606
G01 X18.0543 Y13.2605
G01 X18.0298 Y13.2593
G01 X18.0006 Y13.2552
G01 X17.9720 Y13.2483
G01 X17.9442 Y13.2386
G01 X17.9175 Y13.2263
G01 X17.8921 Y13.2113
G01 X17.8683 Y13.1940
G01 X17.8429 Y13.1709
G01 X17.8233 Y13.1490
G01 X17.8060 Y13.1252
G01 X17.7910 Y13.0998
G01 X17.7806 Y13.0776
G01 X17.7704 Y13.0500
G01 X17.7630 Y13.0215
G01 X17.7585 Y12.9924
G01 X17.7567 Y12.9606
G01 X17.7567 Y11.7106
G01 X17.7585 Y11.6787
G01 X17.7630 Y11.6497
G01 X17.7704 Y11.6212
G01 X17.7787 Y11.5981
G01 X17.7910 Y11.5714
G01 X17.8087 Y11.5419
G01 X17.8264 Y11.5184
G01 X17.8464 Y11.4968
G01 X17.8646 Y11.4803
G01 X17.8880 Y11.4626
G01 X17.9132 Y11.4472
G01 X17.9397 Y11.4344
G01 X17.9673 Y11.4243
G01 X18.0006 Y11.4159
G01 X18.0298 Y11.4118
G01 X18.0567 Y11.4106
G01 X18.8567 Y11.4106
G01 X18.8886 Y11.4123
G01 X18.9128 Y11.4159
G01 X18.9414 Y11.4228
G01 X18.9738 Y11.4344
G01 X18.9960 Y11.4449
G01 X19.0213 Y11.4598
G01 X19.0451 Y11.4772
G01 X19.0706 Y11.5002
G01 X19.0901 Y11.5222
G01 X19.1048 Y11.5419
G01 X19.1224 Y11.5714
G01 X19.1348 Y11.5981
G01 X19.1430 Y11.6212
G01 X19.1504 Y11.6497
G01 X19.1550 Y11.6787
G01 X19.1567 Y11.7106
G01 X19.1567 Y12.9606
G01 X19.1555 Y12.9875
G01 X19.1514 Y13.0167
G01 X19.1430 Y13.0500
G01 X19.1329 Y13.0776
G01 X19.1201 Y13.1041
G01 X19.1048 Y13.1293
G01 X19.0901 Y13.1490
G01 X19.0706 Y13.1709
G01 X19.0489 Y13.1909
G01 X19.0254 Y13.2086
G01 X19.0003 Y13.2240
G01 X18.9692 Y13.2386
G01 X18.9461 Y13.2469
G01 X18.9176 Y13.2543
G01 X18.8837 Y13.2593
G01 X18.8567 Y13.2606
G01 X18.5559 Y13.2606
G01 X18.5559 Y14.9834
G01 X18.5553 Y14.9981
G01 X18.5530 Y15.0151
G01 X18.5476 Y15.0366
G01 X18.5435 Y15.0481
G01 X18.5364 Y15.0637
G01 X18.5250 Y15.0827
G01 X18.5146 Y15.0963
G01 X18.5047 Y15.1072
G01 X18.4200 Y15.1918
G01 X18.4942 Y15.2593
G01 X18.5601 Y15.3320
G01 X18.6244 Y15.4187
G01 X18.6771 Y15.5072
G01 X18.7191 Y15.5959
G01 X18.7540 Y15.6929
G01 X18.7802 Y15.7976
G01 X18.7951 Y15.8995
G01 X18.7999 Y16.0025
G01 X18.7951 Y16.1005
G01 X18.7802 Y16.2024
G01 X18.7554 Y16.3024
G01 X18.7210 Y16.3995
G01 X18.6771 Y16.4928
G01 X18.6216 Y16.5854
G01 X18.5632 Y16.6642
G01 X18.4942 Y16.7407
G01 X18.4180 Y16.8101
G01 X18.3354 Y16.8716
G01 X18.2428 Y16.9271
G01 X18.1495 Y16.9710
G01 X18.0571 Y17.0040
G01 X17.9572 Y17.0293
G01 X17.8554 Y17.0446
G01 X17.7475 Y17.0499
G01 X17.6446 Y17.0446
G01 X17.5476 Y17.0302
G01 X17.4429 Y17.0040
G01 X17.3459 Y16.9691
G01 X17.2529 Y16.9248
G01 X17.1646 Y16.8716
G01 X17.0858 Y16.8132
G01 X17.0058 Y16.7407
G01 X16.9368 Y16.6642
G01 X16.8756 Y16.5813
G01 X16.8252 Y16.4971
G01 X16.8145 Y16.4751
G01 X15.5750 Y16.4751
G01 X15.5748 Y17.1049
G01 X15.5740 Y17.1098
G01 X15.5712 Y17.1191
G01 X15.5691 Y17.1236
G01 X15.5637 Y17.1317
G01 X15.5567 Y17.1387
G01 X15.5528 Y17.1416
G01 X15.5486 Y17.1441
G01 X15.5395 Y17.1478
G01 X15.5299 Y17.1498
G01 X15.5250 Y17.1500
G01 X13.1250 Y17.1500
G01 X13.1152 Y17.1490
G01 X13.1105 Y17.1478
G01 X13.1014 Y17.1441
G01 X13.0933 Y17.1387
G01 X13.0863 Y17.1317
G01 X13.0834 Y17.1278
G01 X13.0788 Y17.1191
G01 X13.0772 Y17.1145
G01 X13.0752 Y17.1049
G01 X13.0750 Y16.6001
G01 X12.7849 Y16.6001
G01 X12.7756 Y16.6152
G01 X12.7610 Y16.6349
G01 X12.7379 Y16.6604
G01 X12.7159 Y16.6800
G01 X12.6962 Y16.6946
G01 X12.6711 Y16.7099
G01 X12.6401 Y16.7246
G01 X12.6123 Y16.7343
G01 X12.5837 Y16.7412
G01 X12.5594 Y16.7448
G01 X12.5300 Y16.7465
G01 X11.2251 Y16.7465
G01 X11.2006 Y16.7453
G01 X11.1715 Y16.7412
G01 X11.1381 Y16.7329
G01 X11.1150 Y16.7246
G01 X11.0883 Y16.7122
G01 X11.0589 Y16.6946
G01 X11.0354 Y16.6768
G01 X11.0137 Y16.6569
G01 X10.9941 Y16.6349
G01 X10.9768 Y16.6111
G01 X10.9619 Y16.5858
G01 X10.9514 Y16.5636
G01 X10.9412 Y16.5360
G01 X10.9339 Y16.5075
G01 X10.9293 Y16.4784
G01 X10.9276 Y16.4465
G01 X10.9276 Y15.6215
G01 X10.9293 Y15.5897
G00 Z2.0000
G00 X13.0794 Y11.1342
G01 F60.00
G01 Z-0.4000
G01 F60.00
G01 X13.0909 Y11.0566
G01 X13.1109 Y10.9756
G01 X13.1388 Y10.8970
G01 X13.1766 Y10.8172
G01 X13.2197 Y10.7458
G01 X13.2664 Y10.6827
G01 X13.3257 Y10.6173
G01 X13.3877 Y10.5614
G01 X13.4548 Y10.5119
G01 X13.5265 Y10.4693
G01 X13.5975 Y10.4357
G01 X13.6806 Y10.4059
G01 X13.7616 Y10.3859
G01 X13.8441 Y10.3739
G01 X13.9250 Y10.3700
G01 X14.7250 Y10.3700
G01 X14.8059 Y10.3739
G01 X14.8884 Y10.3859
G01 X14.9694 Y10.4059
G01 X15.0480 Y10.4338
G01 X15.1235 Y10.4693
G01 X15.1952 Y10.5119
G01 X15.2623 Y10.5614
G01 X15.3243 Y10.6173
G01 X15.3805 Y10.6789
G01 X15.4303 Y10.7458
G01 X15.4734 Y10.8172
G01 X15.5093 Y10.8925
G01 X15.5376 Y10.9709
G01 X15.5581 Y11.0518
G01 X15.5706 Y11.1342
G01 X15.5749 Y11.2175
G01 X15.5711 Y11.3009
G01 X15.5591 Y11.3834
G01 X15.5376 Y11.4691
G01 X15.5112 Y11.5430
G01 X15.4757 Y11.6185
G01 X15.4303 Y11.6942
G01 X15.3836 Y11.7573
G01 X15.3277 Y11.8193
G01 X15.2661 Y11.8755
G01 X15.1952 Y11.9281
G01 X15.1235 Y11.9707
G01 X15.0525 Y12.0043
G01 X14.9694 Y12.0341
G01 X14.8884 Y12.0541
G01 X14.8059 Y12.0661
G01 X14.7250 Y12.0700
G01 X13.9250 Y12.0700
G01 X13.8441 Y12.0661
G01 X13.7616 Y12.0541
G01 X13.6806 Y12.0341
G01 X13.6020 Y12.0062
G01 X13.5265 Y11.9707
G01 X13.4548 Y11.9281
G01 X13.3877 Y11.8786
G01 X13.3257 Y11.8227
G01 X13.2695 Y11.7611
G01 X13.2197 Y11.6942
G01 X13.1743 Y11.6185
G01 X13.1388 Y11.5430
G01 X13.1109 Y11.4644
G01 X13.0909 Y11.3834
G01 X13.0789 Y11.3009
G01 X13.0751 Y11.2175
G01 X13.0794 Y11.1342
G00 Z2.0000
G00 X16.7054 Y9.3946
G01 F60.00
G01 Z-0.4000
G01 F60.00
G01 X16.7207 Y9.2928
G01 X16.7460 Y9.1929
G01 X16.7809 Y9.0959
G01 X16.8252 Y9.0029
G01 X16.8784 Y8.9146
G01 X16.9399 Y8.8320
G01 X17.0093 Y8.7558
G01 X17.0858 Y8.6868
G01 X17.1687 Y8.6256
G01 X17.2572 Y8.5729
G01 X17.3505 Y8.5290
G01 X17.4476 Y8.4946
G01 X17.5476 Y8.4698
G01 X17.6495 Y8.4549
G01 X17.7525 Y8.4501
G01 X17.8554 Y8.4554
G01 X17.9572 Y8.4707
G01 X18.0571 Y8.4960
G01 X18.1541 Y8.5309
G01 X18.2471 Y8.5752
G01 X18.3354 Y8.6284
G01 X18.4180 Y8.6899
G01 X18.4942 Y8.7593
G01 X18.5632 Y8.8358
G01 X18.6244 Y8.9187
G01 X18.6771 Y9.0072
G01 X18.7210 Y9.1005
G01 X18.7554 Y9.1976
G01 X18.7802 Y9.2976
G01 X18.7951 Y9.3995
G01 X18.7999 Y9.5025
G01 X18.7946 Y9.6054
G01 X18.7793 Y9.7072
G01 X18.7540 Y9.8071
G01 X18.7191 Y9.9041
G01 X18.6748 Y9.9971
G01 X18.6216 Y10.0854
G01 X18.5601 Y10.1680
G01 X18.4907 Y10.2442
G01 X18.4142 Y10.3132
G01 X18.3313 Y10.3744
G01 X18.2428 Y10.4271
G01 X18.1495 Y10.4710
G01 X18.0524 Y10.5054
G01 X17.9524 Y10.5302
G01 X17.8505 Y10.5451
G01 X17.7475 Y10.5499
G01 X17.6446 Y10.5446
G01 X17.5428 Y10.5293
G01 X17.4429 Y10.5040
G01 X17.3459 Y10.4691
G01 X17.2529 Y10.4248
G01 X17.1646 Y10.3716
G01 X17.0820 Y10.3101
G01 X17.0058 Y10.2407
G01 X16.9368 Y10.1642
G01 X16.8756 Y10.0813
G01 X16.8229 Y9.9928
G01 X16.7790 Y9.8995
G01 X16.7446 Y9.8024
G01 X16.7198 Y9.7024
G01 X16.7049 Y9.6005
G01 X16.7001 Y9.4975
G01 X16.7054 Y9.3946
G00 Z2.0000
G00 X21.2054 Y15.8946
G01 F60.00
G01 Z-0.4000
G01 F60.00
G01 X21.2207 Y15.7928
G01 X21.2460 Y15.6929
G01 X21.2809 Y15.5959
G01 X21.3252 Y15.5029
G01 X21.3784 Y15.4146
G01 X21.4399 Y15.3320
G01 X21.5093 Y15.2558
G01 X21.5858 Y15.1868
G01 X21.6687 Y15.1256
G01 X21.7572 Y15.0729
G01 X21.8505 Y15.0290
G01 X21.9476 Y14.9946
G01 X22.0476 Y14.9698
G01 X22.1495 Y14.9549
G01 X22.2525 Y14.9501
G01 X22.3554 Y14.9554
G01 X22.4524 Y14.9698
G01 X22.5524 Y14.9946
G01 X22.6541 Y15.0309
G01 X22.7428 Y15.0729
G01 X22.8313 Y15.1256
G01 X22.9142 Y15.1868
G01 X22.9907 Y15.2558
G01 X23.0632 Y15.3358
G01 X23.1244 Y15.4187
G01 X23.1771 Y15.5072
G01 X23.2210 Y15.6005
G01 X23.2540 Y15.6929
G01 X23.2793 Y15.7928
G01 X23.2843 Y15.8249
G01 X25.0000 Y15.8249
G01 X25.0147 Y15.8256
G01 X25.0317 Y15.8279
G01 X25.0531 Y15.8332
G01 X25.0647 Y15.8374
G01 X25.0803 Y15.8445
G01 X25.0993 Y15.8559
G01 X25.1091 Y15.8632
G01 X25.1220 Y15.8745
G01 X25.8476 Y16.6000
G01 X27.3500 Y16.6000
G01 X27.3598 Y16.6010
G01 X27.3691 Y16.6038
G01 X27.3736 Y16.6059
G01 X27.3817 Y16.6113
G01 X27.3854 Y16.6146
G01 X27.3916 Y16.6222
G01 X27.3962 Y16.6309
G01 X27.3978 Y16.6355
G01 X27.3998 Y16.6451
G01 X27.4000 Y16.6500
G01 X27.4000 Y18.3500
G01 X27.3990 Y18.3598
G01 X27.3962 Y18.3691
G01 X27.3941 Y18.3736
G01 X27.3887 Y18.3817
G01 X27.3817 Y18.3887
G01 X27.3778 Y18.3916
G01 X27.3736 Y18.3941
G01 X27.3645 Y18.3978
G01 X27.3549 Y18.3998
G01 X27.3500 Y18.4000
G01 X25.6500 Y18.4000
G01 X25.6402 Y18.3990
G01 X25.6355 Y18.3978
G01 X25.6264 Y18.3941
G01 X25.6183 Y18.3887
G01 X25.6113 Y18.3817
G01 X25.6084 Y18.3778
G01 X25.6038 Y18.3691
G01 X25.6010 Y18.3598
G01 X25.6000 Y18.3500
G01 X25.6000 Y16.8476
G01 X24.9275 Y16.1751
G01 X23.2843 Y16.1751
G01 X23.2793 Y16.2072
G01 X23.2540 Y16.3071
G01 X23.2191 Y16.4041
G01 X23.1748 Y16.4971
G01 X23.1216 Y16.5854
G01 X23.0601 Y16.6680
G01 X22.9907 Y16.7442
G01 X22.9142 Y16.8132
G01 X22.8313 Y16.8744
G01 X22.7428 Y16.9271
G01 X22.6495 Y16.9710
G01 X22.5571 Y17.0040
G01 X22.4572 Y17.0293
G01 X22.3554 Y17.0446
G01 X22.2525 Y17.0499
G01 X22.1495 Y17.0451
G01 X22.0476 Y17.0302
G01 X21.9476 Y17.0054
G01 X21.8505 Y16.9710
G01 X21.7572 Y16.9271
G01 X21.6646 Y16.8716
G01 X21.5820 Y16.8101
G01 X21.5058 Y16.7407
G01 X21.4368 Y16.6642
G01 X21.3756 Y16.5813
G01 X21.3229 Y16.4928
G01 X21.2790 Y16.3995
G01 X21.2446 Y16.3024
G01 X21.2198 Y16.2024
G01 X21.2049 Y16.1005
G01 X21.2001 Y15.9975
G01 X21.2054 Y15.8946
G00 Z2.0000
M05
G00 Z2.0000
G00 Z15.00
G00 X0.0 Y0.0

