(G-CODE GENERATED BY FLATCAM v8.991 - www.flatcam.org - Version Date: 2019/12/27)

(Name: solder_mask_mask)
(Type: G-code from Geometry)
(Units: MM)

(Created on Saturday, 22 April 2023 at 23:20)

(TOOL DIAMETER: 0.1 mm)
(Feedrate: 50.0 mm/min)
(Feedrate_Z: 60.0 mm/min)
(Feedrate rapids 1500.0 mm/min)

(Z_Cut: -0.01 mm)
(Z_Move: 2.0 mm)
(Z Toolchange: 15.0 mm)
(X,Y Toolchange: 0.0000, 0.0000 mm)
(Z Start: None mm)
(Z End: 15.0 mm)
(Steps per circle: 64)
(Preprocessor Geometry: default)

(X range:    0.2001 ...   14.7999  mm)
(Y range:    0.6250 ...   14.3750  mm)

(Spindle Speed: None RPM)
G21
G90
G94




G01 F50.00
G00 Z2.0000

M03
G00 X1.0012 Y2.1201
G01 F60.00
G01 Z-0.0100
G01 F50.00
G01 X0.9204 Y2.1240
G01 X0.8451 Y2.1352
G01 X0.7690 Y2.1541
G01 X0.6927 Y2.1814
G01 X0.6240 Y2.2139
G01 X0.5566 Y2.2542
G01 X0.4916 Y2.3024
G01 X0.4352 Y2.3535
G01 X0.3824 Y2.4116
G01 X0.3342 Y2.4766
G01 X0.2951 Y2.5418
G01 X0.2614 Y2.6127
G01 X0.2341 Y2.6890
G01 X0.2157 Y2.7627
G01 X0.2040 Y2.8404
G01 X0.2001 Y2.9212
G01 X0.2038 Y2.9972
G01 X0.2152 Y3.0749
G01 X0.2349 Y3.1534
G01 X0.2614 Y3.2273
G01 X0.2939 Y3.2960
G01 X0.3356 Y3.3654
G01 X0.3824 Y3.4284
G01 X0.4335 Y3.4848
G01 X0.4935 Y3.5391
G01 X0.5566 Y3.5858
G01 X0.6218 Y3.6249
G01 X0.6927 Y3.6586
G01 X0.7690 Y3.6859
G01 X0.8451 Y3.7048
G01 X0.9204 Y3.7160
G01 X0.9988 Y3.7199
G01 X1.0796 Y3.7160
G01 X1.1549 Y3.7048
G01 X1.2310 Y3.6859
G01 X1.3073 Y3.6586
G01 X1.3760 Y3.6261
G01 X1.4434 Y3.5858
G01 X1.5065 Y3.5391
G01 X1.5665 Y3.4848
G01 X1.6191 Y3.4265
G01 X1.6644 Y3.3654
G01 X1.7061 Y3.2960
G01 X1.7386 Y3.2273
G01 X1.7651 Y3.1534
G01 X1.7843 Y3.0773
G01 X1.7960 Y2.9996
G01 X1.7999 Y2.9212
G01 X1.7960 Y2.8404
G01 X1.7843 Y2.7627
G01 X1.7651 Y2.6866
G01 X1.7395 Y2.6150
G01 X1.7061 Y2.5440
G01 X1.6658 Y2.4766
G01 X1.6191 Y2.4135
G01 X1.5665 Y2.3552
G01 X1.5084 Y2.3024
G01 X1.4434 Y2.2542
G01 X1.3760 Y2.2139
G01 X1.3050 Y2.1805
G01 X1.2310 Y2.1541
G01 X1.1573 Y2.1357
G01 X1.0796 Y2.1240
G01 X1.0012 Y2.1201
G01 X1.0400 Y2.9200
G01 X1.0392 Y2.9122
G01 X1.0370 Y2.9047
G01 X1.0333 Y2.8978
G01 X1.0283 Y2.8917
G01 X1.0222 Y2.8867
G01 X1.0153 Y2.8830
G01 X1.0078 Y2.8808
G01 X1.0000 Y2.8800
G01 X0.9961 Y2.8802
G01 X0.9884 Y2.8817
G01 X0.9847 Y2.8830
G01 X0.9778 Y2.8867
G01 X0.9717 Y2.8917
G01 X0.9667 Y2.8978
G01 X0.9630 Y2.9047
G01 X0.9608 Y2.9122
G01 X0.9600 Y2.9200
G01 X0.9608 Y2.9278
G01 X0.9630 Y2.9353
G01 X0.9647 Y2.9389
G01 X0.9691 Y2.9454
G01 X0.9746 Y2.9509
G01 X0.9778 Y2.9533
G01 X0.9847 Y2.9570
G01 X0.9922 Y2.9592
G01 X1.0000 Y2.9600
G01 X1.0078 Y2.9592
G01 X1.0153 Y2.9570
G01 X1.0222 Y2.9533
G01 X1.0283 Y2.9483
G01 X1.0333 Y2.9422
G01 X1.0370 Y2.9353
G01 X1.0392 Y2.9278
G01 X1.0400 Y2.9200
G01 X1.1200 Y2.9200
G01 X1.1194 Y2.9082
G01 X1.1177 Y2.8966
G01 X1.1148 Y2.8852
G01 X1.1109 Y2.8741
G01 X1.1058 Y2.8634
G01 X1.0998 Y2.8533
G01 X1.0928 Y2.8439
G01 X1.0849 Y2.8351
G01 X1.0761 Y2.8272
G01 X1.0667 Y2.8202
G01 X1.0566 Y2.8142
G01 X1.0459 Y2.8091
G01 X1.0348 Y2.8052
G01 X1.0234 Y2.8023
G01 X1.0118 Y2.8006
G01 X1.0000 Y2.8000
G01 X0.9882 Y2.8006
G01 X0.9766 Y2.8023
G01 X0.9652 Y2.8052
G01 X0.9541 Y2.8091
G01 X0.9434 Y2.8142
G01 X0.9333 Y2.8202
G01 X0.9239 Y2.8272
G01 X0.9151 Y2.8351
G01 X0.9072 Y2.8439
G01 X0.9002 Y2.8533
G01 X0.8942 Y2.8634
G01 X0.8891 Y2.8741
G01 X0.8852 Y2.8852
G01 X0.8823 Y2.8966
G01 X0.8806 Y2.9082
G01 X0.8800 Y2.9200
G01 X0.8806 Y2.9318
G01 X0.8823 Y2.9434
G01 X0.8852 Y2.9548
G01 X0.8891 Y2.9659
G01 X0.8942 Y2.9766
G01 X0.9002 Y2.9867
G01 X0.9072 Y2.9961
G01 X0.9151 Y3.0049
G01 X0.9239 Y3.0128
G01 X0.9333 Y3.0198
G01 X0.9434 Y3.0258
G01 X0.9541 Y3.0309
G01 X0.9652 Y3.0348
G01 X0.9766 Y3.0377
G01 X0.9882 Y3.0394
G01 X1.0000 Y3.0400
G01 X1.0118 Y3.0394
G01 X1.0234 Y3.0377
G01 X1.0348 Y3.0348
G01 X1.0459 Y3.0309
G01 X1.0566 Y3.0258
G01 X1.0667 Y3.0198
G01 X1.0761 Y3.0128
G01 X1.0849 Y3.0049
G01 X1.0928 Y2.9961
G01 X1.0998 Y2.9867
G01 X1.1058 Y2.9766
G01 X1.1109 Y2.9659
G01 X1.1148 Y2.9548
G01 X1.1177 Y2.9434
G01 X1.1194 Y2.9318
G01 X1.1200 Y2.9200
G01 X1.2000 Y2.9200
G01 X1.1990 Y2.9004
G01 X1.1962 Y2.8810
G01 X1.1914 Y2.8619
G01 X1.1848 Y2.8435
G01 X1.1764 Y2.8257
G01 X1.1663 Y2.8089
G01 X1.1546 Y2.7931
G01 X1.1414 Y2.7786
G01 X1.1269 Y2.7654
G01 X1.1111 Y2.7537
G01 X1.0943 Y2.7436
G01 X1.0765 Y2.7352
G01 X1.0581 Y2.7286
G01 X1.0390 Y2.7238
G01 X1.0196 Y2.7210
G01 X1.0000 Y2.7200
G01 X0.9804 Y2.7210
G01 X0.9610 Y2.7238
G01 X0.9419 Y2.7286
G01 X0.9235 Y2.7352
G01 X0.9057 Y2.7436
G01 X0.8889 Y2.7537
G01 X0.8731 Y2.7654
G01 X0.8586 Y2.7786
G01 X0.8454 Y2.7931
G01 X0.8337 Y2.8089
G01 X0.8236 Y2.8257
G01 X0.8152 Y2.8435
G01 X0.8086 Y2.8619
G01 X0.8038 Y2.8810
G01 X0.8010 Y2.9004
G01 X0.8000 Y2.9200
G01 X0.8010 Y2.9396
G01 X0.8038 Y2.9590
G01 X0.8086 Y2.9781
G01 X0.8152 Y2.9965
G01 X0.8236 Y3.0143
G01 X0.8337 Y3.0311
G01 X0.8454 Y3.0469
G01 X0.8586 Y3.0614
G01 X0.8731 Y3.0746
G01 X0.8889 Y3.0863
G01 X0.9057 Y3.0964
G01 X0.9235 Y3.1048
G01 X0.9419 Y3.1114
G01 X0.9610 Y3.1162
G01 X0.9804 Y3.1190
G01 X1.0000 Y3.1200
G01 X1.0196 Y3.1190
G01 X1.0390 Y3.1162
G01 X1.0581 Y3.1114
G01 X1.0765 Y3.1048
G01 X1.0943 Y3.0964
G01 X1.1111 Y3.0863
G01 X1.1269 Y3.0746
G01 X1.1414 Y3.0614
G01 X1.1546 Y3.0469
G01 X1.1663 Y3.0311
G01 X1.1764 Y3.0143
G01 X1.1848 Y2.9965
G01 X1.1914 Y2.9781
G01 X1.1962 Y2.9590
G01 X1.1990 Y2.9396
G01 X1.2000 Y2.9200
G01 X1.2800 Y2.9200
G01 X1.2787 Y2.8926
G01 X1.2746 Y2.8654
G01 X1.2679 Y2.8387
G01 X1.2587 Y2.8128
G01 X1.2469 Y2.7880
G01 X1.2328 Y2.7644
G01 X1.2164 Y2.7424
G01 X1.1980 Y2.7220
G01 X1.1776 Y2.7036
G01 X1.1556 Y2.6872
G01 X1.1320 Y2.6731
G01 X1.1072 Y2.6613
G01 X1.0813 Y2.6521
G01 X1.0546 Y2.6454
G01 X1.0274 Y2.6413
G01 X1.0000 Y2.6400
G01 X0.9726 Y2.6413
G01 X0.9454 Y2.6454
G01 X0.9187 Y2.6521
G01 X0.8928 Y2.6613
G01 X0.8680 Y2.6731
G01 X0.8444 Y2.6872
G01 X0.8224 Y2.7036
G01 X0.8020 Y2.7220
G01 X0.7836 Y2.7424
G01 X0.7672 Y2.7644
G01 X0.7531 Y2.7880
G01 X0.7413 Y2.8128
G01 X0.7321 Y2.8387
G01 X0.7254 Y2.8654
G01 X0.7213 Y2.8926
G01 X0.7200 Y2.9200
G01 X0.7213 Y2.9474
G01 X0.7254 Y2.9746
G01 X0.7321 Y3.0013
G01 X0.7413 Y3.0272
G01 X0.7531 Y3.0520
G01 X0.7672 Y3.0756
G01 X0.7836 Y3.0976
G01 X0.8020 Y3.1180
G01 X0.8224 Y3.1364
G01 X0.8444 Y3.1528
G01 X0.8680 Y3.1669
G01 X0.8928 Y3.1787
G01 X0.9187 Y3.1879
G01 X0.9454 Y3.1946
G01 X0.9726 Y3.1987
G01 X1.0000 Y3.2000
G01 X1.0274 Y3.1987
G01 X1.0546 Y3.1946
G01 X1.0813 Y3.1879
G01 X1.1072 Y3.1787
G01 X1.1320 Y3.1669
G01 X1.1556 Y3.1528
G01 X1.1776 Y3.1364
G01 X1.1980 Y3.1180
G01 X1.2164 Y3.0976
G01 X1.2328 Y3.0756
G01 X1.2469 Y3.0520
G01 X1.2587 Y3.0272
G01 X1.2679 Y3.0013
G01 X1.2746 Y2.9746
G01 X1.2787 Y2.9474
G01 X1.2800 Y2.9200
G01 X1.3600 Y2.9200
G01 X1.3583 Y2.8847
G01 X1.3531 Y2.8498
G01 X1.3445 Y2.8155
G01 X1.3326 Y2.7822
G01 X1.3175 Y2.7503
G01 X1.2993 Y2.7200
G01 X1.2783 Y2.6916
G01 X1.2546 Y2.6654
G01 X1.2284 Y2.6417
G01 X1.2000 Y2.6207
G01 X1.1697 Y2.6025
G01 X1.1378 Y2.5874
G01 X1.1045 Y2.5755
G01 X1.0702 Y2.5669
G01 X1.0353 Y2.5617
G01 X1.0000 Y2.5600
G01 X0.9647 Y2.5617
G01 X0.9298 Y2.5669
G01 X0.8955 Y2.5755
G01 X0.8622 Y2.5874
G01 X0.8303 Y2.6025
G01 X0.8000 Y2.6207
G01 X0.7716 Y2.6417
G01 X0.7454 Y2.6654
G01 X0.7217 Y2.6916
G01 X0.7007 Y2.7200
G01 X0.6825 Y2.7503
G01 X0.6674 Y2.7822
G01 X0.6555 Y2.8155
G01 X0.6469 Y2.8498
G01 X0.6417 Y2.8847
G01 X0.6400 Y2.9200
G01 X0.6417 Y2.9553
G01 X0.6469 Y2.9902
G01 X0.6555 Y3.0245
G01 X0.6674 Y3.0578
G01 X0.6825 Y3.0897
G01 X0.7007 Y3.1200
G01 X0.7217 Y3.1484
G01 X0.7454 Y3.1746
G01 X0.7716 Y3.1983
G01 X0.8000 Y3.2193
G01 X0.8303 Y3.2375
G01 X0.8622 Y3.2526
G01 X0.8955 Y3.2645
G01 X0.9298 Y3.2731
G01 X0.9647 Y3.2783
G01 X1.0000 Y3.2800
G01 X1.0353 Y3.2783
G01 X1.0702 Y3.2731
G01 X1.1045 Y3.2645
G01 X1.1378 Y3.2526
G01 X1.1697 Y3.2375
G01 X1.2000 Y3.2193
G01 X1.2284 Y3.1983
G01 X1.2546 Y3.1746
G01 X1.2783 Y3.1484
G01 X1.2993 Y3.1200
G01 X1.3175 Y3.0897
G01 X1.3326 Y3.0578
G01 X1.3445 Y3.0245
G01 X1.3531 Y2.9902
G01 X1.3583 Y2.9553
G01 X1.3600 Y2.9200
G01 X1.4400 Y2.9200
G01 X1.4379 Y2.8769
G01 X1.4315 Y2.8342
G01 X1.4211 Y2.7923
G01 X1.4065 Y2.7516
G01 X1.3880 Y2.7126
G01 X1.3658 Y2.6755
G01 X1.3401 Y2.6409
G01 X1.3111 Y2.6089
G01 X1.2791 Y2.5799
G01 X1.2445 Y2.5542
G01 X1.2074 Y2.5320
G01 X1.1684 Y2.5135
G01 X1.1277 Y2.4989
G01 X1.0858 Y2.4885
G01 X1.0431 Y2.4821
G01 X1.0000 Y2.4800
G01 X0.9569 Y2.4821
G01 X0.9142 Y2.4885
G01 X0.8723 Y2.4989
G01 X0.8316 Y2.5135
G01 X0.7926 Y2.5320
G01 X0.7555 Y2.5542
G01 X0.7209 Y2.5799
G01 X0.6889 Y2.6089
G01 X0.6599 Y2.6409
G01 X0.6342 Y2.6755
G01 X0.6120 Y2.7126
G01 X0.5935 Y2.7516
G01 X0.5789 Y2.7923
G01 X0.5685 Y2.8342
G01 X0.5621 Y2.8769
G01 X0.5600 Y2.9200
G01 X0.5621 Y2.9631
G01 X0.5685 Y3.0058
G01 X0.5789 Y3.0477
G01 X0.5935 Y3.0884
G01 X0.6120 Y3.1274
G01 X0.6342 Y3.1645
G01 X0.6599 Y3.1991
G01 X0.6889 Y3.2311
G01 X0.7209 Y3.2601
G01 X0.7555 Y3.2858
G01 X0.7926 Y3.3080
G01 X0.8316 Y3.3265
G01 X0.8723 Y3.3411
G01 X0.9142 Y3.3515
G01 X0.9569 Y3.3579
G01 X1.0000 Y3.3600
G01 X1.0431 Y3.3579
G01 X1.0858 Y3.3515
G01 X1.1277 Y3.3411
G01 X1.1684 Y3.3265
G01 X1.2074 Y3.3080
G01 X1.2445 Y3.2858
G01 X1.2791 Y3.2601
G01 X1.3111 Y3.2311
G01 X1.3401 Y3.1991
G01 X1.3658 Y3.1645
G01 X1.3880 Y3.1274
G01 X1.4065 Y3.0884
G01 X1.4211 Y3.0477
G01 X1.4315 Y3.0058
G01 X1.4379 Y2.9631
G01 X1.4400 Y2.9200
G01 X1.5200 Y2.9200
G01 X1.5175 Y2.8690
G01 X1.5100 Y2.8186
G01 X1.4976 Y2.7691
G01 X1.4804 Y2.7210
G01 X1.4586 Y2.6749
G01 X1.4324 Y2.6311
G01 X1.4020 Y2.5901
G01 X1.3677 Y2.5523
G01 X1.3299 Y2.5180
G01 X1.2889 Y2.4876
G01 X1.2451 Y2.4614
G01 X1.1990 Y2.4396
G01 X1.1509 Y2.4224
G01 X1.1014 Y2.4100
G01 X1.0510 Y2.4025
G01 X1.0000 Y2.4000
G01 X0.9490 Y2.4025
G01 X0.8986 Y2.4100
G01 X0.8491 Y2.4224
G01 X0.8010 Y2.4396
G01 X0.7549 Y2.4614
G01 X0.7111 Y2.4876
G01 X0.6701 Y2.5180
G01 X0.6323 Y2.5523
G01 X0.5980 Y2.5901
G01 X0.5676 Y2.6311
G01 X0.5414 Y2.6749
G01 X0.5196 Y2.7210
G01 X0.5024 Y2.7691
G01 X0.4900 Y2.8186
G01 X0.4825 Y2.8690
G01 X0.4800 Y2.9200
G01 X0.4825 Y2.9710
G01 X0.4900 Y3.0214
G01 X0.5024 Y3.0709
G01 X0.5196 Y3.1190
G01 X0.5414 Y3.1651
G01 X0.5676 Y3.2089
G01 X0.5980 Y3.2499
G01 X0.6323 Y3.2877
G01 X0.6701 Y3.3220
G01 X0.7111 Y3.3524
G01 X0.7549 Y3.3786
G01 X0.8010 Y3.4004
G01 X0.8491 Y3.4176
G01 X0.8986 Y3.4300
G01 X0.9490 Y3.4375
G01 X1.0000 Y3.4400
G01 X1.0510 Y3.4375
G01 X1.1014 Y3.4300
G01 X1.1509 Y3.4176
G01 X1.1990 Y3.4004
G01 X1.2451 Y3.3786
G01 X1.2889 Y3.3524
G01 X1.3299 Y3.3220
G01 X1.3677 Y3.2877
G01 X1.4020 Y3.2499
G01 X1.4324 Y3.2089
G01 X1.4586 Y3.1651
G01 X1.4804 Y3.1190
G01 X1.4976 Y3.0709
G01 X1.5100 Y3.0214
G01 X1.5175 Y2.9710
G01 X1.5200 Y2.9200
G01 X1.6000 Y2.9200
G01 X1.5971 Y2.8612
G01 X1.5885 Y2.8029
G01 X1.5742 Y2.7458
G01 X1.5543 Y2.6904
G01 X1.5292 Y2.6372
G01 X1.4989 Y2.5867
G01 X1.4638 Y2.5394
G01 X1.4243 Y2.4957
G01 X1.3806 Y2.4562
G01 X1.3333 Y2.4211
G01 X1.2828 Y2.3908
G01 X1.2296 Y2.3657
G01 X1.1742 Y2.3458
G01 X1.1171 Y2.3315
G01 X1.0588 Y2.3229
G01 X1.0000 Y2.3200
G01 X0.9412 Y2.3229
G01 X0.8829 Y2.3315
G01 X0.8258 Y2.3458
G01 X0.7704 Y2.3657
G01 X0.7172 Y2.3908
G01 X0.6667 Y2.4211
G01 X0.6194 Y2.4562
G01 X0.5757 Y2.4957
G01 X0.5362 Y2.5394
G01 X0.5011 Y2.5867
G01 X0.4708 Y2.6372
G01 X0.4457 Y2.6904
G01 X0.4258 Y2.7458
G01 X0.4115 Y2.8029
G01 X0.4029 Y2.8612
G01 X0.4000 Y2.9200
G01 X0.4029 Y2.9788
G01 X0.4115 Y3.0371
G01 X0.4258 Y3.0942
G01 X0.4457 Y3.1496
G01 X0.4708 Y3.2028
G01 X0.5011 Y3.2533
G01 X0.5362 Y3.3006
G01 X0.5757 Y3.3443
G01 X0.6194 Y3.3838
G01 X0.6667 Y3.4189
G01 X0.7172 Y3.4492
G01 X0.7704 Y3.4743
G01 X0.8258 Y3.4942
G01 X0.8829 Y3.5085
G01 X0.9412 Y3.5171
G01 X1.0000 Y3.5200
G01 X1.0588 Y3.5171
G01 X1.1171 Y3.5085
G01 X1.1742 Y3.4942
G01 X1.2296 Y3.4743
G01 X1.2828 Y3.4492
G01 X1.3333 Y3.4189
G01 X1.3806 Y3.3838
G01 X1.4243 Y3.3443
G01 X1.4638 Y3.3006
G01 X1.4989 Y3.2533
G01 X1.5292 Y3.2028
G01 X1.5543 Y3.1496
G01 X1.5742 Y3.0942
G01 X1.5885 Y3.0371
G01 X1.5971 Y2.9788
G01 X1.6000 Y2.9200
G01 X1.6800 Y2.9200
G01 X1.6767 Y2.8533
G01 X1.6669 Y2.7873
G01 X1.6507 Y2.7226
G01 X1.6282 Y2.6598
G01 X1.5997 Y2.5995
G01 X1.5654 Y2.5422
G01 X1.5256 Y2.4886
G01 X1.4808 Y2.4392
G01 X1.4314 Y2.3944
G01 X1.3778 Y2.3546
G01 X1.3205 Y2.3203
G01 X1.2602 Y2.2918
G01 X1.1974 Y2.2693
G01 X1.1327 Y2.2531
G01 X1.0667 Y2.2433
G01 X1.0000 Y2.2400
G01 X0.9333 Y2.2433
G01 X0.8673 Y2.2531
G01 X0.8026 Y2.2693
G01 X0.7398 Y2.2918
G01 X0.6795 Y2.3203
G01 X0.6222 Y2.3546
G01 X0.5686 Y2.3944
G01 X0.5192 Y2.4392
G01 X0.4744 Y2.4886
G01 X0.4346 Y2.5422
G01 X0.4003 Y2.5995
G01 X0.3718 Y2.6598
G01 X0.3493 Y2.7226
G01 X0.3331 Y2.7873
G01 X0.3233 Y2.8533
G01 X0.3200 Y2.9200
G01 X0.3233 Y2.9867
G01 X0.3331 Y3.0527
G01 X0.3493 Y3.1174
G01 X0.3718 Y3.1802
G01 X0.4003 Y3.2405
G01 X0.4346 Y3.2978
G01 X0.4744 Y3.3514
G01 X0.5192 Y3.4008
G01 X0.5686 Y3.4456
G01 X0.6222 Y3.4854
G01 X0.6795 Y3.5197
G01 X0.7398 Y3.5482
G01 X0.8026 Y3.5707
G01 X0.8673 Y3.5869
G01 X0.9333 Y3.5967
G01 X1.0000 Y3.6000
G01 X1.0667 Y3.5967
G01 X1.1327 Y3.5869
G01 X1.1974 Y3.5707
G01 X1.2602 Y3.5482
G01 X1.3205 Y3.5197
G01 X1.3778 Y3.4854
G01 X1.4314 Y3.4456
G01 X1.4808 Y3.4008
G01 X1.5256 Y3.3514
G01 X1.5654 Y3.2978
G01 X1.5997 Y3.2405
G01 X1.6282 Y3.1802
G01 X1.6507 Y3.1174
G01 X1.6669 Y3.0527
G01 X1.6767 Y2.9867
G01 X1.6800 Y2.9200
G01 X1.7600 Y2.9200
G01 X1.7563 Y2.8455
G01 X1.7454 Y2.7717
G01 X1.7273 Y2.6994
G01 X1.7021 Y2.6292
G01 X1.6703 Y2.5617
G01 X1.6319 Y2.4978
G01 X1.5875 Y2.4379
G01 X1.5374 Y2.3826
G01 X1.4821 Y2.3325
G01 X1.4222 Y2.2881
G01 X1.3583 Y2.2497
G01 X1.2908 Y2.2179
G01 X1.2206 Y2.1927
G01 X1.1483 Y2.1746
G01 X1.0745 Y2.1637
G01 X1.0000 Y2.1600
G01 X0.9255 Y2.1637
G01 X0.8517 Y2.1746
G01 X0.7794 Y2.1927
G01 X0.7092 Y2.2179
G01 X0.6417 Y2.2497
G01 X0.5778 Y2.2881
G01 X0.5179 Y2.3325
G01 X0.4626 Y2.3826
G01 X0.4125 Y2.4379
G01 X0.3681 Y2.4978
G01 X0.3297 Y2.5617
G01 X0.2979 Y2.6292
G01 X0.2727 Y2.6994
G01 X0.2546 Y2.7717
G01 X0.2437 Y2.8455
G01 X0.2400 Y2.9200
G01 X0.2437 Y2.9945
G01 X0.2546 Y3.0683
G01 X0.2727 Y3.1406
G01 X0.2979 Y3.2108
G01 X0.3297 Y3.2783
G01 X0.3681 Y3.3422
G01 X0.4125 Y3.4021
G01 X0.4626 Y3.4574
G01 X0.5179 Y3.5075
G01 X0.5778 Y3.5519
G01 X0.6417 Y3.5903
G01 X0.7092 Y3.6221
G01 X0.7794 Y3.6473
G01 X0.8517 Y3.6654
G01 X0.9255 Y3.6763
G01 X1.0000 Y3.6800
G01 X1.0745 Y3.6763
G01 X1.1483 Y3.6654
G01 X1.2206 Y3.6473
G01 X1.2908 Y3.6221
G01 X1.3583 Y3.5903
G01 X1.4222 Y3.5519
G01 X1.4821 Y3.5075
G01 X1.5374 Y3.4574
G01 X1.5875 Y3.4021
G01 X1.6319 Y3.3422
G01 X1.6703 Y3.2783
G01 X1.7021 Y3.2108
G01 X1.7273 Y3.1406
G01 X1.7454 Y3.0683
G01 X1.7563 Y2.9945
G01 X1.7600 Y2.9200
G00 Z2.0000
G00 X3.1179 Y2.3750
G01 F60.00
G01 Z-0.0100
G01 F50.00
G01 X3.0479 Y2.3500
G01 X2.9663 Y2.3114
G01 X2.8889 Y2.2650
G01 X2.8164 Y2.2112
G01 X2.7517 Y2.1525
G01 X2.7500 Y2.0320
G01 X2.8060 Y2.0940
G01 X2.8671 Y2.1493
G01 X2.9333 Y2.1984
G01 X3.0040 Y2.2408
G01 X3.0785 Y2.2761
G01 X3.1562 Y2.3038
G01 X3.2361 Y2.3239
G01 X3.3177 Y2.3360
G01 X3.4000 Y2.3400
G01 X3.4823 Y2.3360
G01 X3.5639 Y2.3239
G01 X3.6438 Y2.3038
G01 X3.7215 Y2.2761
G01 X3.7960 Y2.2408
G01 X3.8667 Y2.1984
G01 X3.9329 Y2.1493
G01 X3.9940 Y2.0940
G01 X4.0500 Y2.0320
G00 Z2.0000
G00 X4.0483 Y2.1525
G01 F60.00
G01 Z-0.0100
G01 F50.00
G01 X3.9836 Y2.2112
G01 X3.9111 Y2.2650
G01 X3.8337 Y2.3114
G01 X3.7521 Y2.3500
G01 X3.6821 Y2.3750
G00 Z2.0000
G00 X4.0500 Y1.8921
G01 F60.00
G01 Z-0.0100
G01 F50.00
G01 X4.0319 Y1.9222
G01 X3.9875 Y1.9821
G01 X3.9374 Y2.0374
G01 X3.8821 Y2.0875
G01 X3.8222 Y2.1319
G01 X3.7583 Y2.1703
G01 X3.6908 Y2.2021
G01 X3.6206 Y2.2273
G01 X3.5483 Y2.2454
G01 X3.4745 Y2.2563
G01 X3.4000 Y2.2600
G01 X3.3255 Y2.2563
G01 X3.2517 Y2.2454
G01 X3.1794 Y2.2273
G01 X3.1092 Y2.2021
G01 X3.0417 Y2.1703
G01 X2.9778 Y2.1319
G01 X2.9179 Y2.0875
G01 X2.8626 Y2.0374
G01 X2.8125 Y1.9821
G01 X2.7681 Y1.9222
G01 X2.7500 Y1.8921
G01 X2.7500 Y1.6994
G01 X2.7718 Y1.7602
G01 X2.8003 Y1.8205
G01 X2.8346 Y1.8778
G01 X2.8744 Y1.9314
G01 X2.9192 Y1.9808
G01 X2.9686 Y2.0256
G01 X3.0222 Y2.0654
G01 X3.0795 Y2.0997
G01 X3.1398 Y2.1282
G01 X3.2026 Y2.1507
G01 X3.2673 Y2.1669
G01 X3.3333 Y2.1767
G01 X3.4000 Y2.1800
G01 X3.4667 Y2.1767
G01 X3.5327 Y2.1669
G01 X3.5974 Y2.1507
G01 X3.6602 Y2.1282
G01 X3.7205 Y2.0997
G01 X3.7778 Y2.0654
G01 X3.8314 Y2.0256
G01 X3.8808 Y1.9808
G01 X3.9256 Y1.9314
G01 X3.9654 Y1.8778
G01 X3.9997 Y1.8205
G01 X4.0282 Y1.7602
G01 X4.0500 Y1.6994
G01 X3.4400 Y1.5000
G01 X3.4392 Y1.5078
G01 X3.4370 Y1.5153
G01 X3.4353 Y1.5189
G01 X3.4309 Y1.5254
G01 X3.4283 Y1.5283
G01 X3.4222 Y1.5333
G01 X3.4153 Y1.5370
G01 X3.4116 Y1.5383
G01 X3.4039 Y1.5398
G01 X3.3961 Y1.5398
G01 X3.3884 Y1.5383
G01 X3.3847 Y1.5370
G01 X3.3811 Y1.5353
G01 X3.3746 Y1.5309
G01 X3.3691 Y1.5254
G01 X3.3647 Y1.5189
G01 X3.3617 Y1.5116
G01 X3.3608 Y1.5078
G01 X3.3600 Y1.5000
G01 X3.3608 Y1.4922
G01 X3.3630 Y1.4847
G01 X3.3667 Y1.4778
G01 X3.3717 Y1.4717
G01 X3.3746 Y1.4691
G01 X3.3811 Y1.4647
G01 X3.3884 Y1.4617
G01 X3.3961 Y1.4602
G01 X3.4039 Y1.4602
G01 X3.4116 Y1.4617
G01 X3.4189 Y1.4647
G01 X3.4254 Y1.4691
G01 X3.4283 Y1.4717
G01 X3.4333 Y1.4778
G01 X3.4370 Y1.4847
G01 X3.4392 Y1.4922
G01 X3.4400 Y1.5000
G01 X3.5200 Y1.5000
G01 X3.5194 Y1.5118
G01 X3.5177 Y1.5234
G01 X3.5148 Y1.5348
G01 X3.5109 Y1.5459
G01 X3.5058 Y1.5566
G01 X3.4998 Y1.5667
G01 X3.4928 Y1.5761
G01 X3.4849 Y1.5849
G01 X3.4761 Y1.5928
G01 X3.4667 Y1.5998
G01 X3.4566 Y1.6058
G01 X3.4459 Y1.6109
G01 X3.4348 Y1.6148
G01 X3.4234 Y1.6177
G01 X3.4118 Y1.6194
G01 X3.4000 Y1.6200
G01 X3.3882 Y1.6194
G01 X3.3766 Y1.6177
G01 X3.3652 Y1.6148
G01 X3.3541 Y1.6109
G01 X3.3434 Y1.6058
G01 X3.3333 Y1.5998
G01 X3.3239 Y1.5928
G01 X3.3151 Y1.5849
G01 X3.3072 Y1.5761
G01 X3.3002 Y1.5667
G01 X3.2942 Y1.5566
G01 X3.2891 Y1.5459
G01 X3.2852 Y1.5348
G01 X3.2823 Y1.5234
G01 X3.2806 Y1.5118
G01 X3.2800 Y1.5000
G01 X3.2806 Y1.4882
G01 X3.2823 Y1.4766
G01 X3.2852 Y1.4652
G01 X3.2891 Y1.4541
G01 X3.2942 Y1.4434
G01 X3.3002 Y1.4333
G01 X3.3072 Y1.4239
G01 X3.3151 Y1.4151
G01 X3.3239 Y1.4072
G01 X3.3333 Y1.4002
G01 X3.3434 Y1.3942
G01 X3.3541 Y1.3891
G01 X3.3652 Y1.3852
G01 X3.3766 Y1.3823
G01 X3.3882 Y1.3806
G01 X3.4000 Y1.3800
G01 X3.4118 Y1.3806
G01 X3.4234 Y1.3823
G01 X3.4348 Y1.3852
G01 X3.4459 Y1.3891
G01 X3.4566 Y1.3942
G01 X3.4667 Y1.4002
G01 X3.4761 Y1.4072
G01 X3.4849 Y1.4151
G01 X3.4928 Y1.4239
G01 X3.4998 Y1.4333
G01 X3.5058 Y1.4434
G01 X3.5109 Y1.4541
G01 X3.5148 Y1.4652
G01 X3.5177 Y1.4766
G01 X3.5194 Y1.4882
G01 X3.5200 Y1.5000
G01 X3.6000 Y1.5000
G01 X3.5990 Y1.5196
G01 X3.5962 Y1.5390
G01 X3.5914 Y1.5581
G01 X3.5848 Y1.5765
G01 X3.5764 Y1.5943
G01 X3.5663 Y1.6111
G01 X3.5546 Y1.6269
G01 X3.5414 Y1.6414
G01 X3.5269 Y1.6546
G01 X3.5111 Y1.6663
G01 X3.4943 Y1.6764
G01 X3.4765 Y1.6848
G01 X3.4581 Y1.6914
G01 X3.4390 Y1.6962
G01 X3.4196 Y1.6990
G01 X3.4000 Y1.7000
G01 X3.3804 Y1.6990
G01 X3.3610 Y1.6962
G01 X3.3419 Y1.6914
G01 X3.3235 Y1.6848
G01 X3.3057 Y1.6764
G01 X3.2889 Y1.6663
G01 X3.2731 Y1.6546
G01 X3.2586 Y1.6414
G01 X3.2454 Y1.6269
G01 X3.2337 Y1.6111
G01 X3.2236 Y1.5943
G01 X3.2152 Y1.5765
G01 X3.2086 Y1.5581
G01 X3.2038 Y1.5390
G01 X3.2010 Y1.5196
G01 X3.2000 Y1.5000
G01 X3.2010 Y1.4804
G01 X3.2038 Y1.4610
G01 X3.2086 Y1.4419
G01 X3.2152 Y1.4235
G01 X3.2236 Y1.4057
G01 X3.2337 Y1.3889
G01 X3.2454 Y1.3731
G01 X3.2586 Y1.3586
G01 X3.2731 Y1.3454
G01 X3.2889 Y1.3337
G01 X3.3057 Y1.3236
G01 X3.3235 Y1.3152
G01 X3.3419 Y1.3086
G01 X3.3610 Y1.3038
G01 X3.3804 Y1.3010
G01 X3.4000 Y1.3000
G01 X3.4196 Y1.3010
G01 X3.4390 Y1.3038
G01 X3.4581 Y1.3086
G01 X3.4765 Y1.3152
G01 X3.4943 Y1.3236
G01 X3.5111 Y1.3337
G01 X3.5269 Y1.3454
G01 X3.5414 Y1.3586
G01 X3.5546 Y1.3731
G01 X3.5663 Y1.3889
G01 X3.5764 Y1.4057
G01 X3.5848 Y1.4235
G01 X3.5914 Y1.4419
G01 X3.5962 Y1.4610
G01 X3.5990 Y1.4804
G01 X3.6000 Y1.5000
G01 X3.6800 Y1.5000
G01 X3.6787 Y1.5274
G01 X3.6746 Y1.5546
G01 X3.6679 Y1.5813
G01 X3.6587 Y1.6072
G01 X3.6469 Y1.6320
G01 X3.6328 Y1.6556
G01 X3.6164 Y1.6776
G01 X3.5980 Y1.6980
G01 X3.5776 Y1.7164
G01 X3.5556 Y1.7328
G01 X3.5320 Y1.7469
G01 X3.5072 Y1.7587
G01 X3.4813 Y1.7679
G01 X3.4546 Y1.7746
G01 X3.4274 Y1.7787
G01 X3.4000 Y1.7800
G01 X3.3726 Y1.7787
G01 X3.3454 Y1.7746
G01 X3.3187 Y1.7679
G01 X3.2928 Y1.7587
G01 X3.2680 Y1.7469
G01 X3.2444 Y1.7328
G01 X3.2224 Y1.7164
G01 X3.2020 Y1.6980
G01 X3.1836 Y1.6776
G01 X3.1672 Y1.6556
G01 X3.1531 Y1.6320
G01 X3.1413 Y1.6072
G01 X3.1321 Y1.5813
G01 X3.1254 Y1.5546
G01 X3.1213 Y1.5274
G01 X3.1200 Y1.5000
G01 X3.1213 Y1.4726
G01 X3.1254 Y1.4454
G01 X3.1321 Y1.4187
G01 X3.1413 Y1.3928
G01 X3.1531 Y1.3680
G01 X3.1672 Y1.3444
G01 X3.1836 Y1.3224
G01 X3.2020 Y1.3020
G01 X3.2224 Y1.2836
G01 X3.2444 Y1.2672
G01 X3.2680 Y1.2531
G01 X3.2928 Y1.2413
G01 X3.3187 Y1.2321
G01 X3.3454 Y1.2254
G01 X3.3726 Y1.2213
G01 X3.4000 Y1.2200
G01 X3.4274 Y1.2213
G01 X3.4546 Y1.2254
G01 X3.4813 Y1.2321
G01 X3.5072 Y1.2413
G01 X3.5320 Y1.2531
G01 X3.5556 Y1.2672
G01 X3.5776 Y1.2836
G01 X3.5980 Y1.3020
G01 X3.6164 Y1.3224
G01 X3.6328 Y1.3444
G01 X3.6469 Y1.3680
G01 X3.6587 Y1.3928
G01 X3.6679 Y1.4187
G01 X3.6746 Y1.4454
G01 X3.6787 Y1.4726
G01 X3.6800 Y1.5000
G01 X3.7600 Y1.5000
G01 X3.7583 Y1.5353
G01 X3.7531 Y1.5702
G01 X3.7445 Y1.6045
G01 X3.7326 Y1.6378
G01 X3.7175 Y1.6697
G01 X3.6993 Y1.7000
G01 X3.6783 Y1.7284
G01 X3.6546 Y1.7546
G01 X3.6284 Y1.7783
G01 X3.6000 Y1.7993
G01 X3.5697 Y1.8175
G01 X3.5378 Y1.8326
G01 X3.5045 Y1.8445
G01 X3.4702 Y1.8531
G01 X3.4353 Y1.8583
G01 X3.4000 Y1.8600
G01 X3.3647 Y1.8583
G01 X3.3298 Y1.8531
G01 X3.2955 Y1.8445
G01 X3.2622 Y1.8326
G01 X3.2303 Y1.8175
G01 X3.2000 Y1.7993
G01 X3.1716 Y1.7783
G01 X3.1454 Y1.7546
G01 X3.1217 Y1.7284
G01 X3.1007 Y1.7000
G01 X3.0825 Y1.6697
G01 X3.0674 Y1.6378
G01 X3.0555 Y1.6045
G01 X3.0469 Y1.5702
G01 X3.0417 Y1.5353
G01 X3.0400 Y1.5000
G01 X3.0417 Y1.4647
G01 X3.0469 Y1.4298
G01 X3.0555 Y1.3955
G01 X3.0674 Y1.3622
G01 X3.0825 Y1.3303
G01 X3.1007 Y1.3000
G01 X3.1217 Y1.2716
G01 X3.1454 Y1.2454
G01 X3.1716 Y1.2217
G01 X3.2000 Y1.2007
G01 X3.2303 Y1.1825
G01 X3.2622 Y1.1674
G01 X3.2955 Y1.1555
G01 X3.3298 Y1.1469
G01 X3.3647 Y1.1417
G01 X3.4000 Y1.1400
G01 X3.4353 Y1.1417
G01 X3.4702 Y1.1469
G01 X3.5045 Y1.1555
G01 X3.5378 Y1.1674
G01 X3.5697 Y1.1825
G01 X3.6000 Y1.2007
G01 X3.6284 Y1.2217
G01 X3.6546 Y1.2454
G01 X3.6783 Y1.2716
G01 X3.6993 Y1.3000
G01 X3.7175 Y1.3303
G01 X3.7326 Y1.3622
G01 X3.7445 Y1.3955
G01 X3.7531 Y1.4298
G01 X3.7583 Y1.4647
G01 X3.7600 Y1.5000
G01 X3.8400 Y1.5000
G01 X3.8379 Y1.5431
G01 X3.8315 Y1.5858
G01 X3.8211 Y1.6277
G01 X3.8065 Y1.6684
G01 X3.7880 Y1.7074
G01 X3.7658 Y1.7445
G01 X3.7401 Y1.7791
G01 X3.7111 Y1.8111
G01 X3.6791 Y1.8401
G01 X3.6445 Y1.8658
G01 X3.6074 Y1.8880
G01 X3.5684 Y1.9065
G01 X3.5277 Y1.9211
G01 X3.4858 Y1.9315
G01 X3.4431 Y1.9379
G01 X3.4000 Y1.9400
G01 X3.3569 Y1.9379
G01 X3.3142 Y1.9315
G01 X3.2723 Y1.9211
G01 X3.2316 Y1.9065
G01 X3.1926 Y1.8880
G01 X3.1555 Y1.8658
G01 X3.1209 Y1.8401
G01 X3.0889 Y1.8111
G01 X3.0599 Y1.7791
G01 X3.0342 Y1.7445
G01 X3.0120 Y1.7074
G01 X2.9935 Y1.6684
G01 X2.9789 Y1.6277
G01 X2.9685 Y1.5858
G01 X2.9621 Y1.5431
G01 X2.9600 Y1.5000
G01 X2.9621 Y1.4569
G01 X2.9685 Y1.4142
G01 X2.9789 Y1.3723
G01 X2.9935 Y1.3316
G01 X3.0120 Y1.2926
G01 X3.0342 Y1.2555
G01 X3.0599 Y1.2209
G01 X3.0889 Y1.1889
G01 X3.1209 Y1.1599
G01 X3.1555 Y1.1342
G01 X3.1926 Y1.1120
G01 X3.2316 Y1.0935
G01 X3.2723 Y1.0789
G01 X3.3142 Y1.0685
G01 X3.3569 Y1.0621
G01 X3.4000 Y1.0600
G01 X3.4431 Y1.0621
G01 X3.4858 Y1.0685
G01 X3.5277 Y1.0789
G01 X3.5684 Y1.0935
G01 X3.6074 Y1.1120
G01 X3.6445 Y1.1342
G01 X3.6791 Y1.1599
G01 X3.7111 Y1.1889
G01 X3.7401 Y1.2209
G01 X3.7658 Y1.2555
G01 X3.7880 Y1.2926
G01 X3.8065 Y1.3316
G01 X3.8211 Y1.3723
G01 X3.8315 Y1.4142
G01 X3.8379 Y1.4569
G01 X3.8400 Y1.5000
G01 X3.9200 Y1.5000
G01 X3.9175 Y1.5510
G01 X3.9100 Y1.6014
G01 X3.8976 Y1.6509
G01 X3.8804 Y1.6990
G01 X3.8586 Y1.7451
G01 X3.8324 Y1.7889
G01 X3.8020 Y1.8299
G01 X3.7677 Y1.8677
G01 X3.7299 Y1.9020
G01 X3.6889 Y1.9324
G01 X3.6451 Y1.9586
G01 X3.5990 Y1.9804
G01 X3.5509 Y1.9976
G01 X3.5014 Y2.0100
G01 X3.4510 Y2.0175
G01 X3.4000 Y2.0200
G01 X3.3490 Y2.0175
G01 X3.2986 Y2.0100
G01 X3.2491 Y1.9976
G01 X3.2010 Y1.9804
G01 X3.1549 Y1.9586
G01 X3.1111 Y1.9324
G01 X3.0701 Y1.9020
G01 X3.0323 Y1.8677
G01 X2.9980 Y1.8299
G01 X2.9676 Y1.7889
G01 X2.9414 Y1.7451
G01 X2.9196 Y1.6990
G01 X2.9024 Y1.6509
G01 X2.8900 Y1.6014
G01 X2.8825 Y1.5510
G01 X2.8800 Y1.5000
G01 X2.8825 Y1.4490
G01 X2.8900 Y1.3986
G01 X2.9024 Y1.3491
G01 X2.9196 Y1.3010
G01 X2.9414 Y1.2549
G01 X2.9676 Y1.2111
G01 X2.9980 Y1.1701
G01 X3.0323 Y1.1323
G01 X3.0701 Y1.0980
G01 X3.1111 Y1.0676
G01 X3.1549 Y1.0414
G01 X3.2010 Y1.0196
G01 X3.2491 Y1.0024
G01 X3.2986 Y0.9900
G01 X3.3490 Y0.9825
G01 X3.4000 Y0.9800
G01 X3.4510 Y0.9825
G01 X3.5014 Y0.9900
G01 X3.5509 Y1.0024
G01 X3.5990 Y1.0196
G01 X3.6451 Y1.0414
G01 X3.6889 Y1.0676
G01 X3.7299 Y1.0980
G01 X3.7677 Y1.1323
G01 X3.8020 Y1.1701
G01 X3.8324 Y1.2111
G01 X3.8586 Y1.2549
G01 X3.8804 Y1.3010
G01 X3.8976 Y1.3491
G01 X3.9100 Y1.3986
G01 X3.9175 Y1.4490
G01 X3.9200 Y1.5000
G01 X4.0000 Y1.5000
G01 X3.9971 Y1.5588
G01 X3.9885 Y1.6171
G01 X3.9742 Y1.6742
G01 X3.9543 Y1.7296
G01 X3.9292 Y1.7828
G01 X3.8989 Y1.8333
G01 X3.8638 Y1.8806
G01 X3.8243 Y1.9243
G01 X3.7806 Y1.9638
G01 X3.7333 Y1.9989
G01 X3.6828 Y2.0292
G01 X3.6296 Y2.0543
G01 X3.5742 Y2.0742
G01 X3.5171 Y2.0885
G01 X3.4588 Y2.0971
G01 X3.4000 Y2.1000
G01 X3.3412 Y2.0971
G01 X3.2829 Y2.0885
G01 X3.2258 Y2.0742
G01 X3.1704 Y2.0543
G01 X3.1172 Y2.0292
G01 X3.0667 Y1.9989
G01 X3.0194 Y1.9638
G01 X2.9757 Y1.9243
G01 X2.9362 Y1.8806
G01 X2.9011 Y1.8333
G01 X2.8708 Y1.7828
G01 X2.8457 Y1.7296
G01 X2.8258 Y1.6742
G01 X2.8115 Y1.6171
G01 X2.8029 Y1.5588
G01 X2.8000 Y1.5000
G01 X2.8029 Y1.4412
G01 X2.8115 Y1.3829
G01 X2.8258 Y1.3258
G01 X2.8457 Y1.2704
G01 X2.8708 Y1.2172
G01 X2.9011 Y1.1667
G01 X2.9362 Y1.1194
G01 X2.9757 Y1.0757
G01 X3.0194 Y1.0362
G01 X3.0667 Y1.0011
G01 X3.1172 Y0.9708
G01 X3.1704 Y0.9457
G01 X3.2258 Y0.9258
G01 X3.2829 Y0.9115
G01 X3.3412 Y0.9029
G01 X3.4000 Y0.9000
G01 X3.4588 Y0.9029
G01 X3.5171 Y0.9115
G01 X3.5742 Y0.9258
G01 X3.6296 Y0.9457
G01 X3.6828 Y0.9708
G01 X3.7333 Y1.0011
G01 X3.7806 Y1.0362
G01 X3.8243 Y1.0757
G01 X3.8638 Y1.1194
G01 X3.8989 Y1.1667
G01 X3.9292 Y1.2172
G01 X3.9543 Y1.2704
G01 X3.9742 Y1.3258
G01 X3.9885 Y1.3829
G01 X3.9971 Y1.4412
G01 X4.0000 Y1.5000
G01 X4.0500 Y1.3006
G01 X4.0282 Y1.2398
G01 X3.9997 Y1.1795
G01 X3.9654 Y1.1222
G01 X3.9256 Y1.0686
G01 X3.8808 Y1.0192
G01 X3.8314 Y0.9744
G01 X3.7778 Y0.9346
G01 X3.7205 Y0.9003
G01 X3.6602 Y0.8718
G01 X3.5974 Y0.8493
G01 X3.5327 Y0.8331
G01 X3.4667 Y0.8233
G01 X3.4000 Y0.8200
G01 X3.3333 Y0.8233
G01 X3.2673 Y0.8331
G01 X3.2026 Y0.8493
G01 X3.1398 Y0.8718
G01 X3.0795 Y0.9003
G01 X3.0222 Y0.9346
G01 X2.9686 Y0.9744
G01 X2.9192 Y1.0192
G01 X2.8744 Y1.0686
G01 X2.8346 Y1.1222
G01 X2.8003 Y1.1795
G01 X2.7718 Y1.2398
G01 X2.7500 Y1.3006
G00 Z2.0000
G00 X2.7500 Y1.1079
G01 F60.00
G01 Z-0.0100
G01 F50.00
G01 X2.7681 Y1.0778
G01 X2.8125 Y1.0179
G01 X2.8626 Y0.9626
G01 X2.9179 Y0.9125
G01 X2.9778 Y0.8681
G01 X3.0417 Y0.8297
G01 X3.1092 Y0.7979
G01 X3.1794 Y0.7727
G01 X3.2517 Y0.7546
G01 X3.3255 Y0.7437
G01 X3.4000 Y0.7400
G01 X3.4745 Y0.7437
G01 X3.5483 Y0.7546
G01 X3.6206 Y0.7727
G01 X3.6908 Y0.7979
G01 X3.7583 Y0.8297
G01 X3.8222 Y0.8681
G01 X3.8821 Y0.9125
G01 X3.9374 Y0.9626
G01 X3.9875 Y1.0179
G01 X4.0319 Y1.0778
G01 X4.0500 Y1.1079
G01 X3.6821 Y0.6250
G01 X3.7521 Y0.6500
G01 X3.8337 Y0.6886
G01 X3.9111 Y0.7350
G01 X3.9836 Y0.7888
G01 X4.0483 Y0.8475
G01 X4.0500 Y0.8756
G01 X4.0500 Y2.1244
G01 X4.0486 Y2.1507
G01 X4.0449 Y2.1750
G01 X4.0395 Y2.1964
G01 X4.0304 Y2.2218
G01 X4.0210 Y2.2417
G01 X4.0085 Y2.2628
G01 X3.9940 Y2.2826
G01 X3.9776 Y2.3009
G01 X3.9576 Y2.3190
G01 X3.9399 Y2.3321
G01 X3.9189 Y2.3448
G01 X3.8968 Y2.3554
G01 X3.8737 Y2.3638
G01 X3.8476 Y2.3704
G01 X3.8233 Y2.3739
G01 X3.7994 Y2.3750
G01 X3.0006 Y2.3750
G01 X2.9743 Y2.3736
G01 X2.9524 Y2.3704
G01 X2.9286 Y2.3645
G01 X2.9055 Y2.3564
G01 X2.8833 Y2.3460
G01 X2.8622 Y2.3335
G01 X2.8424 Y2.3190
G01 X2.8241 Y2.3026
G01 X2.8076 Y2.2845
G01 X2.7929 Y2.2649
G01 X2.7790 Y2.2417
G01 X2.7696 Y2.2218
G01 X2.7612 Y2.1987
G01 X2.7546 Y2.1726
G01 X2.7511 Y2.1483
G01 X2.7500 Y2.1256
G01 X2.7500 Y2.1244
G01 X2.7500 Y0.8756
G01 X2.7514 Y0.8493
G01 X2.7551 Y0.8250
G01 X2.7605 Y0.8036
G01 X2.7696 Y0.7782
G01 X2.7802 Y0.7561
G01 X2.7915 Y0.7372
G01 X2.8060 Y0.7174
G01 X2.8224 Y0.6991
G01 X2.8424 Y0.6810
G01 X2.8601 Y0.6679
G01 X2.8811 Y0.6552
G01 X2.9055 Y0.6436
G01 X2.9286 Y0.6355
G01 X2.9500 Y0.6301
G01 X2.9743 Y0.6264
G01 X3.0006 Y0.6250
G01 X3.7994 Y0.6250
G01 X3.8233 Y0.6261
G01 X3.8476 Y0.6296
G01 X3.8714 Y0.6355
G01 X3.8945 Y0.6436
G01 X3.9167 Y0.6540
G01 X3.9378 Y0.6665
G01 X3.9576 Y0.6810
G01 X3.9759 Y0.6974
G01 X3.9924 Y0.7155
G01 X4.0071 Y0.7351
G01 X4.0198 Y0.7561
G01 X4.0304 Y0.7782
G01 X4.0388 Y0.8013
G01 X4.0449 Y0.8250
G01 X4.0454 Y0.8274
G01 X4.0486 Y0.8493
G01 X4.0500 Y0.8756
G00 Z2.0000
G00 X4.0500 Y0.9680
G01 F60.00
G01 Z-0.0100
G01 F50.00
G01 X3.9940 Y0.9060
G01 X3.9329 Y0.8507
G01 X3.8667 Y0.8016
G01 X3.7960 Y0.7592
G01 X3.7215 Y0.7239
G01 X3.6438 Y0.6962
G01 X3.5639 Y0.6761
G01 X3.4823 Y0.6640
G01 X3.4000 Y0.6600
G01 X3.3177 Y0.6640
G01 X3.2361 Y0.6761
G01 X3.1562 Y0.6962
G01 X3.0785 Y0.7239
G01 X3.0040 Y0.7592
G01 X2.9333 Y0.8016
G01 X2.8671 Y0.8507
G01 X2.8060 Y0.9060
G01 X2.7500 Y0.9680
G01 X2.7517 Y0.8475
G01 X2.8164 Y0.7888
G01 X2.8889 Y0.7350
G01 X2.9663 Y0.6886
G01 X3.0479 Y0.6500
G01 X3.1179 Y0.6250
G00 Z2.0000
G00 X5.8500 Y1.1079
G01 F60.00
G01 Z-0.0100
G01 F50.00
G01 X5.8681 Y1.0778
G01 X5.9125 Y1.0179
G01 X5.9626 Y0.9626
G01 X6.0179 Y0.9125
G01 X6.0778 Y0.8681
G01 X6.1417 Y0.8297
G01 X6.2092 Y0.7979
G01 X6.2794 Y0.7727
G01 X6.3517 Y0.7546
G01 X6.4255 Y0.7437
G01 X6.5000 Y0.7400
G01 X6.5745 Y0.7437
G01 X6.6483 Y0.7546
G01 X6.7206 Y0.7727
G01 X6.7908 Y0.7979
G01 X6.8583 Y0.8297
G01 X6.9222 Y0.8681
G01 X6.9821 Y0.9125
G01 X7.0374 Y0.9626
G01 X7.0875 Y1.0179
G01 X7.1319 Y1.0778
G01 X7.1500 Y1.1079
G01 X6.7821 Y0.6250
G01 X6.8521 Y0.6500
G01 X6.9337 Y0.6886
G01 X7.0111 Y0.7350
G01 X7.0836 Y0.7888
G01 X7.1483 Y0.8475
G01 X7.1500 Y0.8756
G01 X7.1500 Y2.1244
G01 X7.1486 Y2.1507
G01 X7.1449 Y2.1750
G01 X7.1395 Y2.1964
G01 X7.1304 Y2.2218
G01 X7.1210 Y2.2417
G01 X7.1085 Y2.2628
G01 X7.0940 Y2.2826
G01 X7.0776 Y2.3009
G01 X7.0576 Y2.3190
G01 X7.0378 Y2.3335
G01 X7.0167 Y2.3460
G01 X6.9945 Y2.3564
G01 X6.9737 Y2.3638
G01 X6.9476 Y2.3704
G01 X6.9233 Y2.3739
G01 X6.8994 Y2.3750
G01 X6.1006 Y2.3750
G01 X6.0743 Y2.3736
G01 X6.0500 Y2.3699
G01 X6.0286 Y2.3645
G01 X6.0055 Y2.3564
G01 X5.9833 Y2.3460
G01 X5.9622 Y2.3335
G01 X5.9424 Y2.3190
G01 X5.9241 Y2.3026
G01 X5.9076 Y2.2845
G01 X5.8929 Y2.2649
G01 X5.8790 Y2.2417
G01 X5.8696 Y2.2218
G01 X5.8612 Y2.1987
G01 X5.8546 Y2.1726
G01 X5.8511 Y2.1483
G01 X5.8500 Y2.1256
G01 X5.8500 Y2.1244
G01 X5.8500 Y0.8756
G01 X5.8514 Y0.8493
G01 X5.8551 Y0.8250
G01 X5.8605 Y0.8036
G01 X5.8696 Y0.7782
G01 X5.8802 Y0.7561
G01 X5.8915 Y0.7372
G01 X5.9060 Y0.7174
G01 X5.9224 Y0.6991
G01 X5.9424 Y0.6810
G01 X5.9601 Y0.6679
G01 X5.9811 Y0.6552
G01 X6.0055 Y0.6436
G01 X6.0286 Y0.6355
G01 X6.0500 Y0.6301
G01 X6.0743 Y0.6264
G01 X6.1006 Y0.6250
G01 X6.8994 Y0.6250
G01 X6.9233 Y0.6261
G01 X6.9476 Y0.6296
G01 X6.9714 Y0.6355
G01 X6.9945 Y0.6436
G01 X7.0167 Y0.6540
G01 X7.0378 Y0.6665
G01 X7.0576 Y0.6810
G01 X7.0759 Y0.6974
G01 X7.0924 Y0.7155
G01 X7.1071 Y0.7351
G01 X7.1198 Y0.7561
G01 X7.1304 Y0.7782
G01 X7.1388 Y0.8013
G01 X7.1449 Y0.8250
G01 X7.1454 Y0.8274
G01 X7.1486 Y0.8493
G01 X7.1500 Y0.8756
G00 Z2.0000
G00 X7.1500 Y0.9680
G01 F60.00
G01 Z-0.0100
G01 F50.00
G01 X7.0940 Y0.9060
G01 X7.0329 Y0.8507
G01 X6.9667 Y0.8016
G01 X6.8960 Y0.7592
G01 X6.8215 Y0.7239
G01 X6.7438 Y0.6962
G01 X6.6639 Y0.6761
G01 X6.5823 Y0.6640
G01 X6.5000 Y0.6600
G01 X6.4177 Y0.6640
G01 X6.3361 Y0.6761
G01 X6.2562 Y0.6962
G01 X6.1785 Y0.7239
G01 X6.1040 Y0.7592
G01 X6.0333 Y0.8016
G01 X5.9671 Y0.8507
G01 X5.9060 Y0.9060
G01 X5.8500 Y0.9680
G01 X5.8517 Y0.8475
G01 X5.9164 Y0.7888
G01 X5.9889 Y0.7350
G01 X6.0663 Y0.6886
G01 X6.1479 Y0.6500
G01 X6.2179 Y0.6250
G00 Z2.0000
G00 X5.8500 Y1.3006
G01 F60.00
G01 Z-0.0100
G01 F50.00
G01 X5.8718 Y1.2398
G01 X5.9003 Y1.1795
G01 X5.9346 Y1.1222
G01 X5.9744 Y1.0686
G01 X6.0192 Y1.0192
G01 X6.0686 Y0.9744
G01 X6.1222 Y0.9346
G01 X6.1795 Y0.9003
G01 X6.2398 Y0.8718
G01 X6.3026 Y0.8493
G01 X6.3673 Y0.8331
G01 X6.4333 Y0.8233
G01 X6.5000 Y0.8200
G01 X6.5667 Y0.8233
G01 X6.6327 Y0.8331
G01 X6.6974 Y0.8493
G01 X6.7602 Y0.8718
G01 X6.8205 Y0.9003
G01 X6.8778 Y0.9346
G01 X6.9314 Y0.9744
G01 X6.9808 Y1.0192
G01 X7.0256 Y1.0686
G01 X7.0654 Y1.1222
G01 X7.0997 Y1.1795
G01 X7.1282 Y1.2398
G01 X7.1500 Y1.3006
G01 X7.1000 Y1.5000
G01 X7.0971 Y1.4412
G01 X7.0885 Y1.3829
G01 X7.0742 Y1.3258
G01 X7.0543 Y1.2704
G01 X7.0292 Y1.2172
G01 X6.9989 Y1.1667
G01 X6.9638 Y1.1194
G01 X6.9243 Y1.0757
G01 X6.8806 Y1.0362
G01 X6.8333 Y1.0011
G01 X6.7828 Y0.9708
G01 X6.7296 Y0.9457
G01 X6.6742 Y0.9258
G01 X6.6171 Y0.9115
G01 X6.5588 Y0.9029
G01 X6.5000 Y0.9000
G01 X6.4412 Y0.9029
G01 X6.3829 Y0.9115
G01 X6.3258 Y0.9258
G01 X6.2704 Y0.9457
G01 X6.2172 Y0.9708
G01 X6.1667 Y1.0011
G01 X6.1194 Y1.0362
G01 X6.0757 Y1.0757
G01 X6.0362 Y1.1194
G01 X6.0011 Y1.1667
G01 X5.9708 Y1.2172
G01 X5.9457 Y1.2704
G01 X5.9258 Y1.3258
G01 X5.9115 Y1.3829
G01 X5.9029 Y1.4412
G01 X5.9000 Y1.5000
G01 X5.9029 Y1.5588
G01 X5.9115 Y1.6171
G01 X5.9258 Y1.6742
G01 X5.9457 Y1.7296
G01 X5.9708 Y1.7828
G01 X6.0011 Y1.8333
G01 X6.0362 Y1.8806
G01 X6.0757 Y1.9243
G01 X6.1194 Y1.9638
G01 X6.1667 Y1.9989
G01 X6.2172 Y2.0292
G01 X6.2704 Y2.0543
G01 X6.3258 Y2.0742
G01 X6.3829 Y2.0885
G01 X6.4412 Y2.0971
G01 X6.5000 Y2.1000
G01 X6.5588 Y2.0971
G01 X6.6171 Y2.0885
G01 X6.6742 Y2.0742
G01 X6.7296 Y2.0543
G01 X6.7828 Y2.0292
G01 X6.8333 Y1.9989
G01 X6.8806 Y1.9638
G01 X6.9243 Y1.9243
G01 X6.9638 Y1.8806
G01 X6.9989 Y1.8333
G01 X7.0292 Y1.7828
G01 X7.0543 Y1.7296
G01 X7.0742 Y1.6742
G01 X7.0885 Y1.6171
G01 X7.0971 Y1.5588
G01 X7.1000 Y1.5000
G01 X7.0200 Y1.5000
G01 X7.0175 Y1.4490
G01 X7.0100 Y1.3986
G01 X6.9976 Y1.3491
G01 X6.9804 Y1.3010
G01 X6.9586 Y1.2549
G01 X6.9324 Y1.2111
G01 X6.9020 Y1.1701
G01 X6.8677 Y1.1323
G01 X6.8299 Y1.0980
G01 X6.7889 Y1.0676
G01 X6.7451 Y1.0414
G01 X6.6990 Y1.0196
G01 X6.6509 Y1.0024
G01 X6.6014 Y0.9900
G01 X6.5510 Y0.9825
G01 X6.5000 Y0.9800
G01 X6.4490 Y0.9825
G01 X6.3986 Y0.9900
G01 X6.3491 Y1.0024
G01 X6.3010 Y1.0196
G01 X6.2549 Y1.0414
G01 X6.2111 Y1.0676
G01 X6.1701 Y1.0980
G01 X6.1323 Y1.1323
G01 X6.0980 Y1.1701
G01 X6.0676 Y1.2111
G01 X6.0414 Y1.2549
G01 X6.0196 Y1.3010
G01 X6.0024 Y1.3491
G01 X5.9900 Y1.3986
G01 X5.9825 Y1.4490
G01 X5.9800 Y1.5000
G01 X5.9825 Y1.5510
G01 X5.9900 Y1.6014
G01 X6.0024 Y1.6509
G01 X6.0196 Y1.6990
G01 X6.0414 Y1.7451
G01 X6.0676 Y1.7889
G01 X6.0980 Y1.8299
G01 X6.1323 Y1.8677
G01 X6.1701 Y1.9020
G01 X6.2111 Y1.9324
G01 X6.2549 Y1.9586
G01 X6.3010 Y1.9804
G01 X6.3491 Y1.9976
G01 X6.3986 Y2.0100
G01 X6.4490 Y2.0175
G01 X6.5000 Y2.0200
G01 X6.5510 Y2.0175
G01 X6.6014 Y2.0100
G01 X6.6509 Y1.9976
G01 X6.6990 Y1.9804
G01 X6.7451 Y1.9586
G01 X6.7889 Y1.9324
G01 X6.8299 Y1.9020
G01 X6.8677 Y1.8677
G01 X6.9020 Y1.8299
G01 X6.9324 Y1.7889
G01 X6.9586 Y1.7451
G01 X6.9804 Y1.6990
G01 X6.9976 Y1.6509
G01 X7.0100 Y1.6014
G01 X7.0175 Y1.5510
G01 X7.0200 Y1.5000
G01 X6.9400 Y1.5000
G01 X6.9379 Y1.4569
G01 X6.9315 Y1.4142
G01 X6.9211 Y1.3723
G01 X6.9065 Y1.3316
G01 X6.8880 Y1.2926
G01 X6.8658 Y1.2555
G01 X6.8401 Y1.2209
G01 X6.8111 Y1.1889
G01 X6.7791 Y1.1599
G01 X6.7445 Y1.1342
G01 X6.7074 Y1.1120
G01 X6.6684 Y1.0935
G01 X6.6277 Y1.0789
G01 X6.5858 Y1.0685
G01 X6.5431 Y1.0621
G01 X6.5000 Y1.0600
G01 X6.4569 Y1.0621
G01 X6.4142 Y1.0685
G01 X6.3723 Y1.0789
G01 X6.3316 Y1.0935
G01 X6.2926 Y1.1120
G01 X6.2555 Y1.1342
G01 X6.2209 Y1.1599
G01 X6.1889 Y1.1889
G01 X6.1599 Y1.2209
G01 X6.1342 Y1.2555
G01 X6.1120 Y1.2926
G01 X6.0935 Y1.3316
G01 X6.0789 Y1.3723
G01 X6.0685 Y1.4142
G01 X6.0621 Y1.4569
G01 X6.0600 Y1.5000
G01 X6.0621 Y1.5431
G01 X6.0685 Y1.5858
G01 X6.0789 Y1.6277
G01 X6.0935 Y1.6684
G01 X6.1120 Y1.7074
G01 X6.1342 Y1.7445
G01 X6.1599 Y1.7791
G01 X6.1889 Y1.8111
G01 X6.2209 Y1.8401
G01 X6.2555 Y1.8658
G01 X6.2926 Y1.8880
G01 X6.3316 Y1.9065
G01 X6.3723 Y1.9211
G01 X6.4142 Y1.9315
G01 X6.4569 Y1.9379
G01 X6.5000 Y1.9400
G01 X6.5431 Y1.9379
G01 X6.5858 Y1.9315
G01 X6.6277 Y1.9211
G01 X6.6684 Y1.9065
G01 X6.7074 Y1.8880
G01 X6.7445 Y1.8658
G01 X6.7791 Y1.8401
G01 X6.8111 Y1.8111
G01 X6.8401 Y1.7791
G01 X6.8658 Y1.7445
G01 X6.8880 Y1.7074
G01 X6.9065 Y1.6684
G01 X6.9211 Y1.6277
G01 X6.9315 Y1.5858
G01 X6.9379 Y1.5431
G01 X6.9400 Y1.5000
G01 X6.8600 Y1.5000
G01 X6.8583 Y1.4647
G01 X6.8531 Y1.4298
G01 X6.8445 Y1.3955
G01 X6.8326 Y1.3622
G01 X6.8175 Y1.3303
G01 X6.7993 Y1.3000
G01 X6.7783 Y1.2716
G01 X6.7546 Y1.2454
G01 X6.7284 Y1.2217
G01 X6.7000 Y1.2007
G01 X6.6697 Y1.1825
G01 X6.6378 Y1.1674
G01 X6.6045 Y1.1555
G01 X6.5702 Y1.1469
G01 X6.5353 Y1.1417
G01 X6.5000 Y1.1400
G01 X6.4647 Y1.1417
G01 X6.4298 Y1.1469
G01 X6.3955 Y1.1555
G01 X6.3622 Y1.1674
G01 X6.3303 Y1.1825
G01 X6.3000 Y1.2007
G01 X6.2716 Y1.2217
G01 X6.2454 Y1.2454
G01 X6.2217 Y1.2716
G01 X6.2007 Y1.3000
G01 X6.1825 Y1.3303
G01 X6.1674 Y1.3622
G01 X6.1555 Y1.3955
G01 X6.1469 Y1.4298
G01 X6.1417 Y1.4647
G01 X6.1400 Y1.5000
G01 X6.1417 Y1.5353
G01 X6.1469 Y1.5702
G01 X6.1555 Y1.6045
G01 X6.1674 Y1.6378
G01 X6.1825 Y1.6697
G01 X6.2007 Y1.7000
G01 X6.2217 Y1.7284
G01 X6.2454 Y1.7546
G01 X6.2716 Y1.7783
G01 X6.3000 Y1.7993
G01 X6.3303 Y1.8175
G01 X6.3622 Y1.8326
G01 X6.3955 Y1.8445
G01 X6.4298 Y1.8531
G01 X6.4647 Y1.8583
G01 X6.5000 Y1.8600
G01 X6.5353 Y1.8583
G01 X6.5702 Y1.8531
G01 X6.6045 Y1.8445
G01 X6.6378 Y1.8326
G01 X6.6697 Y1.8175
G01 X6.7000 Y1.7993
G01 X6.7284 Y1.7783
G01 X6.7546 Y1.7546
G01 X6.7783 Y1.7284
G01 X6.7993 Y1.7000
G01 X6.8175 Y1.6697
G01 X6.8326 Y1.6378
G01 X6.8445 Y1.6045
G01 X6.8531 Y1.5702
G01 X6.8583 Y1.5353
G01 X6.8600 Y1.5000
G01 X6.7800 Y1.5000
G01 X6.7787 Y1.4726
G01 X6.7746 Y1.4454
G01 X6.7679 Y1.4187
G01 X6.7587 Y1.3928
G01 X6.7469 Y1.3680
G01 X6.7328 Y1.3444
G01 X6.7164 Y1.3224
G01 X6.6980 Y1.3020
G01 X6.6776 Y1.2836
G01 X6.6556 Y1.2672
G01 X6.6320 Y1.2531
G01 X6.6072 Y1.2413
G01 X6.5813 Y1.2321
G01 X6.5546 Y1.2254
G01 X6.5274 Y1.2213
G01 X6.5000 Y1.2200
G01 X6.4726 Y1.2213
G01 X6.4454 Y1.2254
G01 X6.4187 Y1.2321
G01 X6.3928 Y1.2413
G01 X6.3680 Y1.2531
G01 X6.3444 Y1.2672
G01 X6.3224 Y1.2836
G01 X6.3020 Y1.3020
G01 X6.2836 Y1.3224
G01 X6.2672 Y1.3444
G01 X6.2531 Y1.3680
G01 X6.2413 Y1.3928
G01 X6.2321 Y1.4187
G01 X6.2254 Y1.4454
G01 X6.2213 Y1.4726
G01 X6.2200 Y1.5000
G01 X6.2213 Y1.5274
G01 X6.2254 Y1.5546
G01 X6.2321 Y1.5813
G01 X6.2413 Y1.6072
G01 X6.2531 Y1.6320
G01 X6.2672 Y1.6556
G01 X6.2836 Y1.6776
G01 X6.3020 Y1.6980
G01 X6.3224 Y1.7164
G01 X6.3444 Y1.7328
G01 X6.3680 Y1.7469
G01 X6.3928 Y1.7587
G01 X6.4187 Y1.7679
G01 X6.4454 Y1.7746
G01 X6.4726 Y1.7787
G01 X6.5000 Y1.7800
G01 X6.5274 Y1.7787
G01 X6.5546 Y1.7746
G01 X6.5813 Y1.7679
G01 X6.6072 Y1.7587
G01 X6.6320 Y1.7469
G01 X6.6556 Y1.7328
G01 X6.6776 Y1.7164
G01 X6.6980 Y1.6980
G01 X6.7164 Y1.6776
G01 X6.7328 Y1.6556
G01 X6.7469 Y1.6320
G01 X6.7587 Y1.6072
G01 X6.7679 Y1.5813
G01 X6.7746 Y1.5546
G01 X6.7787 Y1.5274
G01 X6.7800 Y1.5000
G01 X6.7000 Y1.5000
G01 X6.6990 Y1.4804
G01 X6.6962 Y1.4610
G01 X6.6914 Y1.4419
G01 X6.6848 Y1.4235
G01 X6.6764 Y1.4057
G01 X6.6663 Y1.3889
G01 X6.6546 Y1.3731
G01 X6.6414 Y1.3586
G01 X6.6269 Y1.3454
G01 X6.6111 Y1.3337
G01 X6.5943 Y1.3236
G01 X6.5765 Y1.3152
G01 X6.5581 Y1.3086
G01 X6.5390 Y1.3038
G01 X6.5196 Y1.3010
G01 X6.5000 Y1.3000
G01 X6.4804 Y1.3010
G01 X6.4610 Y1.3038
G01 X6.4419 Y1.3086
G01 X6.4235 Y1.3152
G01 X6.4057 Y1.3236
G01 X6.3889 Y1.3337
G01 X6.3731 Y1.3454
G01 X6.3586 Y1.3586
G01 X6.3454 Y1.3731
G01 X6.3337 Y1.3889
G01 X6.3236 Y1.4057
G01 X6.3152 Y1.4235
G01 X6.3086 Y1.4419
G01 X6.3038 Y1.4610
G01 X6.3010 Y1.4804
G01 X6.3000 Y1.5000
G01 X6.3010 Y1.5196
G01 X6.3038 Y1.5390
G01 X6.3086 Y1.5581
G01 X6.3152 Y1.5765
G01 X6.3236 Y1.5943
G01 X6.3337 Y1.6111
G01 X6.3454 Y1.6269
G01 X6.3586 Y1.6414
G01 X6.3731 Y1.6546
G01 X6.3889 Y1.6663
G01 X6.4057 Y1.6764
G01 X6.4235 Y1.6848
G01 X6.4419 Y1.6914
G01 X6.4610 Y1.6962
G01 X6.4804 Y1.6990
G01 X6.5000 Y1.7000
G01 X6.5196 Y1.6990
G01 X6.5390 Y1.6962
G01 X6.5581 Y1.6914
G01 X6.5765 Y1.6848
G01 X6.5943 Y1.6764
G01 X6.6111 Y1.6663
G01 X6.6269 Y1.6546
G01 X6.6414 Y1.6414
G01 X6.6546 Y1.6269
G01 X6.6663 Y1.6111
G01 X6.6764 Y1.5943
G01 X6.6848 Y1.5765
G01 X6.6914 Y1.5581
G01 X6.6962 Y1.5390
G01 X6.6990 Y1.5196
G01 X6.7000 Y1.5000
G01 X6.6200 Y1.5000
G01 X6.6194 Y1.4882
G01 X6.6177 Y1.4766
G01 X6.6148 Y1.4652
G01 X6.6109 Y1.4541
G01 X6.6058 Y1.4434
G01 X6.5998 Y1.4333
G01 X6.5928 Y1.4239
G01 X6.5849 Y1.4151
G01 X6.5761 Y1.4072
G01 X6.5667 Y1.4002
G01 X6.5566 Y1.3942
G01 X6.5459 Y1.3891
G01 X6.5348 Y1.3852
G01 X6.5234 Y1.3823
G01 X6.5118 Y1.3806
G01 X6.5000 Y1.3800
G01 X6.4882 Y1.3806
G01 X6.4766 Y1.3823
G01 X6.4652 Y1.3852
G01 X6.4541 Y1.3891
G01 X6.4434 Y1.3942
G01 X6.4333 Y1.4002
G01 X6.4239 Y1.4072
G01 X6.4151 Y1.4151
G01 X6.4072 Y1.4239
G01 X6.4002 Y1.4333
G01 X6.3942 Y1.4434
G01 X6.3891 Y1.4541
G01 X6.3852 Y1.4652
G01 X6.3823 Y1.4766
G01 X6.3806 Y1.4882
G01 X6.3800 Y1.5000
G01 X6.3806 Y1.5118
G01 X6.3823 Y1.5234
G01 X6.3852 Y1.5348
G01 X6.3891 Y1.5459
G01 X6.3942 Y1.5566
G01 X6.4002 Y1.5667
G01 X6.4072 Y1.5761
G01 X6.4151 Y1.5849
G01 X6.4239 Y1.5928
G01 X6.4333 Y1.5998
G01 X6.4434 Y1.6058
G01 X6.4541 Y1.6109
G01 X6.4652 Y1.6148
G01 X6.4766 Y1.6177
G01 X6.4882 Y1.6194
G01 X6.5000 Y1.6200
G01 X6.5118 Y1.6194
G01 X6.5234 Y1.6177
G01 X6.5348 Y1.6148
G01 X6.5459 Y1.6109
G01 X6.5566 Y1.6058
G01 X6.5667 Y1.5998
G01 X6.5761 Y1.5928
G01 X6.5849 Y1.5849
G01 X6.5928 Y1.5761
G01 X6.5998 Y1.5667
G01 X6.6058 Y1.5566
G01 X6.6109 Y1.5459
G01 X6.6148 Y1.5348
G01 X6.6177 Y1.5234
G01 X6.6194 Y1.5118
G01 X6.6200 Y1.5000
G01 X6.5400 Y1.5000
G01 X6.5392 Y1.4922
G01 X6.5370 Y1.4847
G01 X6.5333 Y1.4778
G01 X6.5283 Y1.4717
G01 X6.5222 Y1.4667
G01 X6.5153 Y1.4630
G01 X6.5116 Y1.4617
G01 X6.5039 Y1.4602
G01 X6.4961 Y1.4602
G01 X6.4884 Y1.4617
G01 X6.4847 Y1.4630
G01 X6.4778 Y1.4667
G01 X6.4717 Y1.4717
G01 X6.4667 Y1.4778
G01 X6.4630 Y1.4847
G01 X6.4608 Y1.4922
G01 X6.4600 Y1.5000
G01 X6.4608 Y1.5078
G01 X6.4630 Y1.5153
G01 X6.4647 Y1.5189
G01 X6.4691 Y1.5254
G01 X6.4717 Y1.5283
G01 X6.4778 Y1.5333
G01 X6.4847 Y1.5370
G01 X6.4884 Y1.5383
G01 X6.4961 Y1.5398
G01 X6.5039 Y1.5398
G01 X6.5078 Y1.5392
G01 X6.5153 Y1.5370
G01 X6.5222 Y1.5333
G01 X6.5283 Y1.5283
G01 X6.5309 Y1.5254
G01 X6.5353 Y1.5189
G01 X6.5383 Y1.5116
G01 X6.5398 Y1.5039
G01 X6.5400 Y1.5000
G01 X7.1500 Y1.6994
G01 X7.1282 Y1.7602
G01 X7.0997 Y1.8205
G01 X7.0654 Y1.8778
G01 X7.0256 Y1.9314
G01 X6.9808 Y1.9808
G01 X6.9314 Y2.0256
G01 X6.8778 Y2.0654
G01 X6.8205 Y2.0997
G01 X6.7602 Y2.1282
G01 X6.6974 Y2.1507
G01 X6.6327 Y2.1669
G01 X6.5667 Y2.1767
G01 X6.5000 Y2.1800
G01 X6.4333 Y2.1767
G01 X6.3673 Y2.1669
G01 X6.3026 Y2.1507
G01 X6.2398 Y2.1282
G01 X6.1795 Y2.0997
G01 X6.1222 Y2.0654
G01 X6.0686 Y2.0256
G01 X6.0192 Y1.9808
G01 X5.9744 Y1.9314
G01 X5.9346 Y1.8778
G01 X5.9003 Y1.8205
G01 X5.8718 Y1.7602
G01 X5.8500 Y1.6994
G00 Z2.0000
G00 X5.8500 Y1.8921
G01 F60.00
G01 Z-0.0100
G01 F50.00
G01 X5.8681 Y1.9222
G01 X5.9125 Y1.9821
G01 X5.9626 Y2.0374
G01 X6.0179 Y2.0875
G01 X6.0778 Y2.1319
G01 X6.1417 Y2.1703
G01 X6.2092 Y2.2021
G01 X6.2794 Y2.2273
G01 X6.3517 Y2.2454
G01 X6.4255 Y2.2563
G01 X6.5000 Y2.2600
G01 X6.5745 Y2.2563
G01 X6.6483 Y2.2454
G01 X6.7206 Y2.2273
G01 X6.7908 Y2.2021
G01 X6.8583 Y2.1703
G01 X6.9222 Y2.1319
G01 X6.9821 Y2.0875
G01 X7.0374 Y2.0374
G01 X7.0875 Y1.9821
G01 X7.1319 Y1.9222
G01 X7.1500 Y1.8921
G00 Z2.0000
G00 X7.1500 Y2.0320
G01 F60.00
G01 Z-0.0100
G01 F50.00
G01 X7.0940 Y2.0940
G01 X7.0329 Y2.1493
G01 X6.9667 Y2.1984
G01 X6.8960 Y2.2408
G01 X6.8215 Y2.2761
G01 X6.7438 Y2.3038
G01 X6.6639 Y2.3239
G01 X6.5823 Y2.3360
G01 X6.5000 Y2.3400
G01 X6.4177 Y2.3360
G01 X6.3361 Y2.3239
G01 X6.2562 Y2.3038
G01 X6.1785 Y2.2761
G01 X6.1040 Y2.2408
G01 X6.0333 Y2.1984
G01 X5.9671 Y2.1493
G01 X5.9060 Y2.0940
G01 X5.8500 Y2.0320
G01 X5.8517 Y2.1525
G01 X5.9164 Y2.2112
G01 X5.9889 Y2.2650
G01 X6.0663 Y2.3114
G01 X6.1479 Y2.3500
G01 X6.2179 Y2.3750
G00 Z2.0000
G00 X6.7821 Y2.3750
G01 F60.00
G01 Z-0.0100
G01 F50.00
G01 X6.8521 Y2.3500
G01 X6.9337 Y2.3114
G01 X7.0111 Y2.2650
G01 X7.0836 Y2.2112
G01 X7.1483 Y2.1525
G00 Z2.0000
G00 X7.8000 Y1.8921
G01 F60.00
G01 Z-0.0100
G01 F50.00
G01 X7.8181 Y1.9222
G01 X7.8625 Y1.9821
G01 X7.9126 Y2.0374
G01 X7.9679 Y2.0875
G01 X8.0278 Y2.1319
G01 X8.0917 Y2.1703
G01 X8.1592 Y2.2021
G01 X8.2294 Y2.2273
G01 X8.3017 Y2.2454
G01 X8.3755 Y2.2563
G01 X8.4500 Y2.2600
G01 X8.5245 Y2.2563
G01 X8.5983 Y2.2454
G01 X8.6706 Y2.2273
G01 X8.7408 Y2.2021
G01 X8.8083 Y2.1703
G01 X8.8722 Y2.1319
G01 X8.9321 Y2.0875
G01 X8.9874 Y2.0374
G01 X9.0375 Y1.9821
G01 X9.0819 Y1.9222
G01 X9.1000 Y1.8921
G00 Z2.0000
G00 X9.1000 Y2.0320
G01 F60.00
G01 Z-0.0100
G01 F50.00
G01 X9.0440 Y2.0940
G01 X8.9829 Y2.1493
G01 X8.9167 Y2.1984
G01 X8.8460 Y2.2408
G01 X8.7715 Y2.2761
G01 X8.6938 Y2.3038
G01 X8.6139 Y2.3239
G01 X8.5323 Y2.3360
G01 X8.4500 Y2.3400
G01 X8.3677 Y2.3360
G01 X8.2861 Y2.3239
G01 X8.2062 Y2.3038
G01 X8.1285 Y2.2761
G01 X8.0540 Y2.2408
G01 X7.9833 Y2.1984
G01 X7.9171 Y2.1493
G01 X7.8560 Y2.0940
G01 X7.8000 Y2.0320
G01 X7.8017 Y2.1525
G01 X7.8664 Y2.2112
G01 X7.9389 Y2.2650
G01 X8.0163 Y2.3114
G01 X8.0979 Y2.3500
G01 X8.1679 Y2.3750
G00 Z2.0000
G00 X8.7321 Y2.3750
G01 F60.00
G01 Z-0.0100
G01 F50.00
G01 X8.8021 Y2.3500
G01 X8.8837 Y2.3114
G01 X8.9611 Y2.2650
G01 X9.0336 Y2.2112
G01 X9.0983 Y2.1525
G00 Z2.0000
G00 X7.8000 Y1.6994
G01 F60.00
G01 Z-0.0100
G01 F50.00
G01 X7.8218 Y1.7602
G01 X7.8503 Y1.8205
G01 X7.8846 Y1.8778
G01 X7.9244 Y1.9314
G01 X7.9692 Y1.9808
G01 X8.0186 Y2.0256
G01 X8.0722 Y2.0654
G01 X8.1295 Y2.0997
G01 X8.1898 Y2.1282
G01 X8.2526 Y2.1507
G01 X8.3173 Y2.1669
G01 X8.3833 Y2.1767
G01 X8.4500 Y2.1800
G01 X8.5167 Y2.1767
G01 X8.5827 Y2.1669
G01 X8.6474 Y2.1507
G01 X8.7102 Y2.1282
G01 X8.7705 Y2.0997
G01 X8.8278 Y2.0654
G01 X8.8814 Y2.0256
G01 X8.9308 Y1.9808
G01 X8.9756 Y1.9314
G01 X9.0154 Y1.8778
G01 X9.0497 Y1.8205
G01 X9.0782 Y1.7602
G01 X9.1000 Y1.6994
G01 X8.4900 Y1.5000
G01 X8.4898 Y1.5039
G01 X8.4883 Y1.5116
G01 X8.4853 Y1.5189
G01 X8.4809 Y1.5254
G01 X8.4754 Y1.5309
G01 X8.4722 Y1.5333
G01 X8.4689 Y1.5353
G01 X8.4616 Y1.5383
G01 X8.4539 Y1.5398
G01 X8.4461 Y1.5398
G01 X8.4384 Y1.5383
G01 X8.4347 Y1.5370
G01 X8.4311 Y1.5353
G01 X8.4246 Y1.5309
G01 X8.4191 Y1.5254
G01 X8.4147 Y1.5189
G01 X8.4117 Y1.5116
G01 X8.4102 Y1.5039
G01 X8.4102 Y1.4961
G01 X8.4117 Y1.4884
G01 X8.4147 Y1.4811
G01 X8.4191 Y1.4746
G01 X8.4246 Y1.4691
G01 X8.4278 Y1.4667
G01 X8.4311 Y1.4647
G01 X8.4384 Y1.4617
G01 X8.4461 Y1.4602
G01 X8.4539 Y1.4602
G01 X8.4616 Y1.4617
G01 X8.4689 Y1.4647
G01 X8.4754 Y1.4691
G01 X8.4809 Y1.4746
G01 X8.4853 Y1.4811
G01 X8.4883 Y1.4884
G01 X8.4898 Y1.4961
G01 X8.4900 Y1.5000
G01 X8.5700 Y1.5000
G01 X8.5694 Y1.5118
G01 X8.5677 Y1.5234
G01 X8.5648 Y1.5348
G01 X8.5609 Y1.5459
G01 X8.5558 Y1.5566
G01 X8.5498 Y1.5667
G01 X8.5428 Y1.5761
G01 X8.5349 Y1.5849
G01 X8.5261 Y1.5928
G01 X8.5167 Y1.5998
G01 X8.5066 Y1.6058
G01 X8.4959 Y1.6109
G01 X8.4848 Y1.6148
G01 X8.4734 Y1.6177
G01 X8.4618 Y1.6194
G01 X8.4500 Y1.6200
G01 X8.4382 Y1.6194
G01 X8.4266 Y1.6177
G01 X8.4152 Y1.6148
G01 X8.4041 Y1.6109
G01 X8.3934 Y1.6058
G01 X8.3833 Y1.5998
G01 X8.3739 Y1.5928
G01 X8.3651 Y1.5849
G01 X8.3572 Y1.5761
G01 X8.3502 Y1.5667
G01 X8.3442 Y1.5566
G01 X8.3391 Y1.5459
G01 X8.3352 Y1.5348
G01 X8.3323 Y1.5234
G01 X8.3306 Y1.5118
G01 X8.3300 Y1.5000
G01 X8.3306 Y1.4882
G01 X8.3323 Y1.4766
G01 X8.3352 Y1.4652
G01 X8.3391 Y1.4541
G01 X8.3442 Y1.4434
G01 X8.3502 Y1.4333
G01 X8.3572 Y1.4239
G01 X8.3651 Y1.4151
G01 X8.3739 Y1.4072
G01 X8.3833 Y1.4002
G01 X8.3934 Y1.3942
G01 X8.4041 Y1.3891
G01 X8.4152 Y1.3852
G01 X8.4266 Y1.3823
G01 X8.4382 Y1.3806
G01 X8.4500 Y1.3800
G01 X8.4618 Y1.3806
G01 X8.4734 Y1.3823
G01 X8.4848 Y1.3852
G01 X8.4959 Y1.3891
G01 X8.5066 Y1.3942
G01 X8.5167 Y1.4002
G01 X8.5261 Y1.4072
G01 X8.5349 Y1.4151
G01 X8.5428 Y1.4239
G01 X8.5498 Y1.4333
G01 X8.5558 Y1.4434
G01 X8.5609 Y1.4541
G01 X8.5648 Y1.4652
G01 X8.5677 Y1.4766
G01 X8.5694 Y1.4882
G01 X8.5700 Y1.5000
G01 X8.6500 Y1.5000
G01 X8.6490 Y1.5196
G01 X8.6462 Y1.5390
G01 X8.6414 Y1.5581
G01 X8.6348 Y1.5765
G01 X8.6264 Y1.5943
G01 X8.6163 Y1.6111
G01 X8.6046 Y1.6269
G01 X8.5914 Y1.6414
G01 X8.5769 Y1.6546
G01 X8.5611 Y1.6663
G01 X8.5443 Y1.6764
G01 X8.5265 Y1.6848
G01 X8.5081 Y1.6914
G01 X8.4890 Y1.6962
G01 X8.4696 Y1.6990
G01 X8.4500 Y1.7000
G01 X8.4304 Y1.6990
G01 X8.4110 Y1.6962
G01 X8.3919 Y1.6914
G01 X8.3735 Y1.6848
G01 X8.3557 Y1.6764
G01 X8.3389 Y1.6663
G01 X8.3231 Y1.6546
G01 X8.3086 Y1.6414
G01 X8.2954 Y1.6269
G01 X8.2837 Y1.6111
G01 X8.2736 Y1.5943
G01 X8.2652 Y1.5765
G01 X8.2586 Y1.5581
G01 X8.2538 Y1.5390
G01 X8.2510 Y1.5196
G01 X8.2500 Y1.5000
G01 X8.2510 Y1.4804
G01 X8.2538 Y1.4610
G01 X8.2586 Y1.4419
G01 X8.2652 Y1.4235
G01 X8.2736 Y1.4057
G01 X8.2837 Y1.3889
G01 X8.2954 Y1.3731
G01 X8.3086 Y1.3586
G01 X8.3231 Y1.3454
G01 X8.3389 Y1.3337
G01 X8.3557 Y1.3236
G01 X8.3735 Y1.3152
G01 X8.3919 Y1.3086
G01 X8.4110 Y1.3038
G01 X8.4304 Y1.3010
G01 X8.4500 Y1.3000
G01 X8.4696 Y1.3010
G01 X8.4890 Y1.3038
G01 X8.5081 Y1.3086
G01 X8.5265 Y1.3152
G01 X8.5443 Y1.3236
G01 X8.5611 Y1.3337
G01 X8.5769 Y1.3454
G01 X8.5914 Y1.3586
G01 X8.6046 Y1.3731
G01 X8.6163 Y1.3889
G01 X8.6264 Y1.4057
G01 X8.6348 Y1.4235
G01 X8.6414 Y1.4419
G01 X8.6462 Y1.4610
G01 X8.6490 Y1.4804
G01 X8.6500 Y1.5000
G01 X8.7300 Y1.5000
G01 X8.7287 Y1.5274
G01 X8.7246 Y1.5546
G01 X8.7179 Y1.5813
G01 X8.7087 Y1.6072
G01 X8.6969 Y1.6320
G01 X8.6828 Y1.6556
G01 X8.6664 Y1.6776
G01 X8.6480 Y1.6980
G01 X8.6276 Y1.7164
G01 X8.6056 Y1.7328
G01 X8.5820 Y1.7469
G01 X8.5572 Y1.7587
G01 X8.5313 Y1.7679
G01 X8.5046 Y1.7746
G01 X8.4774 Y1.7787
G01 X8.4500 Y1.7800
G01 X8.4226 Y1.7787
G01 X8.3954 Y1.7746
G01 X8.3687 Y1.7679
G01 X8.3428 Y1.7587
G01 X8.3180 Y1.7469
G01 X8.2944 Y1.7328
G01 X8.2724 Y1.7164
G01 X8.2520 Y1.6980
G01 X8.2336 Y1.6776
G01 X8.2172 Y1.6556
G01 X8.2031 Y1.6320
G01 X8.1913 Y1.6072
G01 X8.1821 Y1.5813
G01 X8.1754 Y1.5546
G01 X8.1713 Y1.5274
G01 X8.1700 Y1.5000
G01 X8.1713 Y1.4726
G01 X8.1754 Y1.4454
G01 X8.1821 Y1.4187
G01 X8.1913 Y1.3928
G01 X8.2031 Y1.3680
G01 X8.2172 Y1.3444
G01 X8.2336 Y1.3224
G01 X8.2520 Y1.3020
G01 X8.2724 Y1.2836
G01 X8.2944 Y1.2672
G01 X8.3180 Y1.2531
G01 X8.3428 Y1.2413
G01 X8.3687 Y1.2321
G01 X8.3954 Y1.2254
G01 X8.4226 Y1.2213
G01 X8.4500 Y1.2200
G01 X8.4774 Y1.2213
G01 X8.5046 Y1.2254
G01 X8.5313 Y1.2321
G01 X8.5572 Y1.2413
G01 X8.5820 Y1.2531
G01 X8.6056 Y1.2672
G01 X8.6276 Y1.2836
G01 X8.6480 Y1.3020
G01 X8.6664 Y1.3224
G01 X8.6828 Y1.3444
G01 X8.6969 Y1.3680
G01 X8.7087 Y1.3928
G01 X8.7179 Y1.4187
G01 X8.7246 Y1.4454
G01 X8.7287 Y1.4726
G01 X8.7300 Y1.5000
G01 X8.8100 Y1.5000
G01 X8.8083 Y1.5353
G01 X8.8031 Y1.5702
G01 X8.7945 Y1.6045
G01 X8.7826 Y1.6378
G01 X8.7675 Y1.6697
G01 X8.7493 Y1.7000
G01 X8.7283 Y1.7284
G01 X8.7046 Y1.7546
G01 X8.6784 Y1.7783
G01 X8.6500 Y1.7993
G01 X8.6197 Y1.8175
G01 X8.5878 Y1.8326
G01 X8.5545 Y1.8445
G01 X8.5202 Y1.8531
G01 X8.4853 Y1.8583
G01 X8.4500 Y1.8600
G01 X8.4147 Y1.8583
G01 X8.3798 Y1.8531
G01 X8.3455 Y1.8445
G01 X8.3122 Y1.8326
G01 X8.2803 Y1.8175
G01 X8.2500 Y1.7993
G01 X8.2216 Y1.7783
G01 X8.1954 Y1.7546
G01 X8.1717 Y1.7284
G01 X8.1507 Y1.7000
G01 X8.1325 Y1.6697
G01 X8.1174 Y1.6378
G01 X8.1055 Y1.6045
G01 X8.0969 Y1.5702
G01 X8.0917 Y1.5353
G01 X8.0900 Y1.5000
G01 X8.0917 Y1.4647
G01 X8.0969 Y1.4298
G01 X8.1055 Y1.3955
G01 X8.1174 Y1.3622
G01 X8.1325 Y1.3303
G01 X8.1507 Y1.3000
G01 X8.1717 Y1.2716
G01 X8.1954 Y1.2454
G01 X8.2216 Y1.2217
G01 X8.2500 Y1.2007
G01 X8.2803 Y1.1825
G01 X8.3122 Y1.1674
G01 X8.3455 Y1.1555
G01 X8.3798 Y1.1469
G01 X8.4147 Y1.1417
G01 X8.4500 Y1.1400
G01 X8.4853 Y1.1417
G01 X8.5202 Y1.1469
G01 X8.5545 Y1.1555
G01 X8.5878 Y1.1674
G01 X8.6197 Y1.1825
G01 X8.6500 Y1.2007
G01 X8.6784 Y1.2217
G01 X8.7046 Y1.2454
G01 X8.7283 Y1.2716
G01 X8.7493 Y1.3000
G01 X8.7675 Y1.3303
G01 X8.7826 Y1.3622
G01 X8.7945 Y1.3955
G01 X8.8031 Y1.4298
G01 X8.8083 Y1.4647
G01 X8.8100 Y1.5000
G01 X8.8900 Y1.5000
G01 X8.8879 Y1.5431
G01 X8.8815 Y1.5858
G01 X8.8711 Y1.6277
G01 X8.8565 Y1.6684
G01 X8.8380 Y1.7074
G01 X8.8158 Y1.7445
G01 X8.7901 Y1.7791
G01 X8.7611 Y1.8111
G01 X8.7291 Y1.8401
G01 X8.6945 Y1.8658
G01 X8.6574 Y1.8880
G01 X8.6184 Y1.9065
G01 X8.5777 Y1.9211
G01 X8.5358 Y1.9315
G01 X8.4931 Y1.9379
G01 X8.4500 Y1.9400
G01 X8.4069 Y1.9379
G01 X8.3642 Y1.9315
G01 X8.3223 Y1.9211
G01 X8.2816 Y1.9065
G01 X8.2426 Y1.8880
G01 X8.2055 Y1.8658
G01 X8.1709 Y1.8401
G01 X8.1389 Y1.8111
G01 X8.1099 Y1.7791
G01 X8.0842 Y1.7445
G01 X8.0620 Y1.7074
G01 X8.0435 Y1.6684
G01 X8.0289 Y1.6277
G01 X8.0185 Y1.5858
G01 X8.0121 Y1.5431
G01 X8.0100 Y1.5000
G01 X8.0121 Y1.4569
G01 X8.0185 Y1.4142
G01 X8.0289 Y1.3723
G01 X8.0435 Y1.3316
G01 X8.0620 Y1.2926
G01 X8.0842 Y1.2555
G01 X8.1099 Y1.2209
G01 X8.1389 Y1.1889
G01 X8.1709 Y1.1599
G01 X8.2055 Y1.1342
G01 X8.2426 Y1.1120
G01 X8.2816 Y1.0935
G01 X8.3223 Y1.0789
G01 X8.3642 Y1.0685
G01 X8.4069 Y1.0621
G01 X8.4500 Y1.0600
G01 X8.4931 Y1.0621
G01 X8.5358 Y1.0685
G01 X8.5777 Y1.0789
G01 X8.6184 Y1.0935
G01 X8.6574 Y1.1120
G01 X8.6945 Y1.1342
G01 X8.7291 Y1.1599
G01 X8.7611 Y1.1889
G01 X8.7901 Y1.2209
G01 X8.8158 Y1.2555
G01 X8.8380 Y1.2926
G01 X8.8565 Y1.3316
G01 X8.8711 Y1.3723
G01 X8.8815 Y1.4142
G01 X8.8879 Y1.4569
G01 X8.8900 Y1.5000
G01 X8.9700 Y1.5000
G01 X8.9675 Y1.5510
G01 X8.9600 Y1.6014
G01 X8.9476 Y1.6509
G01 X8.9304 Y1.6990
G01 X8.9086 Y1.7451
G01 X8.8824 Y1.7889
G01 X8.8520 Y1.8299
G01 X8.8177 Y1.8677
G01 X8.7799 Y1.9020
G01 X8.7389 Y1.9324
G01 X8.6951 Y1.9586
G01 X8.6490 Y1.9804
G01 X8.6009 Y1.9976
G01 X8.5514 Y2.0100
G01 X8.5010 Y2.0175
G01 X8.4500 Y2.0200
G01 X8.3990 Y2.0175
G01 X8.3486 Y2.0100
G01 X8.2991 Y1.9976
G01 X8.2510 Y1.9804
G01 X8.2049 Y1.9586
G01 X8.1611 Y1.9324
G01 X8.1201 Y1.9020
G01 X8.0823 Y1.8677
G01 X8.0480 Y1.8299
G01 X8.0176 Y1.7889
G01 X7.9914 Y1.7451
G01 X7.9696 Y1.6990
G01 X7.9524 Y1.6509
G01 X7.9400 Y1.6014
G01 X7.9325 Y1.5510
G01 X7.9300 Y1.5000
G01 X7.9325 Y1.4490
G01 X7.9400 Y1.3986
G01 X7.9524 Y1.3491
G01 X7.9696 Y1.3010
G01 X7.9914 Y1.2549
G01 X8.0176 Y1.2111
G01 X8.0480 Y1.1701
G01 X8.0823 Y1.1323
G01 X8.1201 Y1.0980
G01 X8.1611 Y1.0676
G01 X8.2049 Y1.0414
G01 X8.2510 Y1.0196
G01 X8.2991 Y1.0024
G01 X8.3486 Y0.9900
G01 X8.3990 Y0.9825
G01 X8.4500 Y0.9800
G01 X8.5010 Y0.9825
G01 X8.5514 Y0.9900
G01 X8.6009 Y1.0024
G01 X8.6490 Y1.0196
G01 X8.6951 Y1.0414
G01 X8.7389 Y1.0676
G01 X8.7799 Y1.0980
G01 X8.8177 Y1.1323
G01 X8.8520 Y1.1701
G01 X8.8824 Y1.2111
G01 X8.9086 Y1.2549
G01 X8.9304 Y1.3010
G01 X8.9476 Y1.3491
G01 X8.9600 Y1.3986
G01 X8.9675 Y1.4490
G01 X8.9700 Y1.5000
G01 X9.0500 Y1.5000
G01 X9.0471 Y1.5588
G01 X9.0385 Y1.6171
G01 X9.0242 Y1.6742
G01 X9.0043 Y1.7296
G01 X8.9792 Y1.7828
G01 X8.9489 Y1.8333
G01 X8.9138 Y1.8806
G01 X8.8743 Y1.9243
G01 X8.8306 Y1.9638
G01 X8.7833 Y1.9989
G01 X8.7328 Y2.0292
G01 X8.6796 Y2.0543
G01 X8.6242 Y2.0742
G01 X8.5671 Y2.0885
G01 X8.5088 Y2.0971
G01 X8.4500 Y2.1000
G01 X8.3912 Y2.0971
G01 X8.3329 Y2.0885
G01 X8.2758 Y2.0742
G01 X8.2204 Y2.0543
G01 X8.1672 Y2.0292
G01 X8.1167 Y1.9989
G01 X8.0694 Y1.9638
G01 X8.0257 Y1.9243
G01 X7.9862 Y1.8806
G01 X7.9511 Y1.8333
G01 X7.9208 Y1.7828
G01 X7.8957 Y1.7296
G01 X7.8758 Y1.6742
G01 X7.8615 Y1.6171
G01 X7.8529 Y1.5588
G01 X7.8500 Y1.5000
G01 X7.8529 Y1.4412
G01 X7.8615 Y1.3829
G01 X7.8758 Y1.3258
G01 X7.8957 Y1.2704
G01 X7.9208 Y1.2172
G01 X7.9511 Y1.1667
G01 X7.9862 Y1.1194
G01 X8.0257 Y1.0757
G01 X8.0694 Y1.0362
G01 X8.1167 Y1.0011
G01 X8.1672 Y0.9708
G01 X8.2204 Y0.9457
G01 X8.2758 Y0.9258
G01 X8.3329 Y0.9115
G01 X8.3912 Y0.9029
G01 X8.4500 Y0.9000
G01 X8.5088 Y0.9029
G01 X8.5671 Y0.9115
G01 X8.6242 Y0.9258
G01 X8.6796 Y0.9457
G01 X8.7328 Y0.9708
G01 X8.7833 Y1.0011
G01 X8.8306 Y1.0362
G01 X8.8743 Y1.0757
G01 X8.9138 Y1.1194
G01 X8.9489 Y1.1667
G01 X8.9792 Y1.2172
G01 X9.0043 Y1.2704
G01 X9.0242 Y1.3258
G01 X9.0385 Y1.3829
G01 X9.0471 Y1.4412
G01 X9.0500 Y1.5000
G01 X9.1000 Y1.3006
G01 X9.0782 Y1.2398
G01 X9.0497 Y1.1795
G01 X9.0154 Y1.1222
G01 X8.9756 Y1.0686
G01 X8.9308 Y1.0192
G01 X8.8814 Y0.9744
G01 X8.8278 Y0.9346
G01 X8.7705 Y0.9003
G01 X8.7102 Y0.8718
G01 X8.6474 Y0.8493
G01 X8.5827 Y0.8331
G01 X8.5167 Y0.8233
G01 X8.4500 Y0.8200
G01 X8.3833 Y0.8233
G01 X8.3173 Y0.8331
G01 X8.2526 Y0.8493
G01 X8.1898 Y0.8718
G01 X8.1295 Y0.9003
G01 X8.0722 Y0.9346
G01 X8.0186 Y0.9744
G01 X7.9692 Y1.0192
G01 X7.9244 Y1.0686
G01 X7.8846 Y1.1222
G01 X7.8503 Y1.1795
G01 X7.8218 Y1.2398
G01 X7.8000 Y1.3006
G00 Z2.0000
G00 X7.8000 Y1.1079
G01 F60.00
G01 Z-0.0100
G01 F50.00
G01 X7.8181 Y1.0778
G01 X7.8625 Y1.0179
G01 X7.9126 Y0.9626
G01 X7.9679 Y0.9125
G01 X8.0278 Y0.8681
G01 X8.0917 Y0.8297
G01 X8.1592 Y0.7979
G01 X8.2294 Y0.7727
G01 X8.3017 Y0.7546
G01 X8.3755 Y0.7437
G01 X8.4500 Y0.7400
G01 X8.5245 Y0.7437
G01 X8.5983 Y0.7546
G01 X8.6706 Y0.7727
G01 X8.7408 Y0.7979
G01 X8.8083 Y0.8297
G01 X8.8722 Y0.8681
G01 X8.9321 Y0.9125
G01 X8.9874 Y0.9626
G01 X9.0375 Y1.0179
G01 X9.0819 Y1.0778
G01 X9.1000 Y1.1079
G01 X8.7321 Y0.6250
G01 X8.8021 Y0.6500
G01 X8.8837 Y0.6886
G01 X8.9611 Y0.7350
G01 X9.0336 Y0.7888
G01 X9.0983 Y0.8475
G01 X9.1000 Y0.8756
G01 X9.1000 Y2.1244
G01 X9.1000 Y2.1256
G01 X9.0989 Y2.1483
G01 X9.0954 Y2.1726
G01 X9.0895 Y2.1964
G01 X9.0814 Y2.2195
G01 X9.0710 Y2.2417
G01 X9.0585 Y2.2628
G01 X9.0440 Y2.2826
G01 X9.0276 Y2.3009
G01 X9.0095 Y2.3174
G01 X8.9899 Y2.3321
G01 X8.9667 Y2.3460
G01 X8.9445 Y2.3564
G01 X8.9214 Y2.3645
G01 X8.8976 Y2.3704
G01 X8.8733 Y2.3739
G01 X8.8494 Y2.3750
G01 X8.0506 Y2.3750
G01 X8.0267 Y2.3739
G01 X8.0024 Y2.3704
G01 X7.9763 Y2.3638
G01 X7.9532 Y2.3554
G01 X7.9333 Y2.3460
G01 X7.9122 Y2.3335
G01 X7.8924 Y2.3190
G01 X7.8724 Y2.3009
G01 X7.8576 Y2.2845
G01 X7.8429 Y2.2649
G01 X7.8290 Y2.2417
G01 X7.8186 Y2.2195
G01 X7.8112 Y2.1987
G01 X7.8051 Y2.1750
G01 X7.8014 Y2.1507
G01 X7.8000 Y2.1244
G01 X7.8000 Y0.8756
G01 X7.8000 Y0.8744
G01 X7.8011 Y0.8517
G01 X7.8014 Y0.8493
G01 X7.8046 Y0.8274
G01 X7.8105 Y0.8036
G01 X7.8186 Y0.7805
G01 X7.8290 Y0.7583
G01 X7.8415 Y0.7372
G01 X7.8560 Y0.7174
G01 X7.8724 Y0.6991
G01 X7.8924 Y0.6810
G01 X7.9122 Y0.6665
G01 X7.9333 Y0.6540
G01 X7.9555 Y0.6436
G01 X7.9786 Y0.6355
G01 X8.0024 Y0.6296
G01 X8.0267 Y0.6261
G01 X8.0506 Y0.6250
G01 X8.8494 Y0.6250
G01 X8.8757 Y0.6264
G01 X8.9000 Y0.6301
G01 X8.9237 Y0.6362
G01 X8.9468 Y0.6446
G01 X8.9689 Y0.6552
G01 X8.9899 Y0.6679
G01 X9.0095 Y0.6826
G01 X9.0276 Y0.6991
G01 X9.0440 Y0.7174
G01 X9.0571 Y0.7351
G01 X9.0698 Y0.7561
G01 X9.0804 Y0.7782
G01 X9.0888 Y0.8013
G01 X9.0949 Y0.8250
G01 X9.0954 Y0.8274
G01 X9.0986 Y0.8493
G01 X9.1000 Y0.8756
G01 X9.1000 Y0.9680
G01 X9.0440 Y0.9060
G01 X8.9829 Y0.8507
G01 X8.9167 Y0.8016
G01 X8.8460 Y0.7592
G01 X8.7715 Y0.7239
G01 X8.6938 Y0.6962
G01 X8.6139 Y0.6761
G01 X8.5323 Y0.6640
G01 X8.4500 Y0.6600
G01 X8.3677 Y0.6640
G01 X8.2861 Y0.6761
G01 X8.2062 Y0.6962
G01 X8.1285 Y0.7239
G01 X8.0540 Y0.7592
G01 X7.9833 Y0.8016
G01 X7.9171 Y0.8507
G01 X7.8560 Y0.9060
G01 X7.8007 Y0.9671
G01 X7.8000 Y0.9680
G01 X7.8017 Y0.8475
G01 X7.8664 Y0.7888
G01 X7.9389 Y0.7350
G01 X8.0163 Y0.6886
G01 X8.0979 Y0.6500
G01 X8.1679 Y0.6250
G00 Z2.0000
G00 X10.9000 Y1.1079
G01 F60.00
G01 Z-0.0100
G01 F50.00
G01 X10.9181 Y1.0778
G01 X10.9625 Y1.0179
G01 X11.0126 Y0.9626
G01 X11.0679 Y0.9125
G01 X11.1278 Y0.8681
G01 X11.1917 Y0.8297
G01 X11.2592 Y0.7979
G01 X11.3294 Y0.7727
G01 X11.4017 Y0.7546
G01 X11.4755 Y0.7437
G01 X11.5500 Y0.7400
G01 X11.6245 Y0.7437
G01 X11.6983 Y0.7546
G01 X11.7706 Y0.7727
G01 X11.8408 Y0.7979
G01 X11.9083 Y0.8297
G01 X11.9722 Y0.8681
G01 X12.0321 Y0.9125
G01 X12.0874 Y0.9626
G01 X12.1375 Y1.0179
G01 X12.1819 Y1.0778
G01 X12.2000 Y1.1079
G01 X11.8321 Y0.6250
G01 X11.9021 Y0.6500
G01 X11.9837 Y0.6886
G01 X12.0611 Y0.7350
G01 X12.1336 Y0.7888
G01 X12.1983 Y0.8475
G01 X12.2000 Y0.8756
G01 X12.2000 Y2.1244
G01 X12.2000 Y2.1256
G01 X12.1989 Y2.1483
G01 X12.1954 Y2.1726
G01 X12.1895 Y2.1964
G01 X12.1814 Y2.2195
G01 X12.1710 Y2.2417
G01 X12.1585 Y2.2628
G01 X12.1440 Y2.2826
G01 X12.1276 Y2.3009
G01 X12.1095 Y2.3174
G01 X12.0899 Y2.3321
G01 X12.0667 Y2.3460
G01 X12.0445 Y2.3564
G01 X12.0214 Y2.3645
G01 X11.9976 Y2.3704
G01 X11.9733 Y2.3739
G01 X11.9494 Y2.3750
G01 X11.1506 Y2.3750
G01 X11.1267 Y2.3739
G01 X11.1024 Y2.3704
G01 X11.0763 Y2.3638
G01 X11.0532 Y2.3554
G01 X11.0333 Y2.3460
G01 X11.0122 Y2.3335
G01 X10.9924 Y2.3190
G01 X10.9724 Y2.3009
G01 X10.9576 Y2.2845
G01 X10.9429 Y2.2649
G01 X10.9290 Y2.2417
G01 X10.9186 Y2.2195
G01 X10.9112 Y2.1987
G01 X10.9051 Y2.1750
G01 X10.9014 Y2.1507
G01 X10.9000 Y2.1244
G01 X10.9000 Y0.8756
G01 X10.9000 Y0.8744
G01 X10.9011 Y0.8517
G01 X10.9014 Y0.8493
G01 X10.9046 Y0.8274
G01 X10.9105 Y0.8036
G01 X10.9186 Y0.7805
G01 X10.9290 Y0.7583
G01 X10.9415 Y0.7372
G01 X10.9560 Y0.7174
G01 X10.9724 Y0.6991
G01 X10.9924 Y0.6810
G01 X11.0122 Y0.6665
G01 X11.0333 Y0.6540
G01 X11.0555 Y0.6436
G01 X11.0786 Y0.6355
G01 X11.1024 Y0.6296
G01 X11.1267 Y0.6261
G01 X11.1506 Y0.6250
G01 X11.9494 Y0.6250
G01 X11.9757 Y0.6264
G01 X12.0000 Y0.6301
G01 X12.0237 Y0.6362
G01 X12.0468 Y0.6446
G01 X12.0689 Y0.6552
G01 X12.0899 Y0.6679
G01 X12.1095 Y0.6826
G01 X12.1276 Y0.6991
G01 X12.1440 Y0.7174
G01 X12.1571 Y0.7351
G01 X12.1698 Y0.7561
G01 X12.1804 Y0.7782
G01 X12.1888 Y0.8013
G01 X12.1949 Y0.8250
G01 X12.1954 Y0.8274
G01 X12.1986 Y0.8493
G01 X12.2000 Y0.8756
G01 X12.2000 Y0.9680
G01 X12.1440 Y0.9060
G01 X12.0829 Y0.8507
G01 X12.0167 Y0.8016
G01 X11.9460 Y0.7592
G01 X11.8715 Y0.7239
G01 X11.7938 Y0.6962
G01 X11.7139 Y0.6761
G01 X11.6323 Y0.6640
G01 X11.5500 Y0.6600
G01 X11.4677 Y0.6640
G01 X11.3861 Y0.6761
G01 X11.3062 Y0.6962
G01 X11.2285 Y0.7239
G01 X11.1540 Y0.7592
G01 X11.0833 Y0.8016
G01 X11.0171 Y0.8507
G01 X10.9560 Y0.9060
G01 X10.9007 Y0.9671
G01 X10.9000 Y0.9680
G01 X10.9017 Y0.8475
G01 X10.9664 Y0.7888
G01 X11.0389 Y0.7350
G01 X11.1163 Y0.6886
G01 X11.1979 Y0.6500
G01 X11.2679 Y0.6250
G00 Z2.0000
G00 X10.9000 Y1.3006
G01 F60.00
G01 Z-0.0100
G01 F50.00
G01 X10.9218 Y1.2398
G01 X10.9503 Y1.1795
G01 X10.9846 Y1.1222
G01 X11.0244 Y1.0686
G01 X11.0692 Y1.0192
G01 X11.1186 Y0.9744
G01 X11.1722 Y0.9346
G01 X11.2295 Y0.9003
G01 X11.2898 Y0.8718
G01 X11.3526 Y0.8493
G01 X11.4173 Y0.8331
G01 X11.4833 Y0.8233
G01 X11.5500 Y0.8200
G01 X11.6167 Y0.8233
G01 X11.6827 Y0.8331
G01 X11.7474 Y0.8493
G01 X11.8102 Y0.8718
G01 X11.8705 Y0.9003
G01 X11.9278 Y0.9346
G01 X11.9814 Y0.9744
G01 X12.0308 Y1.0192
G01 X12.0756 Y1.0686
G01 X12.1154 Y1.1222
G01 X12.1497 Y1.1795
G01 X12.1782 Y1.2398
G01 X12.2000 Y1.3006
G01 X12.1500 Y1.5000
G01 X12.1471 Y1.4412
G01 X12.1385 Y1.3829
G01 X12.1242 Y1.3258
G01 X12.1043 Y1.2704
G01 X12.0792 Y1.2172
G01 X12.0489 Y1.1667
G01 X12.0138 Y1.1194
G01 X11.9743 Y1.0757
G01 X11.9306 Y1.0362
G01 X11.8833 Y1.0011
G01 X11.8328 Y0.9708
G01 X11.7796 Y0.9457
G01 X11.7242 Y0.9258
G01 X11.6671 Y0.9115
G01 X11.6088 Y0.9029
G01 X11.5500 Y0.9000
G01 X11.4912 Y0.9029
G01 X11.4329 Y0.9115
G01 X11.3758 Y0.9258
G01 X11.3204 Y0.9457
G01 X11.2672 Y0.9708
G01 X11.2167 Y1.0011
G01 X11.1694 Y1.0362
G01 X11.1257 Y1.0757
G01 X11.0862 Y1.1194
G01 X11.0511 Y1.1667
G01 X11.0208 Y1.2172
G01 X10.9957 Y1.2704
G01 X10.9758 Y1.3258
G01 X10.9615 Y1.3829
G01 X10.9529 Y1.4412
G01 X10.9500 Y1.5000
G01 X10.9529 Y1.5588
G01 X10.9615 Y1.6171
G01 X10.9758 Y1.6742
G01 X10.9957 Y1.7296
G01 X11.0208 Y1.7828
G01 X11.0511 Y1.8333
G01 X11.0862 Y1.8806
G01 X11.1257 Y1.9243
G01 X11.1694 Y1.9638
G01 X11.2167 Y1.9989
G01 X11.2672 Y2.0292
G01 X11.3204 Y2.0543
G01 X11.3758 Y2.0742
G01 X11.4329 Y2.0885
G01 X11.4912 Y2.0971
G01 X11.5500 Y2.1000
G01 X11.6088 Y2.0971
G01 X11.6671 Y2.0885
G01 X11.7242 Y2.0742
G01 X11.7796 Y2.0543
G01 X11.8328 Y2.0292
G01 X11.8833 Y1.9989
G01 X11.9306 Y1.9638
G01 X11.9743 Y1.9243
G01 X12.0138 Y1.8806
G01 X12.0489 Y1.8333
G01 X12.0792 Y1.7828
G01 X12.1043 Y1.7296
G01 X12.1242 Y1.6742
G01 X12.1385 Y1.6171
G01 X12.1471 Y1.5588
G01 X12.1500 Y1.5000
G01 X12.0700 Y1.5000
G01 X12.0675 Y1.4490
G01 X12.0600 Y1.3986
G01 X12.0476 Y1.3491
G01 X12.0304 Y1.3010
G01 X12.0086 Y1.2549
G01 X11.9824 Y1.2111
G01 X11.9520 Y1.1701
G01 X11.9177 Y1.1323
G01 X11.8799 Y1.0980
G01 X11.8389 Y1.0676
G01 X11.7951 Y1.0414
G01 X11.7490 Y1.0196
G01 X11.7009 Y1.0024
G01 X11.6514 Y0.9900
G01 X11.6010 Y0.9825
G01 X11.5500 Y0.9800
G01 X11.4990 Y0.9825
G01 X11.4486 Y0.9900
G01 X11.3991 Y1.0024
G01 X11.3510 Y1.0196
G01 X11.3049 Y1.0414
G01 X11.2611 Y1.0676
G01 X11.2201 Y1.0980
G01 X11.1823 Y1.1323
G01 X11.1480 Y1.1701
G01 X11.1176 Y1.2111
G01 X11.0914 Y1.2549
G01 X11.0696 Y1.3010
G01 X11.0524 Y1.3491
G01 X11.0400 Y1.3986
G01 X11.0325 Y1.4490
G01 X11.0300 Y1.5000
G01 X11.0325 Y1.5510
G01 X11.0400 Y1.6014
G01 X11.0524 Y1.6509
G01 X11.0696 Y1.6990
G01 X11.0914 Y1.7451
G01 X11.1176 Y1.7889
G01 X11.1480 Y1.8299
G01 X11.1823 Y1.8677
G01 X11.2201 Y1.9020
G01 X11.2611 Y1.9324
G01 X11.3049 Y1.9586
G01 X11.3510 Y1.9804
G01 X11.3991 Y1.9976
G01 X11.4486 Y2.0100
G01 X11.4990 Y2.0175
G01 X11.5500 Y2.0200
G01 X11.6010 Y2.0175
G01 X11.6514 Y2.0100
G01 X11.7009 Y1.9976
G01 X11.7490 Y1.9804
G01 X11.7951 Y1.9586
G01 X11.8389 Y1.9324
G01 X11.8799 Y1.9020
G01 X11.9177 Y1.8677
G01 X11.9520 Y1.8299
G01 X11.9824 Y1.7889
G01 X12.0086 Y1.7451
G01 X12.0304 Y1.6990
G01 X12.0476 Y1.6509
G01 X12.0600 Y1.6014
G01 X12.0675 Y1.5510
G01 X12.0700 Y1.5000
G01 X11.9900 Y1.5000
G01 X11.9879 Y1.4569
G01 X11.9815 Y1.4142
G01 X11.9711 Y1.3723
G01 X11.9565 Y1.3316
G01 X11.9380 Y1.2926
G01 X11.9158 Y1.2555
G01 X11.8901 Y1.2209
G01 X11.8611 Y1.1889
G01 X11.8291 Y1.1599
G01 X11.7945 Y1.1342
G01 X11.7574 Y1.1120
G01 X11.7184 Y1.0935
G01 X11.6777 Y1.0789
G01 X11.6358 Y1.0685
G01 X11.5931 Y1.0621
G01 X11.5500 Y1.0600
G01 X11.5069 Y1.0621
G01 X11.4642 Y1.0685
G01 X11.4223 Y1.0789
G01 X11.3816 Y1.0935
G01 X11.3426 Y1.1120
G01 X11.3055 Y1.1342
G01 X11.2709 Y1.1599
G01 X11.2389 Y1.1889
G01 X11.2099 Y1.2209
G01 X11.1842 Y1.2555
G01 X11.1620 Y1.2926
G01 X11.1435 Y1.3316
G01 X11.1289 Y1.3723
G01 X11.1185 Y1.4142
G01 X11.1121 Y1.4569
G01 X11.1100 Y1.5000
G01 X11.1121 Y1.5431
G01 X11.1185 Y1.5858
G01 X11.1289 Y1.6277
G01 X11.1435 Y1.6684
G01 X11.1620 Y1.7074
G01 X11.1842 Y1.7445
G01 X11.2099 Y1.7791
G01 X11.2389 Y1.8111
G01 X11.2709 Y1.8401
G01 X11.3055 Y1.8658
G01 X11.3426 Y1.8880
G01 X11.3816 Y1.9065
G01 X11.4223 Y1.9211
G01 X11.4642 Y1.9315
G01 X11.5069 Y1.9379
G01 X11.5500 Y1.9400
G01 X11.5931 Y1.9379
G01 X11.6358 Y1.9315
G01 X11.6777 Y1.9211
G01 X11.7184 Y1.9065
G01 X11.7574 Y1.8880
G01 X11.7945 Y1.8658
G01 X11.8291 Y1.8401
G01 X11.8611 Y1.8111
G01 X11.8901 Y1.7791
G01 X11.9158 Y1.7445
G01 X11.9380 Y1.7074
G01 X11.9565 Y1.6684
G01 X11.9711 Y1.6277
G01 X11.9815 Y1.5858
G01 X11.9879 Y1.5431
G01 X11.9900 Y1.5000
G01 X11.9100 Y1.5000
G01 X11.9083 Y1.4647
G01 X11.9031 Y1.4298
G01 X11.8945 Y1.3955
G01 X11.8826 Y1.3622
G01 X11.8675 Y1.3303
G01 X11.8493 Y1.3000
G01 X11.8283 Y1.2716
G01 X11.8046 Y1.2454
G01 X11.7784 Y1.2217
G01 X11.7500 Y1.2007
G01 X11.7197 Y1.1825
G01 X11.6878 Y1.1674
G01 X11.6545 Y1.1555
G01 X11.6202 Y1.1469
G01 X11.5853 Y1.1417
G01 X11.5500 Y1.1400
G01 X11.5147 Y1.1417
G01 X11.4798 Y1.1469
G01 X11.4455 Y1.1555
G01 X11.4122 Y1.1674
G01 X11.3803 Y1.1825
G01 X11.3500 Y1.2007
G01 X11.3216 Y1.2217
G01 X11.2954 Y1.2454
G01 X11.2717 Y1.2716
G01 X11.2507 Y1.3000
G01 X11.2325 Y1.3303
G01 X11.2174 Y1.3622
G01 X11.2055 Y1.3955
G01 X11.1969 Y1.4298
G01 X11.1917 Y1.4647
G01 X11.1900 Y1.5000
G01 X11.1917 Y1.5353
G01 X11.1969 Y1.5702
G01 X11.2055 Y1.6045
G01 X11.2174 Y1.6378
G01 X11.2325 Y1.6697
G01 X11.2507 Y1.7000
G01 X11.2717 Y1.7284
G01 X11.2954 Y1.7546
G01 X11.3216 Y1.7783
G01 X11.3500 Y1.7993
G01 X11.3803 Y1.8175
G01 X11.4122 Y1.8326
G01 X11.4455 Y1.8445
G01 X11.4798 Y1.8531
G01 X11.5147 Y1.8583
G01 X11.5500 Y1.8600
G01 X11.5853 Y1.8583
G01 X11.6202 Y1.8531
G01 X11.6545 Y1.8445
G01 X11.6878 Y1.8326
G01 X11.7197 Y1.8175
G01 X11.7500 Y1.7993
G01 X11.7784 Y1.7783
G01 X11.8046 Y1.7546
G01 X11.8283 Y1.7284
G01 X11.8493 Y1.7000
G01 X11.8675 Y1.6697
G01 X11.8826 Y1.6378
G01 X11.8945 Y1.6045
G01 X11.9031 Y1.5702
G01 X11.9083 Y1.5353
G01 X11.9100 Y1.5000
G01 X11.8300 Y1.5000
G01 X11.8287 Y1.4726
G01 X11.8246 Y1.4454
G01 X11.8179 Y1.4187
G01 X11.8087 Y1.3928
G01 X11.7969 Y1.3680
G01 X11.7828 Y1.3444
G01 X11.7664 Y1.3224
G01 X11.7480 Y1.3020
G01 X11.7276 Y1.2836
G01 X11.7056 Y1.2672
G01 X11.6820 Y1.2531
G01 X11.6572 Y1.2413
G01 X11.6313 Y1.2321
G01 X11.6046 Y1.2254
G01 X11.5774 Y1.2213
G01 X11.5500 Y1.2200
G01 X11.5226 Y1.2213
G01 X11.4954 Y1.2254
G01 X11.4687 Y1.2321
G01 X11.4428 Y1.2413
G01 X11.4180 Y1.2531
G01 X11.3944 Y1.2672
G01 X11.3724 Y1.2836
G01 X11.3520 Y1.3020
G01 X11.3336 Y1.3224
G01 X11.3172 Y1.3444
G01 X11.3031 Y1.3680
G01 X11.2913 Y1.3928
G01 X11.2821 Y1.4187
G01 X11.2754 Y1.4454
G01 X11.2713 Y1.4726
G01 X11.2700 Y1.5000
G01 X11.2713 Y1.5274
G01 X11.2754 Y1.5546
G01 X11.2821 Y1.5813
G01 X11.2913 Y1.6072
G01 X11.3031 Y1.6320
G01 X11.3172 Y1.6556
G01 X11.3336 Y1.6776
G01 X11.3520 Y1.6980
G01 X11.3724 Y1.7164
G01 X11.3944 Y1.7328
G01 X11.4180 Y1.7469
G01 X11.4428 Y1.7587
G01 X11.4687 Y1.7679
G01 X11.4954 Y1.7746
G01 X11.5226 Y1.7787
G01 X11.5500 Y1.7800
G01 X11.5774 Y1.7787
G01 X11.6046 Y1.7746
G01 X11.6313 Y1.7679
G01 X11.6572 Y1.7587
G01 X11.6820 Y1.7469
G01 X11.7056 Y1.7328
G01 X11.7276 Y1.7164
G01 X11.7480 Y1.6980
G01 X11.7664 Y1.6776
G01 X11.7828 Y1.6556
G01 X11.7969 Y1.6320
G01 X11.8087 Y1.6072
G01 X11.8179 Y1.5813
G01 X11.8246 Y1.5546
G01 X11.8287 Y1.5274
G01 X11.8300 Y1.5000
G01 X11.7500 Y1.5000
G01 X11.7490 Y1.4804
G01 X11.7462 Y1.4610
G01 X11.7414 Y1.4419
G01 X11.7348 Y1.4235
G01 X11.7264 Y1.4057
G01 X11.7163 Y1.3889
G01 X11.7046 Y1.3731
G01 X11.6914 Y1.3586
G01 X11.6769 Y1.3454
G01 X11.6611 Y1.3337
G01 X11.6443 Y1.3236
G01 X11.6265 Y1.3152
G01 X11.6081 Y1.3086
G01 X11.5890 Y1.3038
G01 X11.5696 Y1.3010
G01 X11.5500 Y1.3000
G01 X11.5304 Y1.3010
G01 X11.5110 Y1.3038
G01 X11.4919 Y1.3086
G01 X11.4735 Y1.3152
G01 X11.4557 Y1.3236
G01 X11.4389 Y1.3337
G01 X11.4231 Y1.3454
G01 X11.4086 Y1.3586
G01 X11.3954 Y1.3731
G01 X11.3837 Y1.3889
G01 X11.3736 Y1.4057
G01 X11.3652 Y1.4235
G01 X11.3586 Y1.4419
G01 X11.3538 Y1.4610
G01 X11.3510 Y1.4804
G01 X11.3500 Y1.5000
G01 X11.3510 Y1.5196
G01 X11.3538 Y1.5390
G01 X11.3586 Y1.5581
G01 X11.3652 Y1.5765
G01 X11.3736 Y1.5943
G01 X11.3837 Y1.6111
G01 X11.3954 Y1.6269
G01 X11.4086 Y1.6414
G01 X11.4231 Y1.6546
G01 X11.4389 Y1.6663
G01 X11.4557 Y1.6764
G01 X11.4735 Y1.6848
G01 X11.4919 Y1.6914
G01 X11.5110 Y1.6962
G01 X11.5304 Y1.6990
G01 X11.5500 Y1.7000
G01 X11.5696 Y1.6990
G01 X11.5890 Y1.6962
G01 X11.6081 Y1.6914
G01 X11.6265 Y1.6848
G01 X11.6443 Y1.6764
G01 X11.6611 Y1.6663
G01 X11.6769 Y1.6546
G01 X11.6914 Y1.6414
G01 X11.7046 Y1.6269
G01 X11.7163 Y1.6111
G01 X11.7264 Y1.5943
G01 X11.7348 Y1.5765
G01 X11.7414 Y1.5581
G01 X11.7462 Y1.5390
G01 X11.7490 Y1.5196
G01 X11.7500 Y1.5000
G01 X11.6700 Y1.5000
G01 X11.6694 Y1.4882
G01 X11.6677 Y1.4766
G01 X11.6648 Y1.4652
G01 X11.6609 Y1.4541
G01 X11.6558 Y1.4434
G01 X11.6498 Y1.4333
G01 X11.6428 Y1.4239
G01 X11.6349 Y1.4151
G01 X11.6261 Y1.4072
G01 X11.6167 Y1.4002
G01 X11.6066 Y1.3942
G01 X11.5959 Y1.3891
G01 X11.5848 Y1.3852
G01 X11.5734 Y1.3823
G01 X11.5618 Y1.3806
G01 X11.5500 Y1.3800
G01 X11.5382 Y1.3806
G01 X11.5266 Y1.3823
G01 X11.5152 Y1.3852
G01 X11.5041 Y1.3891
G01 X11.4934 Y1.3942
G01 X11.4833 Y1.4002
G01 X11.4739 Y1.4072
G01 X11.4651 Y1.4151
G01 X11.4572 Y1.4239
G01 X11.4502 Y1.4333
G01 X11.4442 Y1.4434
G01 X11.4391 Y1.4541
G01 X11.4352 Y1.4652
G01 X11.4323 Y1.4766
G01 X11.4306 Y1.4882
G01 X11.4300 Y1.5000
G01 X11.4306 Y1.5118
G01 X11.4323 Y1.5234
G01 X11.4352 Y1.5348
G01 X11.4391 Y1.5459
G01 X11.4442 Y1.5566
G01 X11.4502 Y1.5667
G01 X11.4572 Y1.5761
G01 X11.4651 Y1.5849
G01 X11.4739 Y1.5928
G01 X11.4833 Y1.5998
G01 X11.4934 Y1.6058
G01 X11.5041 Y1.6109
G01 X11.5152 Y1.6148
G01 X11.5266 Y1.6177
G01 X11.5382 Y1.6194
G01 X11.5500 Y1.6200
G01 X11.5618 Y1.6194
G01 X11.5734 Y1.6177
G01 X11.5848 Y1.6148
G01 X11.5959 Y1.6109
G01 X11.6066 Y1.6058
G01 X11.6167 Y1.5998
G01 X11.6261 Y1.5928
G01 X11.6349 Y1.5849
G01 X11.6428 Y1.5761
G01 X11.6498 Y1.5667
G01 X11.6558 Y1.5566
G01 X11.6609 Y1.5459
G01 X11.6648 Y1.5348
G01 X11.6677 Y1.5234
G01 X11.6694 Y1.5118
G01 X11.6700 Y1.5000
G01 X11.5900 Y1.5000
G01 X11.5898 Y1.4961
G01 X11.5883 Y1.4884
G01 X11.5853 Y1.4811
G01 X11.5809 Y1.4746
G01 X11.5754 Y1.4691
G01 X11.5689 Y1.4647
G01 X11.5616 Y1.4617
G01 X11.5539 Y1.4602
G01 X11.5461 Y1.4602
G01 X11.5384 Y1.4617
G01 X11.5311 Y1.4647
G01 X11.5278 Y1.4667
G01 X11.5246 Y1.4691
G01 X11.5191 Y1.4746
G01 X11.5147 Y1.4811
G01 X11.5117 Y1.4884
G01 X11.5102 Y1.4961
G01 X11.5102 Y1.5039
G01 X11.5117 Y1.5116
G01 X11.5147 Y1.5189
G01 X11.5191 Y1.5254
G01 X11.5246 Y1.5309
G01 X11.5311 Y1.5353
G01 X11.5347 Y1.5370
G01 X11.5384 Y1.5383
G01 X11.5461 Y1.5398
G01 X11.5539 Y1.5398
G01 X11.5616 Y1.5383
G01 X11.5689 Y1.5353
G01 X11.5722 Y1.5333
G01 X11.5754 Y1.5309
G01 X11.5809 Y1.5254
G01 X11.5853 Y1.5189
G01 X11.5883 Y1.5116
G01 X11.5898 Y1.5039
G01 X11.5900 Y1.5000
G01 X12.2000 Y1.6994
G01 X12.1782 Y1.7602
G01 X12.1497 Y1.8205
G01 X12.1154 Y1.8778
G01 X12.0756 Y1.9314
G01 X12.0308 Y1.9808
G01 X11.9814 Y2.0256
G01 X11.9278 Y2.0654
G01 X11.8705 Y2.0997
G01 X11.8102 Y2.1282
G01 X11.7474 Y2.1507
G01 X11.6827 Y2.1669
G01 X11.6167 Y2.1767
G01 X11.5500 Y2.1800
G01 X11.4833 Y2.1767
G01 X11.4173 Y2.1669
G01 X11.3526 Y2.1507
G01 X11.2898 Y2.1282
G01 X11.2295 Y2.0997
G01 X11.1722 Y2.0654
G01 X11.1186 Y2.0256
G01 X11.0692 Y1.9808
G01 X11.0244 Y1.9314
G01 X10.9846 Y1.8778
G01 X10.9503 Y1.8205
G01 X10.9218 Y1.7602
G01 X10.9000 Y1.6994
G00 Z2.0000
G00 X10.9000 Y1.8921
G01 F60.00
G01 Z-0.0100
G01 F50.00
G01 X10.9181 Y1.9222
G01 X10.9625 Y1.9821
G01 X11.0126 Y2.0374
G01 X11.0679 Y2.0875
G01 X11.1278 Y2.1319
G01 X11.1917 Y2.1703
G01 X11.2592 Y2.2021
G01 X11.3294 Y2.2273
G01 X11.4017 Y2.2454
G01 X11.4755 Y2.2563
G01 X11.5500 Y2.2600
G01 X11.6245 Y2.2563
G01 X11.6983 Y2.2454
G01 X11.7706 Y2.2273
G01 X11.8408 Y2.2021
G01 X11.9083 Y2.1703
G01 X11.9722 Y2.1319
G01 X12.0321 Y2.0875
G01 X12.0874 Y2.0374
G01 X12.1375 Y1.9821
G01 X12.1819 Y1.9222
G01 X12.2000 Y1.8921
G00 Z2.0000
G00 X12.2000 Y2.0320
G01 F60.00
G01 Z-0.0100
G01 F50.00
G01 X12.1440 Y2.0940
G01 X12.0829 Y2.1493
G01 X12.0167 Y2.1984
G01 X11.9460 Y2.2408
G01 X11.8715 Y2.2761
G01 X11.7938 Y2.3038
G01 X11.7139 Y2.3239
G01 X11.6323 Y2.3360
G01 X11.5500 Y2.3400
G01 X11.4677 Y2.3360
G01 X11.3861 Y2.3239
G01 X11.3062 Y2.3038
G01 X11.2285 Y2.2761
G01 X11.1540 Y2.2408
G01 X11.0833 Y2.1984
G01 X11.0171 Y2.1493
G01 X10.9560 Y2.0940
G01 X10.9000 Y2.0320
G01 X10.9017 Y2.1525
G01 X10.9664 Y2.2112
G01 X11.0389 Y2.2650
G01 X11.1163 Y2.3114
G01 X11.1979 Y2.3500
G01 X11.2679 Y2.3750
G00 Z2.0000
G00 X11.8321 Y2.3750
G01 F60.00
G01 Z-0.0100
G01 F50.00
G01 X11.9021 Y2.3500
G01 X11.9837 Y2.3114
G01 X12.0611 Y2.2650
G01 X12.1336 Y2.2112
G01 X12.1983 Y2.1525
G00 Z2.0000
G00 X14.0012 Y2.1201
G01 F60.00
G01 Z-0.0100
G01 F50.00
G01 X13.9204 Y2.1240
G01 X13.8451 Y2.1352
G01 X13.7690 Y2.1541
G01 X13.6927 Y2.1814
G01 X13.6218 Y2.2151
G01 X13.5566 Y2.2542
G01 X13.4916 Y2.3024
G01 X13.4352 Y2.3535
G01 X13.3824 Y2.4116
G01 X13.3342 Y2.4766
G01 X13.2939 Y2.5440
G01 X13.2614 Y2.6127
G01 X13.2341 Y2.6890
G01 X13.2157 Y2.7627
G01 X13.2040 Y2.8404
G01 X13.2001 Y2.9212
G01 X13.2040 Y2.9996
G01 X13.2152 Y3.0749
G01 X13.2349 Y3.1534
G01 X13.2614 Y3.2273
G01 X13.2939 Y3.2960
G01 X13.3356 Y3.3654
G01 X13.3824 Y3.4284
G01 X13.4335 Y3.4848
G01 X13.4935 Y3.5391
G01 X13.5566 Y3.5858
G01 X13.6218 Y3.6249
G01 X13.6950 Y3.6595
G01 X13.7690 Y3.6859
G01 X13.8451 Y3.7048
G01 X13.9204 Y3.7160
G01 X13.9988 Y3.7199
G01 X14.0796 Y3.7160
G01 X14.1549 Y3.7048
G01 X14.2310 Y3.6859
G01 X14.3073 Y3.6586
G01 X14.3782 Y3.6249
G01 X14.4434 Y3.5858
G01 X14.5084 Y3.5376
G01 X14.5665 Y3.4848
G01 X14.6176 Y3.4284
G01 X14.6644 Y3.3654
G01 X14.7061 Y3.2960
G01 X14.7395 Y3.2250
G01 X14.7651 Y3.1534
G01 X14.7843 Y3.0773
G01 X14.7960 Y2.9996
G01 X14.7999 Y2.9212
G01 X14.7960 Y2.8404
G01 X14.7843 Y2.7627
G01 X14.7651 Y2.6866
G01 X14.7395 Y2.6150
G01 X14.7061 Y2.5440
G01 X14.6658 Y2.4766
G01 X14.6191 Y2.4135
G01 X14.5665 Y2.3552
G01 X14.5084 Y2.3024
G01 X14.4434 Y2.2542
G01 X14.3760 Y2.2139
G01 X14.3050 Y2.1805
G01 X14.2334 Y2.1549
G01 X14.1573 Y2.1357
G01 X14.0796 Y2.1240
G01 X14.0012 Y2.1201
G01 X14.0400 Y2.9200
G01 X14.0398 Y2.9161
G01 X14.0383 Y2.9084
G01 X14.0353 Y2.9011
G01 X14.0309 Y2.8946
G01 X14.0254 Y2.8891
G01 X14.0189 Y2.8847
G01 X14.0116 Y2.8817
G01 X14.0039 Y2.8802
G01 X13.9961 Y2.8802
G01 X13.9884 Y2.8817
G01 X13.9811 Y2.8847
G01 X13.9746 Y2.8891
G01 X13.9691 Y2.8946
G01 X13.9647 Y2.9011
G01 X13.9617 Y2.9084
G01 X13.9602 Y2.9161
G01 X13.9602 Y2.9239
G01 X13.9608 Y2.9278
G01 X13.9617 Y2.9316
G01 X13.9647 Y2.9389
G01 X13.9691 Y2.9454
G01 X13.9746 Y2.9509
G01 X13.9811 Y2.9553
G01 X13.9884 Y2.9583
G01 X13.9922 Y2.9592
G01 X14.0000 Y2.9600
G01 X14.0078 Y2.9592
G01 X14.0153 Y2.9570
G01 X14.0222 Y2.9533
G01 X14.0283 Y2.9483
G01 X14.0333 Y2.9422
G01 X14.0370 Y2.9353
G01 X14.0392 Y2.9278
G01 X14.0400 Y2.9200
G01 X14.1200 Y2.9200
G01 X14.1194 Y2.9082
G01 X14.1177 Y2.8966
G01 X14.1148 Y2.8852
G01 X14.1109 Y2.8741
G01 X14.1058 Y2.8634
G01 X14.0998 Y2.8533
G01 X14.0928 Y2.8439
G01 X14.0849 Y2.8351
G01 X14.0761 Y2.8272
G01 X14.0667 Y2.8202
G01 X14.0566 Y2.8142
G01 X14.0459 Y2.8091
G01 X14.0348 Y2.8052
G01 X14.0234 Y2.8023
G01 X14.0118 Y2.8006
G01 X14.0000 Y2.8000
G01 X13.9882 Y2.8006
G01 X13.9766 Y2.8023
G01 X13.9652 Y2.8052
G01 X13.9541 Y2.8091
G01 X13.9434 Y2.8142
G01 X13.9333 Y2.8202
G01 X13.9239 Y2.8272
G01 X13.9151 Y2.8351
G01 X13.9072 Y2.8439
G01 X13.9002 Y2.8533
G01 X13.8942 Y2.8634
G01 X13.8891 Y2.8741
G01 X13.8852 Y2.8852
G01 X13.8823 Y2.8966
G01 X13.8806 Y2.9082
G01 X13.8800 Y2.9200
G01 X13.8806 Y2.9318
G01 X13.8823 Y2.9434
G01 X13.8852 Y2.9548
G01 X13.8891 Y2.9659
G01 X13.8942 Y2.9766
G01 X13.9002 Y2.9867
G01 X13.9072 Y2.9961
G01 X13.9151 Y3.0049
G01 X13.9239 Y3.0128
G01 X13.9333 Y3.0198
G01 X13.9434 Y3.0258
G01 X13.9541 Y3.0309
G01 X13.9652 Y3.0348
G01 X13.9766 Y3.0377
G01 X13.9882 Y3.0394
G01 X14.0000 Y3.0400
G01 X14.0118 Y3.0394
G01 X14.0234 Y3.0377
G01 X14.0348 Y3.0348
G01 X14.0459 Y3.0309
G01 X14.0566 Y3.0258
G01 X14.0667 Y3.0198
G01 X14.0761 Y3.0128
G01 X14.0849 Y3.0049
G01 X14.0928 Y2.9961
G01 X14.0998 Y2.9867
G01 X14.1058 Y2.9766
G01 X14.1109 Y2.9659
G01 X14.1148 Y2.9548
G01 X14.1177 Y2.9434
G01 X14.1194 Y2.9318
G01 X14.1200 Y2.9200
G01 X14.2000 Y2.9200
G01 X14.1990 Y2.9004
G01 X14.1962 Y2.8810
G01 X14.1914 Y2.8619
G01 X14.1848 Y2.8435
G01 X14.1764 Y2.8257
G01 X14.1663 Y2.8089
G01 X14.1546 Y2.7931
G01 X14.1414 Y2.7786
G01 X14.1269 Y2.7654
G01 X14.1111 Y2.7537
G01 X14.0943 Y2.7436
G01 X14.0765 Y2.7352
G01 X14.0581 Y2.7286
G01 X14.0390 Y2.7238
G01 X14.0196 Y2.7210
G01 X14.0000 Y2.7200
G01 X13.9804 Y2.7210
G01 X13.9610 Y2.7238
G01 X13.9419 Y2.7286
G01 X13.9235 Y2.7352
G01 X13.9057 Y2.7436
G01 X13.8889 Y2.7537
G01 X13.8731 Y2.7654
G01 X13.8586 Y2.7786
G01 X13.8454 Y2.7931
G01 X13.8337 Y2.8089
G01 X13.8236 Y2.8257
G01 X13.8152 Y2.8435
G01 X13.8086 Y2.8619
G01 X13.8038 Y2.8810
G01 X13.8010 Y2.9004
G01 X13.8000 Y2.9200
G01 X13.8010 Y2.9396
G01 X13.8038 Y2.9590
G01 X13.8086 Y2.9781
G01 X13.8152 Y2.9965
G01 X13.8236 Y3.0143
G01 X13.8337 Y3.0311
G01 X13.8454 Y3.0469
G01 X13.8586 Y3.0614
G01 X13.8731 Y3.0746
G01 X13.8889 Y3.0863
G01 X13.9057 Y3.0964
G01 X13.9235 Y3.1048
G01 X13.9419 Y3.1114
G01 X13.9610 Y3.1162
G01 X13.9804 Y3.1190
G01 X14.0000 Y3.1200
G01 X14.0196 Y3.1190
G01 X14.0390 Y3.1162
G01 X14.0581 Y3.1114
G01 X14.0765 Y3.1048
G01 X14.0943 Y3.0964
G01 X14.1111 Y3.0863
G01 X14.1269 Y3.0746
G01 X14.1414 Y3.0614
G01 X14.1546 Y3.0469
G01 X14.1663 Y3.0311
G01 X14.1764 Y3.0143
G01 X14.1848 Y2.9965
G01 X14.1914 Y2.9781
G01 X14.1962 Y2.9590
G01 X14.1990 Y2.9396
G01 X14.2000 Y2.9200
G01 X14.2800 Y2.9200
G01 X14.2787 Y2.8926
G01 X14.2746 Y2.8654
G01 X14.2679 Y2.8387
G01 X14.2587 Y2.8128
G01 X14.2469 Y2.7880
G01 X14.2328 Y2.7644
G01 X14.2164 Y2.7424
G01 X14.1980 Y2.7220
G01 X14.1776 Y2.7036
G01 X14.1556 Y2.6872
G01 X14.1320 Y2.6731
G01 X14.1072 Y2.6613
G01 X14.0813 Y2.6521
G01 X14.0546 Y2.6454
G01 X14.0274 Y2.6413
G01 X14.0000 Y2.6400
G01 X13.9726 Y2.6413
G01 X13.9454 Y2.6454
G01 X13.9187 Y2.6521
G01 X13.8928 Y2.6613
G01 X13.8680 Y2.6731
G01 X13.8444 Y2.6872
G01 X13.8224 Y2.7036
G01 X13.8020 Y2.7220
G01 X13.7836 Y2.7424
G01 X13.7672 Y2.7644
G01 X13.7531 Y2.7880
G01 X13.7413 Y2.8128
G01 X13.7321 Y2.8387
G01 X13.7254 Y2.8654
G01 X13.7213 Y2.8926
G01 X13.7200 Y2.9200
G01 X13.7213 Y2.9474
G01 X13.7254 Y2.9746
G01 X13.7321 Y3.0013
G01 X13.7413 Y3.0272
G01 X13.7531 Y3.0520
G01 X13.7672 Y3.0756
G01 X13.7836 Y3.0976
G01 X13.8020 Y3.1180
G01 X13.8224 Y3.1364
G01 X13.8444 Y3.1528
G01 X13.8680 Y3.1669
G01 X13.8928 Y3.1787
G01 X13.9187 Y3.1879
G01 X13.9454 Y3.1946
G01 X13.9726 Y3.1987
G01 X14.0000 Y3.2000
G01 X14.0274 Y3.1987
G01 X14.0546 Y3.1946
G01 X14.0813 Y3.1879
G01 X14.1072 Y3.1787
G01 X14.1320 Y3.1669
G01 X14.1556 Y3.1528
G01 X14.1776 Y3.1364
G01 X14.1980 Y3.1180
G01 X14.2164 Y3.0976
G01 X14.2328 Y3.0756
G01 X14.2469 Y3.0520
G01 X14.2587 Y3.0272
G01 X14.2679 Y3.0013
G01 X14.2746 Y2.9746
G01 X14.2787 Y2.9474
G01 X14.2800 Y2.9200
G01 X14.3600 Y2.9200
G01 X14.3583 Y2.8847
G01 X14.3531 Y2.8498
G01 X14.3445 Y2.8155
G01 X14.3326 Y2.7822
G01 X14.3175 Y2.7503
G01 X14.2993 Y2.7200
G01 X14.2783 Y2.6916
G01 X14.2546 Y2.6654
G01 X14.2284 Y2.6417
G01 X14.2000 Y2.6207
G01 X14.1697 Y2.6025
G01 X14.1378 Y2.5874
G01 X14.1045 Y2.5755
G01 X14.0702 Y2.5669
G01 X14.0353 Y2.5617
G01 X14.0000 Y2.5600
G01 X13.9647 Y2.5617
G01 X13.9298 Y2.5669
G01 X13.8955 Y2.5755
G01 X13.8622 Y2.5874
G01 X13.8303 Y2.6025
G01 X13.8000 Y2.6207
G01 X13.7716 Y2.6417
G01 X13.7454 Y2.6654
G01 X13.7217 Y2.6916
G01 X13.7007 Y2.7200
G01 X13.6825 Y2.7503
G01 X13.6674 Y2.7822
G01 X13.6555 Y2.8155
G01 X13.6469 Y2.8498
G01 X13.6417 Y2.8847
G01 X13.6400 Y2.9200
G01 X13.6417 Y2.9553
G01 X13.6469 Y2.9902
G01 X13.6555 Y3.0245
G01 X13.6674 Y3.0578
G01 X13.6825 Y3.0897
G01 X13.7007 Y3.1200
G01 X13.7217 Y3.1484
G01 X13.7454 Y3.1746
G01 X13.7716 Y3.1983
G01 X13.8000 Y3.2193
G01 X13.8303 Y3.2375
G01 X13.8622 Y3.2526
G01 X13.8955 Y3.2645
G01 X13.9298 Y3.2731
G01 X13.9647 Y3.2783
G01 X14.0000 Y3.2800
G01 X14.0353 Y3.2783
G01 X14.0702 Y3.2731
G01 X14.1045 Y3.2645
G01 X14.1378 Y3.2526
G01 X14.1697 Y3.2375
G01 X14.2000 Y3.2193
G01 X14.2284 Y3.1983
G01 X14.2546 Y3.1746
G01 X14.2783 Y3.1484
G01 X14.2993 Y3.1200
G01 X14.3175 Y3.0897
G01 X14.3326 Y3.0578
G01 X14.3445 Y3.0245
G01 X14.3531 Y2.9902
G01 X14.3583 Y2.9553
G01 X14.3600 Y2.9200
G01 X14.4400 Y2.9200
G01 X14.4379 Y2.8769
G01 X14.4315 Y2.8342
G01 X14.4211 Y2.7923
G01 X14.4065 Y2.7516
G01 X14.3880 Y2.7126
G01 X14.3658 Y2.6755
G01 X14.3401 Y2.6409
G01 X14.3111 Y2.6089
G01 X14.2791 Y2.5799
G01 X14.2445 Y2.5542
G01 X14.2074 Y2.5320
G01 X14.1684 Y2.5135
G01 X14.1277 Y2.4989
G01 X14.0858 Y2.4885
G01 X14.0431 Y2.4821
G01 X14.0000 Y2.4800
G01 X13.9569 Y2.4821
G01 X13.9142 Y2.4885
G01 X13.8723 Y2.4989
G01 X13.8316 Y2.5135
G01 X13.7926 Y2.5320
G01 X13.7555 Y2.5542
G01 X13.7209 Y2.5799
G01 X13.6889 Y2.6089
G01 X13.6599 Y2.6409
G01 X13.6342 Y2.6755
G01 X13.6120 Y2.7126
G01 X13.5935 Y2.7516
G01 X13.5789 Y2.7923
G01 X13.5685 Y2.8342
G01 X13.5621 Y2.8769
G01 X13.5600 Y2.9200
G01 X13.5621 Y2.9631
G01 X13.5685 Y3.0058
G01 X13.5789 Y3.0477
G01 X13.5935 Y3.0884
G01 X13.6120 Y3.1274
G01 X13.6342 Y3.1645
G01 X13.6599 Y3.1991
G01 X13.6889 Y3.2311
G01 X13.7209 Y3.2601
G01 X13.7555 Y3.2858
G01 X13.7926 Y3.3080
G01 X13.8316 Y3.3265
G01 X13.8723 Y3.3411
G01 X13.9142 Y3.3515
G01 X13.9569 Y3.3579
G01 X14.0000 Y3.3600
G01 X14.0431 Y3.3579
G01 X14.0858 Y3.3515
G01 X14.1277 Y3.3411
G01 X14.1684 Y3.3265
G01 X14.2074 Y3.3080
G01 X14.2445 Y3.2858
G01 X14.2791 Y3.2601
G01 X14.3111 Y3.2311
G01 X14.3401 Y3.1991
G01 X14.3658 Y3.1645
G01 X14.3880 Y3.1274
G01 X14.4065 Y3.0884
G01 X14.4211 Y3.0477
G01 X14.4315 Y3.0058
G01 X14.4379 Y2.9631
G01 X14.4400 Y2.9200
G01 X14.5200 Y2.9200
G01 X14.5175 Y2.8690
G01 X14.5100 Y2.8186
G01 X14.4976 Y2.7691
G01 X14.4804 Y2.7210
G01 X14.4586 Y2.6749
G01 X14.4324 Y2.6311
G01 X14.4020 Y2.5901
G01 X14.3677 Y2.5523
G01 X14.3299 Y2.5180
G01 X14.2889 Y2.4876
G01 X14.2451 Y2.4614
G01 X14.1990 Y2.4396
G01 X14.1509 Y2.4224
G01 X14.1014 Y2.4100
G01 X14.0510 Y2.4025
G01 X14.0000 Y2.4000
G01 X13.9490 Y2.4025
G01 X13.8986 Y2.4100
G01 X13.8491 Y2.4224
G01 X13.8010 Y2.4396
G01 X13.7549 Y2.4614
G01 X13.7111 Y2.4876
G01 X13.6701 Y2.5180
G01 X13.6323 Y2.5523
G01 X13.5980 Y2.5901
G01 X13.5676 Y2.6311
G01 X13.5414 Y2.6749
G01 X13.5196 Y2.7210
G01 X13.5024 Y2.7691
G01 X13.4900 Y2.8186
G01 X13.4825 Y2.8690
G01 X13.4800 Y2.9200
G01 X13.4825 Y2.9710
G01 X13.4900 Y3.0214
G01 X13.5024 Y3.0709
G01 X13.5196 Y3.1190
G01 X13.5414 Y3.1651
G01 X13.5676 Y3.2089
G01 X13.5980 Y3.2499
G01 X13.6323 Y3.2877
G01 X13.6701 Y3.3220
G01 X13.7111 Y3.3524
G01 X13.7549 Y3.3786
G01 X13.8010 Y3.4004
G01 X13.8491 Y3.4176
G01 X13.8986 Y3.4300
G01 X13.9490 Y3.4375
G01 X14.0000 Y3.4400
G01 X14.0510 Y3.4375
G01 X14.1014 Y3.4300
G01 X14.1509 Y3.4176
G01 X14.1990 Y3.4004
G01 X14.2451 Y3.3786
G01 X14.2889 Y3.3524
G01 X14.3299 Y3.3220
G01 X14.3677 Y3.2877
G01 X14.4020 Y3.2499
G01 X14.4324 Y3.2089
G01 X14.4586 Y3.1651
G01 X14.4804 Y3.1190
G01 X14.4976 Y3.0709
G01 X14.5100 Y3.0214
G01 X14.5175 Y2.9710
G01 X14.5200 Y2.9200
G01 X14.6000 Y2.9200
G01 X14.5971 Y2.8612
G01 X14.5885 Y2.8029
G01 X14.5742 Y2.7458
G01 X14.5543 Y2.6904
G01 X14.5292 Y2.6372
G01 X14.4989 Y2.5867
G01 X14.4638 Y2.5394
G01 X14.4243 Y2.4957
G01 X14.3806 Y2.4562
G01 X14.3333 Y2.4211
G01 X14.2828 Y2.3908
G01 X14.2296 Y2.3657
G01 X14.1742 Y2.3458
G01 X14.1171 Y2.3315
G01 X14.0588 Y2.3229
G01 X14.0000 Y2.3200
G01 X13.9412 Y2.3229
G01 X13.8829 Y2.3315
G01 X13.8258 Y2.3458
G01 X13.7704 Y2.3657
G01 X13.7172 Y2.3908
G01 X13.6667 Y2.4211
G01 X13.6194 Y2.4562
G01 X13.5757 Y2.4957
G01 X13.5362 Y2.5394
G01 X13.5011 Y2.5867
G01 X13.4708 Y2.6372
G01 X13.4457 Y2.6904
G01 X13.4258 Y2.7458
G01 X13.4115 Y2.8029
G01 X13.4029 Y2.8612
G01 X13.4000 Y2.9200
G01 X13.4029 Y2.9788
G01 X13.4115 Y3.0371
G01 X13.4258 Y3.0942
G01 X13.4457 Y3.1496
G01 X13.4708 Y3.2028
G01 X13.5011 Y3.2533
G01 X13.5362 Y3.3006
G01 X13.5757 Y3.3443
G01 X13.6194 Y3.3838
G01 X13.6667 Y3.4189
G01 X13.7172 Y3.4492
G01 X13.7704 Y3.4743
G01 X13.8258 Y3.4942
G01 X13.8829 Y3.5085
G01 X13.9412 Y3.5171
G01 X14.0000 Y3.5200
G01 X14.0588 Y3.5171
G01 X14.1171 Y3.5085
G01 X14.1742 Y3.4942
G01 X14.2296 Y3.4743
G01 X14.2828 Y3.4492
G01 X14.3333 Y3.4189
G01 X14.3806 Y3.3838
G01 X14.4243 Y3.3443
G01 X14.4638 Y3.3006
G01 X14.4989 Y3.2533
G01 X14.5292 Y3.2028
G01 X14.5543 Y3.1496
G01 X14.5742 Y3.0942
G01 X14.5885 Y3.0371
G01 X14.5971 Y2.9788
G01 X14.6000 Y2.9200
G01 X14.6800 Y2.9200
G01 X14.6767 Y2.8533
G01 X14.6669 Y2.7873
G01 X14.6507 Y2.7226
G01 X14.6282 Y2.6598
G01 X14.5997 Y2.5995
G01 X14.5654 Y2.5422
G01 X14.5256 Y2.4886
G01 X14.4808 Y2.4392
G01 X14.4314 Y2.3944
G01 X14.3778 Y2.3546
G01 X14.3205 Y2.3203
G01 X14.2602 Y2.2918
G01 X14.1974 Y2.2693
G01 X14.1327 Y2.2531
G01 X14.0667 Y2.2433
G01 X14.0000 Y2.2400
G01 X13.9333 Y2.2433
G01 X13.8673 Y2.2531
G01 X13.8026 Y2.2693
G01 X13.7398 Y2.2918
G01 X13.6795 Y2.3203
G01 X13.6222 Y2.3546
G01 X13.5686 Y2.3944
G01 X13.5192 Y2.4392
G01 X13.4744 Y2.4886
G01 X13.4346 Y2.5422
G01 X13.4003 Y2.5995
G01 X13.3718 Y2.6598
G01 X13.3493 Y2.7226
G01 X13.3331 Y2.7873
G01 X13.3233 Y2.8533
G01 X13.3200 Y2.9200
G01 X13.3233 Y2.9867
G01 X13.3331 Y3.0527
G01 X13.3493 Y3.1174
G01 X13.3718 Y3.1802
G01 X13.4003 Y3.2405
G01 X13.4346 Y3.2978
G01 X13.4744 Y3.3514
G01 X13.5192 Y3.4008
G01 X13.5686 Y3.4456
G01 X13.6222 Y3.4854
G01 X13.6795 Y3.5197
G01 X13.7398 Y3.5482
G01 X13.8026 Y3.5707
G01 X13.8673 Y3.5869
G01 X13.9333 Y3.5967
G01 X14.0000 Y3.6000
G01 X14.0667 Y3.5967
G01 X14.1327 Y3.5869
G01 X14.1974 Y3.5707
G01 X14.2602 Y3.5482
G01 X14.3205 Y3.5197
G01 X14.3778 Y3.4854
G01 X14.4314 Y3.4456
G01 X14.4808 Y3.4008
G01 X14.5256 Y3.3514
G01 X14.5654 Y3.2978
G01 X14.5997 Y3.2405
G01 X14.6282 Y3.1802
G01 X14.6507 Y3.1174
G01 X14.6669 Y3.0527
G01 X14.6767 Y2.9867
G01 X14.6800 Y2.9200
G01 X14.7600 Y2.9200
G01 X14.7563 Y2.8455
G01 X14.7454 Y2.7717
G01 X14.7273 Y2.6994
G01 X14.7021 Y2.6292
G01 X14.6703 Y2.5617
G01 X14.6319 Y2.4978
G01 X14.5875 Y2.4379
G01 X14.5374 Y2.3826
G01 X14.4821 Y2.3325
G01 X14.4222 Y2.2881
G01 X14.3583 Y2.2497
G01 X14.2908 Y2.2179
G01 X14.2206 Y2.1927
G01 X14.1483 Y2.1746
G01 X14.0745 Y2.1637
G01 X14.0000 Y2.1600
G01 X13.9255 Y2.1637
G01 X13.8517 Y2.1746
G01 X13.7794 Y2.1927
G01 X13.7092 Y2.2179
G01 X13.6417 Y2.2497
G01 X13.5778 Y2.2881
G01 X13.5179 Y2.3325
G01 X13.4626 Y2.3826
G01 X13.4125 Y2.4379
G01 X13.3681 Y2.4978
G01 X13.3297 Y2.5617
G01 X13.2979 Y2.6292
G01 X13.2727 Y2.6994
G01 X13.2546 Y2.7717
G01 X13.2437 Y2.8455
G01 X13.2400 Y2.9200
G01 X13.2437 Y2.9945
G01 X13.2546 Y3.0683
G01 X13.2727 Y3.1406
G01 X13.2979 Y3.2108
G01 X13.3297 Y3.2783
G01 X13.3681 Y3.3422
G01 X13.4125 Y3.4021
G01 X13.4626 Y3.4574
G01 X13.5179 Y3.5075
G01 X13.5778 Y3.5519
G01 X13.6417 Y3.5903
G01 X13.7092 Y3.6221
G01 X13.7794 Y3.6473
G01 X13.8517 Y3.6654
G01 X13.9255 Y3.6763
G01 X14.0000 Y3.6800
G01 X14.0745 Y3.6763
G01 X14.1483 Y3.6654
G01 X14.2206 Y3.6473
G01 X14.2908 Y3.6221
G01 X14.3583 Y3.5903
G01 X14.4222 Y3.5519
G01 X14.4821 Y3.5075
G01 X14.5374 Y3.4574
G01 X14.5875 Y3.4021
G01 X14.6319 Y3.3422
G01 X14.6703 Y3.2783
G01 X14.7021 Y3.2108
G01 X14.7273 Y3.1406
G01 X14.7454 Y3.0683
G01 X14.7563 Y2.9945
G01 X14.7600 Y2.9200
G00 Z2.0000
G00 X11.2552 Y5.6000
G01 F60.00
G01 Z-0.0100
G01 F50.00
G01 X11.2635 Y5.6329
G01 X11.2721 Y5.6912
G01 X11.2750 Y5.7500
G01 X11.2721 Y5.8088
G01 X11.2635 Y5.8671
G01 X11.2552 Y5.9000
G00 Z2.0000
G00 X11.1728 Y5.9000
G01 F60.00
G01 Z-0.0100
G01 F50.00
G01 X11.1850 Y5.8514
G01 X11.1925 Y5.8010
G01 X11.1950 Y5.7500
G01 X11.1925 Y5.6990
G01 X11.1850 Y5.6486
G01 X11.1728 Y5.6000
G00 Z2.0000
G00 X11.0881 Y5.6000
G01 F60.00
G01 Z-0.0100
G01 F50.00
G01 X11.0961 Y5.6223
G01 X11.1065 Y5.6642
G01 X11.1129 Y5.7069
G01 X11.1150 Y5.7500
G01 X11.1129 Y5.7931
G01 X11.1065 Y5.8358
G01 X11.0961 Y5.8777
G01 X11.0881 Y5.9000
G00 Z2.0000
G00 X11.0881 Y6.1000
G01 F60.00
G01 Z-0.0100
G01 F50.00
G01 X11.0961 Y6.1223
G01 X11.1065 Y6.1642
G01 X11.1129 Y6.2069
G01 X11.1150 Y6.2500
G01 X11.1129 Y6.2931
G01 X11.1065 Y6.3358
G01 X11.0961 Y6.3777
G01 X11.0881 Y6.4000
G00 Z2.0000
G00 X11.1728 Y6.4000
G01 F60.00
G01 Z-0.0100
G01 F50.00
G01 X11.1850 Y6.3514
G01 X11.1925 Y6.3010
G01 X11.1950 Y6.2500
G01 X11.1925 Y6.1990
G01 X11.1850 Y6.1486
G01 X11.1728 Y6.1000
G00 Z2.0000
G00 X11.2552 Y6.1000
G01 F60.00
G01 Z-0.0100
G01 F50.00
G01 X11.2635 Y6.1329
G01 X11.2721 Y6.1912
G01 X11.2750 Y6.2500
G01 X11.2721 Y6.3088
G01 X11.2635 Y6.3671
G01 X11.2552 Y6.4000
G00 Z2.0000
G00 X11.3376 Y6.4000
G01 F60.00
G01 Z-0.0100
G01 F50.00
G01 X11.3419 Y6.3827
G01 X11.3517 Y6.3167
G01 X11.3550 Y6.2500
G01 X11.3517 Y6.1833
G01 X11.3419 Y6.1173
G01 X11.3376 Y6.1000
G01 X10.8750 Y6.2500
G01 X10.8740 Y6.2696
G01 X10.8712 Y6.2890
G01 X10.8664 Y6.3081
G01 X10.8598 Y6.3265
G01 X10.8514 Y6.3443
G01 X10.8413 Y6.3611
G01 X10.8296 Y6.3769
G01 X10.8164 Y6.3914
G01 X10.8070 Y6.4000
G01 X9.9250 Y6.3244
G01 X9.9253 Y6.3311
G01 X9.9263 Y6.3384
G01 X9.9279 Y6.3456
G01 X9.9303 Y6.3525
G01 X9.9333 Y6.3592
G01 X9.9370 Y6.3656
G01 X9.9413 Y6.3716
G01 X9.9461 Y6.3771
G01 X9.9515 Y6.3822
G01 X9.9573 Y6.3866
G01 X9.9636 Y6.3905
G01 X9.9702 Y6.3938
G01 X9.9771 Y6.3964
G01 X9.9842 Y6.3983
G01 X9.9939 Y6.3997
G01 X10.0006 Y6.4000
G01 X11.3494 Y6.4000
G01 X11.3561 Y6.3997
G01 X11.3634 Y6.3987
G01 X11.3729 Y6.3964
G01 X11.3842 Y6.3917
G01 X11.3927 Y6.3866
G01 X11.4021 Y6.3789
G01 X11.4087 Y6.3716
G01 X11.4130 Y6.3656
G01 X11.4188 Y6.3548
G01 X11.4221 Y6.3456
G01 X11.4245 Y6.3336
G01 X11.4250 Y6.3244
G01 X11.4250 Y6.1756
G01 X11.4247 Y6.1689
G01 X11.4237 Y6.1616
G01 X11.4221 Y6.1544
G01 X11.4197 Y6.1475
G01 X11.4167 Y6.1408
G01 X11.4130 Y6.1344
G01 X11.4087 Y6.1284
G01 X11.4039 Y6.1229
G01 X11.3985 Y6.1178
G01 X11.3927 Y6.1134
G01 X11.3864 Y6.1095
G01 X11.3798 Y6.1062
G01 X11.3729 Y6.1036
G01 X11.3658 Y6.1017
G01 X11.3561 Y6.1003
G01 X11.3494 Y6.1000
G01 X10.0006 Y6.1000
G01 X9.9939 Y6.1003
G01 X9.9866 Y6.1013
G01 X9.9771 Y6.1036
G01 X9.9658 Y6.1083
G01 X9.9573 Y6.1134
G01 X9.9479 Y6.1211
G01 X9.9413 Y6.1284
G01 X9.9370 Y6.1344
G01 X9.9312 Y6.1452
G01 X9.9279 Y6.1544
G01 X9.9255 Y6.1664
G01 X9.9250 Y6.1756
G01 X9.9250 Y6.3244
G00 Z2.0000
G00 X10.0124 Y6.4000
G01 F60.00
G01 Z-0.0100
G01 F50.00
G01 X10.0081 Y6.3827
G01 X9.9983 Y6.3167
G01 X9.9950 Y6.2500
G01 X9.9983 Y6.1833
G01 X10.0081 Y6.1173
G01 X10.0124 Y6.1000
G00 Z2.0000
G00 X10.0948 Y6.1000
G01 F60.00
G01 Z-0.0100
G01 F50.00
G01 X10.0865 Y6.1329
G01 X10.0779 Y6.1912
G01 X10.0750 Y6.2500
G01 X10.0779 Y6.3088
G01 X10.0865 Y6.3671
G01 X10.0948 Y6.4000
G00 Z2.0000
G00 X10.1772 Y6.4000
G01 F60.00
G01 Z-0.0100
G01 F50.00
G01 X10.1650 Y6.3514
G01 X10.1575 Y6.3010
G01 X10.1550 Y6.2500
G01 X10.1575 Y6.1990
G01 X10.1650 Y6.1486
G01 X10.1772 Y6.1000
G00 Z2.0000
G00 X10.1772 Y5.9000
G01 F60.00
G01 Z-0.0100
G01 F50.00
G01 X10.1650 Y5.8514
G01 X10.1575 Y5.8010
G01 X10.1550 Y5.7500
G01 X10.1575 Y5.6990
G01 X10.1650 Y5.6486
G01 X10.1772 Y5.6000
G00 Z2.0000
G00 X10.0948 Y5.6000
G01 F60.00
G01 Z-0.0100
G01 F50.00
G01 X10.0865 Y5.6329
G01 X10.0779 Y5.6912
G01 X10.0750 Y5.7500
G01 X10.0779 Y5.8088
G01 X10.0865 Y5.8671
G01 X10.0948 Y5.9000
G00 Z2.0000
G00 X10.0124 Y5.9000
G01 F60.00
G01 Z-0.0100
G01 F50.00
G01 X10.0081 Y5.8827
G01 X9.9983 Y5.8167
G01 X9.9950 Y5.7500
G01 X9.9983 Y5.6833
G01 X10.0081 Y5.6173
G01 X10.0124 Y5.6000
G00 Z2.0000
G00 X9.9250 Y5.8244
G01 F60.00
G01 Z-0.0100
G01 F50.00
G01 X9.9250 Y5.6756
G01 X9.9255 Y5.6664
G01 X9.9279 Y5.6544
G01 X9.9312 Y5.6452
G01 X9.9370 Y5.6344
G01 X9.9413 Y5.6284
G01 X9.9479 Y5.6211
G01 X9.9573 Y5.6134
G01 X9.9658 Y5.6083
G01 X9.9771 Y5.6036
G01 X9.9866 Y5.6013
G01 X9.9939 Y5.6003
G01 X10.0006 Y5.6000
G01 X11.3494 Y5.6000
G01 X11.3561 Y5.6003
G01 X11.3658 Y5.6017
G01 X11.3729 Y5.6036
G01 X11.3798 Y5.6062
G01 X11.3864 Y5.6095
G01 X11.3927 Y5.6134
G01 X11.3985 Y5.6178
G01 X11.4039 Y5.6229
G01 X11.4087 Y5.6284
G01 X11.4130 Y5.6344
G01 X11.4167 Y5.6408
G01 X11.4197 Y5.6475
G01 X11.4221 Y5.6544
G01 X11.4237 Y5.6616
G01 X11.4247 Y5.6689
G01 X11.4250 Y5.6756
G01 X11.4250 Y5.8244
G01 X11.4245 Y5.8336
G01 X11.4221 Y5.8456
G01 X11.4188 Y5.8548
G01 X11.4130 Y5.8656
G01 X11.4087 Y5.8716
G01 X11.4021 Y5.8789
G01 X11.3927 Y5.8866
G01 X11.3842 Y5.8917
G01 X11.3729 Y5.8964
G01 X11.3634 Y5.8987
G01 X11.3561 Y5.8997
G01 X11.3494 Y5.9000
G01 X10.0006 Y5.9000
G01 X9.9939 Y5.8997
G01 X9.9842 Y5.8983
G01 X9.9771 Y5.8964
G01 X9.9702 Y5.8938
G01 X9.9636 Y5.8905
G01 X9.9573 Y5.8866
G01 X9.9515 Y5.8822
G01 X9.9461 Y5.8771
G01 X9.9413 Y5.8716
G01 X9.9370 Y5.8656
G01 X9.9333 Y5.8592
G01 X9.9303 Y5.8525
G01 X9.9279 Y5.8456
G01 X9.9263 Y5.8384
G01 X9.9253 Y5.8311
G01 X9.9250 Y5.8244
G01 X10.8070 Y5.9000
G01 X10.8164 Y5.8914
G01 X10.8296 Y5.8769
G01 X10.8413 Y5.8611
G01 X10.8514 Y5.8443
G01 X10.8598 Y5.8265
G01 X10.8664 Y5.8081
G01 X10.8712 Y5.7890
G01 X10.8740 Y5.7696
G01 X10.8750 Y5.7500
G01 X11.3376 Y5.6000
G01 X11.3419 Y5.6173
G01 X11.3517 Y5.6833
G01 X11.3550 Y5.7500
G01 X11.3517 Y5.8167
G01 X11.3419 Y5.8827
G01 X11.3376 Y5.9000
G00 Z2.0000
G00 X11.0018 Y6.1000
G01 F60.00
G01 Z-0.0100
G01 F50.00
G01 X11.0076 Y6.1122
G01 X11.0195 Y6.1455
G01 X11.0281 Y6.1798
G01 X11.0333 Y6.2147
G01 X11.0350 Y6.2500
G01 X11.0333 Y6.2853
G01 X11.0281 Y6.3202
G01 X11.0195 Y6.3545
G01 X11.0076 Y6.3878
G01 X11.0018 Y6.4000
G01 X10.9111 Y6.4000
G01 X10.9219 Y6.3820
G01 X10.9337 Y6.3572
G01 X10.9429 Y6.3313
G01 X10.9496 Y6.3046
G01 X10.9537 Y6.2774
G01 X10.9550 Y6.2500
G01 X10.9537 Y6.2226
G01 X10.9496 Y6.1954
G01 X10.9429 Y6.1687
G01 X10.9337 Y6.1428
G01 X10.9219 Y6.1180
G01 X10.9111 Y6.1000
G00 Z2.0000
G00 X10.8070 Y6.1000
G01 F60.00
G01 Z-0.0100
G01 F50.00
G01 X10.8164 Y6.1086
G01 X10.8296 Y6.1231
G01 X10.8413 Y6.1389
G01 X10.8514 Y6.1557
G01 X10.8598 Y6.1735
G01 X10.8664 Y6.1919
G01 X10.8712 Y6.2110
G01 X10.8740 Y6.2304
G01 X10.8750 Y6.2500
G01 X10.7950 Y6.2500
G01 X10.7944 Y6.2618
G01 X10.7927 Y6.2734
