(G-CODE GENERATED BY FLATCAM v8.991 - www.flatcam.org - Version Date: 2019/12/27)

(Name: solder_mask_isolation)
(Type: G-code from Geometry)
(Units: MM)

(Created on Monday, 24 April 2023 at 22:17)

(TOOL DIAMETER: 0.1 mm)
(Feedrate: 100.0 mm/min)
(Feedrate_Z: 60.0 mm/min)
(Feedrate rapids 1500.0 mm/min)

(Z_Cut: -0.06 mm)
(DepthPerCut: 0.06 mm <=>1 passes)
(Z_Move: 2.0 mm)
(Z Toolchange: 15.0 mm)
(X,Y Toolchange: 0.0000, 0.0000 mm)
(Z Start: None mm)
(Z End: 26.0 mm)
(Steps per circle: 64)
(Preprocessor Geometry: default)

(X range:    0.1501 ...   14.8499  mm)
(Y range:    0.5750 ...   14.4250  mm)

(Spindle Speed: None RPM)
G21
G90
G94




G01 F100.00
G00 Z2.0000

M03
G00 X0.1544 Y2.8342
G01 F60.00
G01 Z-0.0600
G01 F100.00
G01 X0.1669 Y2.7518
G01 X0.1874 Y2.6709
G01 X0.2138 Y2.5970
G01 X0.2493 Y2.5215
G01 X0.2919 Y2.4498
G01 X0.3414 Y2.3827
G01 X0.4007 Y2.3173
G01 X0.4627 Y2.2614
G01 X0.5258 Y2.2147
G01 X0.5972 Y2.1716
G01 X0.6725 Y2.1357
G01 X0.7556 Y2.1059
G01 X0.8366 Y2.0859
G01 X0.9191 Y2.0739
G01 X1.0025 Y2.0701
G01 X1.0809 Y2.0739
G01 X1.1682 Y2.0869
G01 X1.2491 Y2.1074
G01 X1.3230 Y2.1338
G01 X1.3985 Y2.1693
G01 X1.4702 Y2.2119
G01 X1.5373 Y2.2614
G01 X1.5993 Y2.3173
G01 X1.6555 Y2.3789
G01 X1.7053 Y2.4458
G01 X1.7484 Y2.5172
G01 X1.7843 Y2.5925
G01 X1.8126 Y2.6709
G01 X1.8252 Y2.7199
G01 X1.8971 Y2.7199
G01 X2.7000 Y1.9171
G01 X2.7000 Y0.8750
G01 X2.7013 Y0.8480
G01 X2.7063 Y0.8141
G01 X2.7137 Y0.7856
G01 X2.7238 Y0.7580
G01 X2.7343 Y0.7358
G01 X2.7492 Y0.7104
G01 X2.7666 Y0.6866
G01 X2.7862 Y0.6646
G01 X2.8078 Y0.6447
G01 X2.8313 Y0.6270
G01 X2.8564 Y0.6116
G01 X2.8830 Y0.5988
G01 X2.9106 Y0.5887
G01 X2.9391 Y0.5813
G01 X2.9682 Y0.5767
G01 X2.9975 Y0.5751
G01 X3.8000 Y0.5750
G01 X3.8270 Y0.5763
G01 X3.8561 Y0.5803
G01 X3.8894 Y0.5887
G01 X3.9170 Y0.5988
G01 X3.9392 Y0.6093
G01 X3.9646 Y0.6242
G01 X3.9884 Y0.6416
G01 X4.0138 Y0.6646
G01 X4.0334 Y0.6866
G01 X4.0480 Y0.7063
G01 X4.0634 Y0.7314
G01 X4.0780 Y0.7625
G01 X4.0877 Y0.7903
G01 X4.0947 Y0.8189
G01 X4.0983 Y0.8432
G01 X4.0999 Y0.8725
G01 X4.0999 Y2.1275
G01 X4.0987 Y2.1520
G01 X4.0947 Y2.1811
G01 X4.0863 Y2.2144
G01 X4.0780 Y2.2375
G01 X4.0657 Y2.2642
G01 X4.0508 Y2.2896
G01 X4.0334 Y2.3134
G01 X4.0104 Y2.3388
G01 X3.9884 Y2.3584
G01 X3.9646 Y2.3758
G01 X3.9392 Y2.3907
G01 X3.9125 Y2.4030
G01 X3.8894 Y2.4113
G01 X3.8609 Y2.4187
G01 X3.8318 Y2.4233
G01 X3.8025 Y2.4249
G01 X3.0000 Y2.4250
G01 X2.9730 Y2.4237
G01 X2.9391 Y2.4187
G01 X2.9106 Y2.4113
G01 X2.8875 Y2.4030
G01 X2.8564 Y2.3884
G01 X2.8354 Y2.3758
G01 X2.8190 Y2.3639
G01 X2.1215 Y3.0615
G01 X2.1050 Y3.0762
G01 X2.0891 Y3.0877
G01 X2.0721 Y3.0976
G01 X2.0588 Y3.1039
G01 X2.0404 Y3.1107
G01 X2.0166 Y3.1167
G01 X1.9972 Y3.1193
G01 X1.9800 Y3.1201
G01 X1.8252 Y3.1201
G01 X1.8126 Y3.1691
G01 X1.7843 Y3.2475
G01 X1.7507 Y3.3185
G01 X1.7249 Y3.3620
G01 X2.1432 Y3.7803
G01 X2.1562 Y3.7950
G01 X2.1649 Y3.8068
G01 X2.1752 Y3.8236
G01 X2.1839 Y3.8412
G01 X2.1907 Y3.8596
G01 X2.1967 Y3.8834
G01 X2.1993 Y3.9028
G01 X2.2001 Y3.9200
G01 X2.2001 Y4.9171
G01 X2.8329 Y5.5499
G01 X5.0000 Y5.5500
G01 X5.0098 Y5.5504
G01 X5.0220 Y5.5520
G01 X5.0386 Y5.5562
G01 X5.0455 Y5.5586
G01 X5.0567 Y5.5637
G01 X5.0715 Y5.5725
G01 X5.0774 Y5.5769
G01 X5.0866 Y5.5849
G01 X5.0981 Y5.5976
G01 X5.1025 Y5.6035
G01 X5.1090 Y5.6139
G01 X5.1164 Y5.6295
G01 X5.1188 Y5.6364
G01 X5.1221 Y5.6482
G01 X5.1241 Y5.6603
G01 X5.1250 Y5.6750
G01 X5.1250 Y5.8250
G01 X5.1246 Y5.8348
G01 X5.1230 Y5.8470
G01 X5.1188 Y5.8636
G01 X5.1145 Y5.8751
G01 X5.1113 Y5.8817
G01 X5.1052 Y5.8924
G01 X5.0950 Y5.9062
G01 X5.0866 Y5.9151
G01 X5.0774 Y5.9231
G01 X5.0715 Y5.9275
G01 X5.0611 Y5.9340
G01 X5.0501 Y5.9395
G01 X5.0339 Y5.9453
G01 X5.0220 Y5.9480
G01 X5.0147 Y5.9491
G01 X5.0000 Y5.9500
G01 X2.7500 Y5.9501
G01 X2.7280 Y5.9488
G01 X2.7134 Y5.9467
G01 X2.6943 Y5.9421
G01 X2.6712 Y5.9339
G01 X2.6579 Y5.9276
G01 X2.6409 Y5.9177
G01 X2.6250 Y5.9062
G01 X2.6085 Y5.8915
G01 X1.8585 Y5.1415
G01 X1.8469 Y5.1288
G01 X1.8351 Y5.1132
G01 X1.8248 Y5.0964
G01 X1.8161 Y5.0788
G01 X1.8093 Y5.0604
G01 X1.8043 Y5.0414
G01 X1.8012 Y5.0220
G01 X1.7999 Y5.0000
G01 X1.7999 Y4.0029
G01 X1.4420 Y3.6449
G01 X1.3985 Y3.6707
G01 X1.3275 Y3.7043
G01 X1.2444 Y3.7341
G01 X1.1634 Y3.7541
G01 X1.0858 Y3.7656
G01 X0.9975 Y3.7699
G01 X0.9142 Y3.7656
G01 X0.8366 Y3.7541
G01 X0.7509 Y3.7326
G01 X0.6770 Y3.7062
G01 X0.6015 Y3.6707
G01 X0.5258 Y3.6253
G01 X0.4627 Y3.5786
G01 X0.4007 Y3.5227
G01 X0.3445 Y3.4611
G01 X0.2919 Y3.3902
G01 X0.2493 Y3.3185
G01 X0.2157 Y3.2475
G01 X0.1874 Y3.1691
G01 X0.1659 Y3.0834
G01 X0.1544 Y3.0058
G01 X0.1501 Y2.9225
G01 X0.1544 Y2.8342
G00 Z2.0000
G00 X0.2785 Y4.3614
G01 F60.00
G01 Z-0.0600
G01 F100.00
G01 X0.2803 Y4.3492
G01 X0.2842 Y4.3325
G01 X0.2898 Y4.3162
G01 X0.2969 Y4.3006
G01 X0.3055 Y4.2858
G01 X0.3155 Y4.2718
G01 X0.3304 Y4.2555
G01 X0.3433 Y4.2441
G01 X0.3531 Y4.2368
G01 X0.3720 Y4.2255
G01 X0.3877 Y4.2183
G01 X0.4039 Y4.2128
G01 X0.4206 Y4.2088
G01 X0.4328 Y4.2070
G01 X0.4524 Y4.2059
G01 X1.4524 Y4.2059
G01 X1.4720 Y4.2070
G01 X1.4889 Y4.2098
G01 X1.5055 Y4.2142
G01 X1.5171 Y4.2183
G01 X1.5327 Y4.2255
G01 X1.5516 Y4.2368
G01 X1.5653 Y4.2472
G01 X1.5779 Y4.2589
G01 X1.5892 Y4.2718
G01 X1.5993 Y4.2858
G01 X1.6079 Y4.3006
G01 X1.6150 Y4.3162
G01 X1.6191 Y4.3278
G01 X1.6235 Y4.3444
G01 X1.6263 Y4.3614
G01 X1.6274 Y4.3834
G01 X1.6263 Y4.4005
G01 X1.6235 Y4.4175
G01 X1.6191 Y4.4341
G01 X1.6150 Y4.4457
G01 X1.6079 Y4.4613
G01 X1.5993 Y4.4761
G01 X1.5892 Y4.4901
G01 X1.5779 Y4.5030
G01 X1.5653 Y4.5147
G01 X1.5516 Y4.5251
G01 X1.5370 Y4.5341
G01 X1.5216 Y4.5417
G01 X1.5055 Y4.5477
G01 X1.4889 Y4.5521
G01 X1.4720 Y4.5549
G01 X1.4524 Y4.5560
G01 X1.1036 Y4.5560
G01 X1.1036 Y4.7773
G01 X1.4548 Y4.7774
G01 X1.4720 Y4.7785
G01 X1.4889 Y4.7812
G01 X1.5055 Y4.7856
G01 X1.5171 Y4.7898
G01 X1.5327 Y4.7969
G01 X1.5476 Y4.8055
G01 X1.5615 Y4.8155
G01 X1.5744 Y4.8269
G01 X1.5861 Y4.8395
G01 X1.5965 Y4.8531
G01 X1.6056 Y4.8677
G01 X1.6131 Y4.8831
G01 X1.6191 Y4.8992
G01 X1.6235 Y4.9158
G01 X1.6263 Y4.9328
G01 X1.6274 Y4.9499
G01 X1.6268 Y4.9671
G01 X1.6245 Y4.9841
G01 X1.6206 Y5.0008
G01 X1.6150 Y5.0171
G01 X1.6079 Y5.0327
G01 X1.5965 Y5.0516
G01 X1.5892 Y5.0615
G01 X1.5779 Y5.0744
G01 X1.5653 Y5.0861
G01 X1.5476 Y5.0993
G01 X1.5327 Y5.1079
G01 X1.5171 Y5.1150
G01 X1.5055 Y5.1191
G01 X1.4841 Y5.1245
G01 X1.4671 Y5.1268
G01 X1.4524 Y5.1274
G01 X0.4524 Y5.1274
G01 X0.4328 Y5.1263
G01 X0.4158 Y5.1235
G01 X0.3992 Y5.1191
G01 X0.3877 Y5.1150
G01 X0.3720 Y5.1079
G01 X0.3572 Y5.0993
G01 X0.3395 Y5.0861
G01 X0.3269 Y5.0744
G01 X0.3155 Y5.0615
G01 X0.3055 Y5.0476
G01 X0.2969 Y5.0327
G01 X0.2898 Y5.0171
G01 X0.2842 Y5.0008
G01 X0.2803 Y4.9841
G01 X0.2785 Y4.9720
G01 X0.2774 Y4.9548
G01 X0.2780 Y4.9377
G01 X0.2803 Y4.9206
G01 X0.2842 Y4.9039
G01 X0.2898 Y4.8877
G01 X0.2969 Y4.8720
G01 X0.3082 Y4.8531
G01 X0.3187 Y4.8395
G01 X0.3304 Y4.8269
G01 X0.3433 Y4.8155
G01 X0.3572 Y4.8055
G01 X0.3720 Y4.7969
G01 X0.3877 Y4.7898
G01 X0.4039 Y4.7842
G01 X0.4206 Y4.7803
G01 X0.4377 Y4.7780
G01 X0.4524 Y4.7773
G01 X0.7535 Y4.7773
G01 X0.7535 Y4.5560
G01 X0.4499 Y4.5560
G01 X0.4377 Y4.5554
G01 X0.4206 Y4.5531
G01 X0.4039 Y4.5491
G01 X0.3877 Y4.5436
G01 X0.3677 Y4.5341
G01 X0.3531 Y4.5251
G01 X0.3395 Y4.5147
G01 X0.3269 Y4.5030
G01 X0.3187 Y4.4939
G01 X0.3082 Y4.4802
G01 X0.2992 Y4.4656
G01 X0.2898 Y4.4457
G01 X0.2856 Y4.4341
G01 X0.2812 Y4.4175
G01 X0.2780 Y4.3957
G01 X0.2774 Y4.3785
G01 X0.2785 Y4.3614
G00 Z2.0000
G00 X0.2785 Y5.6470
G01 F60.00
G01 Z-0.0600
G01 F100.00
G01 X0.2812 Y5.6300
G01 X0.2857 Y5.6134
G01 X0.2898 Y5.6018
G01 X0.2970 Y5.5862
G01 X0.3083 Y5.5673
G01 X0.3156 Y5.5574
G01 X0.3270 Y5.5445
G01 X0.3396 Y5.5328
G01 X0.3553 Y5.5210
G01 X0.4837 Y5.4354
G01 X0.5466 Y5.3725
G01 X0.5815 Y5.3027
G01 X0.5887 Y5.2898
G01 X0.5983 Y5.2756
G01 X0.6093 Y5.2624
G01 X0.6253 Y5.2471
G01 X0.6389 Y5.2367
G01 X0.6493 Y5.2301
G01 X0.6645 Y5.2222
G01 X0.6804 Y5.2157
G01 X0.7017 Y5.2098
G01 X0.7186 Y5.2070
G01 X0.7358 Y5.2059
G01 X0.7529 Y5.2066
G01 X0.7651 Y5.2080
G01 X0.7867 Y5.2128
G01 X0.8029 Y5.2184
G01 X0.8186 Y5.2255
G01 X0.8334 Y5.2342
G01 X0.8435 Y5.2412
G01 X0.8602 Y5.2556
G01 X0.8687 Y5.2644
G01 X0.8795 Y5.2778
G01 X0.8889 Y5.2922
G01 X0.8969 Y5.3074
G01 X0.9049 Y5.3279
G01 X0.9093 Y5.3445
G01 X0.9114 Y5.3566
G01 X0.9131 Y5.3786
G01 X0.9125 Y5.3958
G01 X0.9110 Y5.4080
G01 X0.9062 Y5.4295
G01 X0.9007 Y5.4458
G01 X0.8957 Y5.4570
G01 X0.8785 Y5.4916
G01 X1.2773 Y5.4916
G01 X1.2773 Y5.3810
G01 X1.2780 Y5.3662
G01 X1.2803 Y5.3492
G01 X1.2842 Y5.3325
G01 X1.2916 Y5.3117
G01 X1.2992 Y5.2963
G01 X1.3082 Y5.2817
G01 X1.3155 Y5.2718
G01 X1.3304 Y5.2555
G01 X1.3433 Y5.2441
G01 X1.3531 Y5.2368
G01 X1.3720 Y5.2255
G01 X1.3877 Y5.2183
G01 X1.3992 Y5.2142
G01 X1.4206 Y5.2088
G01 X1.4328 Y5.2070
G01 X1.4499 Y5.2060
G01 X1.4720 Y5.2070
G01 X1.4841 Y5.2088
G01 X1.5008 Y5.2128
G01 X1.5216 Y5.2202
G01 X1.5370 Y5.2278
G01 X1.5516 Y5.2368
G01 X1.5615 Y5.2441
G01 X1.5779 Y5.2589
G01 X1.5892 Y5.2718
G01 X1.5965 Y5.2817
G01 X1.6079 Y5.3006
G01 X1.6150 Y5.3162
G01 X1.6191 Y5.3278
G01 X1.6245 Y5.3492
G01 X1.6268 Y5.3662
G01 X1.6274 Y5.3810
G01 X1.6274 Y5.9524
G01 X1.6263 Y5.9720
G01 X1.6245 Y5.9841
G01 X1.6206 Y6.0008
G01 X1.6150 Y6.0171
G01 X1.6079 Y6.0327
G01 X1.5993 Y6.0476
G01 X1.5892 Y6.0615
G01 X1.5779 Y6.0744
G01 X1.5653 Y6.0861
G01 X1.5516 Y6.0965
G01 X1.5370 Y6.1056
G01 X1.5216 Y6.1131
G01 X1.5055 Y6.1191
G01 X1.4889 Y6.1235
G01 X1.4720 Y6.1263
G01 X1.4548 Y6.1274
G01 X1.4377 Y6.1268
G01 X1.4206 Y6.1245
G01 X1.4039 Y6.1206
G01 X1.3877 Y6.1150
G01 X1.3720 Y6.1079
G01 X1.3572 Y6.0993
G01 X1.3395 Y6.0861
G01 X1.3269 Y6.0744
G01 X1.3155 Y6.0615
G01 X1.3082 Y6.0516
G01 X1.2992 Y6.0370
G01 X1.2916 Y6.0216
G01 X1.2842 Y6.0008
G01 X1.2803 Y5.9841
G01 X1.2780 Y5.9671
G01 X1.2773 Y5.9524
G01 X1.2773 Y5.8417
G01 X0.4524 Y5.8417
G01 X0.4377 Y5.8411
G01 X0.4206 Y5.8388
G01 X0.4039 Y5.8348
G01 X0.3877 Y5.8293
G01 X0.3720 Y5.8221
G01 X0.3572 Y5.8135
G01 X0.3432 Y5.8035
G01 X0.3303 Y5.7921
G01 X0.3186 Y5.7795
G01 X0.3082 Y5.7659
G01 X0.2992 Y5.7513
G01 X0.2916 Y5.7358
G01 X0.2856 Y5.7197
G01 X0.2812 Y5.7031
G01 X0.2780 Y5.6813
G01 X0.2774 Y5.6641
G01 X0.2785 Y5.6470
G00 Z2.0000
G00 X1.1821 Y6.3785
G01 F60.00
G01 Z-0.0600
G01 F100.00
G01 X1.1832 Y6.3614
G01 X1.1850 Y6.3492
G01 X1.1890 Y6.3325
G01 X1.1945 Y6.3162
G01 X1.2040 Y6.2963
G01 X1.2130 Y6.2817
G01 X1.2234 Y6.2680
G01 X1.2334 Y6.2572
G01 X1.2810 Y6.2095
G01 X1.2956 Y6.1965
G01 X1.3096 Y6.1865
G01 X1.3244 Y6.1778
G01 X1.3401 Y6.1707
G01 X1.3563 Y6.1652
G01 X1.3730 Y6.1612
G01 X1.3900 Y6.1589
G01 X1.4072 Y6.1583
G01 X1.4195 Y6.1589
G01 X1.4365 Y6.1612
G01 X1.4532 Y6.1652
G01 X1.4740 Y6.1726
G01 X1.4894 Y6.1802
G01 X1.5040 Y6.1892
G01 X1.5177 Y6.1996
G01 X1.5285 Y6.2095
G01 X1.5762 Y6.2572
G01 X1.5892 Y6.2718
G01 X1.5993 Y6.2858
G01 X1.6079 Y6.3006
G01 X1.6150 Y6.3162
G01 X1.6206 Y6.3325
G01 X1.6245 Y6.3492
G01 X1.6268 Y6.3662
G01 X1.6274 Y6.3834
G01 X1.6263 Y6.4005
G01 X1.6245 Y6.4127
G01 X1.6206 Y6.4294
G01 X1.6150 Y6.4457
G01 X1.6056 Y6.4656
G01 X1.5965 Y6.4802
G01 X1.5861 Y6.4939
G01 X1.5762 Y6.5047
G01 X1.5285 Y6.5524
G01 X1.5139 Y6.5654
G01 X1.4999 Y6.5754
G01 X1.4851 Y6.5841
G01 X1.4695 Y6.5912
G01 X1.4532 Y6.5968
G01 X1.4365 Y6.6007
G01 X1.4195 Y6.6030
G01 X1.4023 Y6.6036
G01 X1.3900 Y6.6030
G01 X1.3730 Y6.6007
G01 X1.3563 Y6.5968
G01 X1.3355 Y6.5893
G01 X1.3201 Y6.5818
G01 X1.3055 Y6.5727
G01 X1.2918 Y6.5623
G01 X1.2810 Y6.5524
G01 X1.2334 Y6.5047
G01 X1.2203 Y6.4901
G01 X1.2103 Y6.4761
G01 X1.2016 Y6.4613
G01 X1.1945 Y6.4457
G01 X1.1890 Y6.4294
G01 X1.1850 Y6.4127
G01 X1.1827 Y6.3957
G01 X1.1821 Y6.3785
G00 Z2.0000
G00 X0.6274 Y7.0889
G01 F60.00
G01 Z-0.0600
G01 F100.00
G01 X0.6439 Y7.0561
G01 X0.6513 Y7.0486
G01 X0.7040 Y7.0223
G01 X0.8549 Y6.9846
G01 X1.0499 Y6.9846
G01 X1.2008 Y7.0223
G01 X1.2534 Y7.0486
G01 X1.2609 Y7.0561
G01 X1.2773 Y7.0889
G01 X1.2773 Y7.1015
G01 X1.2609 Y7.1344
G01 X1.2534 Y7.1418
G01 X1.2008 Y7.1682
G01 X1.0499 Y7.2059
G01 X0.8549 Y7.2059
G01 X0.7040 Y7.1682
G01 X0.6513 Y7.1418
G01 X0.6439 Y7.1344
G01 X0.6274 Y7.1015
G01 X0.6274 Y7.0889
G00 Z2.0000
G00 X0.2773 Y7.1429
G01 F60.00
G01 Z-0.0600
G01 F100.00
G01 X0.2773 Y7.0476
G01 X0.2780 Y7.0329
G01 X0.2795 Y7.0206
G01 X0.2812 Y7.0111
G01 X0.2842 Y6.9990
G01 X0.2898 Y6.9828
G01 X0.2958 Y6.9693
G01 X0.3434 Y6.8741
G01 X0.3542 Y6.8556
G01 X0.3654 Y6.8405
G01 X0.3744 Y6.8305
G01 X0.4258 Y6.7791
G01 X0.4358 Y6.7702
G01 X0.4508 Y6.7590
G01 X0.4670 Y6.7494
G01 X0.5646 Y6.7006
G01 X0.5847 Y6.6921
G01 X0.6004 Y6.6873
G01 X0.7909 Y6.6397
G01 X0.8089 Y6.6362
G01 X0.8150 Y6.6355
G01 X0.8333 Y6.6345
G01 X1.0714 Y6.6345
G01 X1.0898 Y6.6355
G01 X1.0958 Y6.6362
G01 X1.1139 Y6.6397
G01 X1.3044 Y6.6873
G01 X1.3201 Y6.6921
G01 X1.3402 Y6.7006
G01 X1.4354 Y6.7482
G01 X1.4540 Y6.7590
G01 X1.4690 Y6.7702
G01 X1.4809 Y6.7810
G01 X1.5285 Y6.8286
G01 X1.5394 Y6.8405
G01 X1.5506 Y6.8556
G01 X1.5601 Y6.8717
G01 X1.6099 Y6.9714
G01 X1.6163 Y6.9863
G01 X1.6213 Y7.0018
G01 X1.6248 Y7.0176
G01 X1.6269 Y7.0337
G01 X1.6274 Y7.0476
G01 X1.6274 Y7.1429
G01 X1.6269 Y7.1568
G01 X1.6240 Y7.1774
G01 X1.6200 Y7.1931
G01 X1.6163 Y7.2041
G01 X1.6090 Y7.2211
G01 X1.5613 Y7.3164
G01 X1.5506 Y7.3349
G01 X1.5394 Y7.3500
G01 X1.5304 Y7.3599
G01 X1.4809 Y7.4095
G01 X1.4648 Y7.4237
G01 X1.4540 Y7.4315
G01 X1.4378 Y7.4410
G01 X1.3402 Y7.4899
G01 X1.3252 Y7.4965
G01 X1.3044 Y7.5032
G01 X1.1139 Y7.5508
G01 X1.0958 Y7.5542
G01 X1.0898 Y7.5550
G01 X1.0714 Y7.5560
G01 X0.8333 Y7.5560
G01 X0.8150 Y7.5550
G01 X0.8089 Y7.5542
G01 X0.7909 Y7.5508
G01 X0.6004 Y7.5032
G01 X0.5847 Y7.4984
G01 X0.5646 Y7.4899
G01 X0.4693 Y7.4423
G01 X0.4508 Y7.4315
G01 X0.4358 Y7.4203
G01 X0.4238 Y7.4095
G01 X0.3744 Y7.3599
G01 X0.3620 Y7.3458
G01 X0.3513 Y7.3304
G01 X0.3434 Y7.3164
G01 X0.2958 Y7.2211
G01 X0.2901 Y7.2085
G01 X0.2847 Y7.1931
G01 X0.2808 Y7.1774
G01 X0.2783 Y7.1614
G01 X0.2773 Y7.1429
G00 Z2.0000
G00 X0.2778 Y9.3203
G01 F60.00
G01 Z-0.0600
G01 F100.00
G01 X0.2800 Y9.3032
G01 X0.2825 Y9.2912
G01 X0.2875 Y9.2748
G01 X0.2961 Y9.2545
G01 X0.3046 Y9.2395
G01 X0.3145 Y9.2255
G01 X0.3224 Y9.2161
G01 X0.3345 Y9.2039
G01 X0.3518 Y9.1901
G01 X0.3621 Y9.1834
G01 X0.3772 Y9.1753
G01 X0.3930 Y9.1687
G01 X0.4118 Y9.1630
G01 X0.7369 Y9.0856
G01 X0.6907 Y9.0732
G01 X0.6746 Y9.0678
G01 X0.6634 Y9.0630
G01 X0.6484 Y9.0551
G01 X0.6343 Y9.0457
G01 X0.6176 Y9.0317
G01 X0.6058 Y9.0194
G01 X0.5953 Y9.0060
G01 X0.5862 Y8.9917
G01 X0.5785 Y8.9766
G01 X0.5723 Y8.9608
G01 X0.5676 Y8.9445
G01 X0.5646 Y8.9277
G01 X0.5632 Y8.9108
G01 X0.5634 Y8.8939
G01 X0.5653 Y8.8770
G01 X0.5688 Y8.8604
G01 X0.5739 Y8.8442
G01 X0.5805 Y8.8285
G01 X0.5887 Y8.8136
G01 X0.5982 Y8.7996
G01 X0.6091 Y8.7865
G01 X0.6176 Y8.7779
G01 X0.6304 Y8.7668
G01 X0.6443 Y8.7570
G01 X0.6591 Y8.7486
G01 X0.6746 Y8.7417
G01 X0.6907 Y8.7363
G01 X0.7369 Y8.7239
G01 X0.4118 Y8.6465
G01 X0.3930 Y8.6408
G01 X0.3772 Y8.6342
G01 X0.3621 Y8.6261
G01 X0.3478 Y8.6165
G01 X0.3345 Y8.6056
G01 X0.3224 Y8.5934
G01 X0.3116 Y8.5801
G01 X0.3021 Y8.5658
G01 X0.2940 Y8.5507
G01 X0.2875 Y8.5348
G01 X0.2825 Y8.5183
G01 X0.2792 Y8.5015
G01 X0.2778 Y8.4893
G01 X0.2774 Y8.4721
G01 X0.2787 Y8.4550
G01 X0.2816 Y8.4380
G01 X0.2861 Y8.4215
G01 X0.2923 Y8.4055
G01 X0.3000 Y8.3901
G01 X0.3092 Y8.3756
G01 X0.3197 Y8.3620
G01 X0.3315 Y8.3496
G01 X0.3445 Y8.3383
G01 X0.3586 Y8.3284
G01 X0.3735 Y8.3200
G01 X0.3938 Y8.3113
G01 X0.4102 Y8.3063
G01 X0.4271 Y8.3030
G01 X0.4393 Y8.3017
G01 X0.4565 Y8.3012
G01 X0.4736 Y8.3025
G01 X0.4905 Y8.3054
G01 X1.4929 Y8.5440
G01 X1.5117 Y8.5496
G01 X1.5275 Y8.5562
G01 X1.5426 Y8.5643
G01 X1.5569 Y8.5739
G01 X1.5701 Y8.5848
G01 X1.5789 Y8.5934
G01 X1.5901 Y8.6063
G01 X1.6000 Y8.6203
G01 X1.6085 Y8.6352
G01 X1.6155 Y8.6509
G01 X1.6222 Y8.6719
G01 X1.6255 Y8.6887
G01 X1.6269 Y8.7009
G01 X1.6272 Y8.7230
G01 X1.6261 Y8.7352
G01 X1.6233 Y8.7521
G01 X1.6172 Y8.7733
G01 X1.6106 Y8.7891
G01 X1.6025 Y8.8042
G01 X1.5958 Y8.8145
G01 X1.5821 Y8.8318
G01 X1.5700 Y8.8439
G01 X1.5567 Y8.8548
G01 X1.5466 Y8.8618
G01 X1.5318 Y8.8703
G01 X1.5161 Y8.8773
G01 X1.4998 Y8.8827
G01 X1.4175 Y8.9048
G01 X1.4975 Y8.9261
G01 X1.5115 Y8.9305
G01 X1.5274 Y8.9371
G01 X1.5466 Y8.9478
G01 X1.5606 Y8.9577
G01 X1.5736 Y8.9690
G01 X1.5821 Y8.9778
G01 X1.5930 Y8.9910
G01 X1.6025 Y9.0053
G01 X1.6106 Y9.0204
G01 X1.6187 Y9.0409
G01 X1.6233 Y9.0574
G01 X1.6261 Y9.0743
G01 X1.6274 Y9.0915
G01 X1.6269 Y9.1086
G01 X1.6247 Y9.1256
G01 X1.6209 Y9.1424
G01 X1.6155 Y9.1586
G01 X1.6107 Y9.1699
G01 X1.6026 Y9.1850
G01 X1.5931 Y9.1993
G01 X1.5789 Y9.2162
G01 X1.5701 Y9.2247
G01 X1.5569 Y9.2356
G01 X1.5426 Y9.2452
G01 X1.5275 Y9.2533
G01 X1.5117 Y9.2599
G01 X1.4929 Y9.2655
G01 X0.4929 Y9.5036
G01 X0.4785 Y9.5064
G01 X0.4614 Y9.5081
G01 X0.4442 Y9.5082
G01 X0.4271 Y9.5065
G01 X0.4102 Y9.5032
G01 X0.3892 Y9.4966
G01 X0.3735 Y9.4896
G01 X0.3586 Y9.4811
G01 X0.3445 Y9.4712
G01 X0.3351 Y9.4633
G01 X0.3230 Y9.4512
G01 X0.3120 Y9.4379
G01 X0.3025 Y9.4237
G01 X0.2943 Y9.4085
G01 X0.2877 Y9.3927
G01 X0.2827 Y9.3763
G01 X0.2787 Y9.3546
G01 X0.2774 Y9.3374
G01 X0.2778 Y9.3203
G00 Z2.0000
G00 X0.2785 Y9.9327
G01 F60.00
G01 Z-0.0600
G01 F100.00
G01 X0.2812 Y9.9157
G01 X0.2857 Y9.8991
G01 X0.2898 Y9.8875
G01 X0.2970 Y9.8719
G01 X0.3083 Y9.8530
G01 X0.3156 Y9.8431
G01 X0.3270 Y9.8302
G01 X0.3396 Y9.8185
G01 X0.3553 Y9.8067
G01 X0.4837 Y9.7211
G01 X0.5466 Y9.6582
G01 X0.5815 Y9.5884
G01 X0.5887 Y9.5755
G01 X0.5983 Y9.5613
G01 X0.6093 Y9.5481
G01 X0.6253 Y9.5329
G01 X0.6389 Y9.5224
G01 X0.6493 Y9.5158
G01 X0.6645 Y9.5079
G01 X0.6804 Y9.5014
G01 X0.7017 Y9.4955
G01 X0.7186 Y9.4927
G01 X0.7358 Y9.4917
G01 X0.7529 Y9.4923
G01 X0.7651 Y9.4937
G01 X0.7867 Y9.4985
G01 X0.8029 Y9.5041
G01 X0.8186 Y9.5112
G01 X0.8334 Y9.5199
G01 X0.8435 Y9.5269
G01 X0.8602 Y9.5413
G01 X0.8687 Y9.5502
G01 X0.8795 Y9.5635
G01 X0.8889 Y9.5779
G01 X0.8969 Y9.5931
G01 X0.9049 Y9.6137
G01 X0.9093 Y9.6303
G01 X0.9114 Y9.6423
G01 X0.9131 Y9.6644
G01 X0.9125 Y9.6815
G01 X0.9110 Y9.6937
G01 X0.9062 Y9.7153
G01 X0.9007 Y9.7315
G01 X0.8957 Y9.7427
G01 X0.8785 Y9.7773
G01 X1.2773 Y9.7773
G01 X1.2773 Y9.6667
G01 X1.2780 Y9.6520
G01 X1.2803 Y9.6349
G01 X1.2842 Y9.6182
G01 X1.2916 Y9.5974
G01 X1.2992 Y9.5820
G01 X1.3082 Y9.5674
G01 X1.3155 Y9.5575
G01 X1.3304 Y9.5412
G01 X1.3433 Y9.5298
G01 X1.3531 Y9.5225
G01 X1.3720 Y9.5112
G01 X1.3877 Y9.5040
G01 X1.3992 Y9.4999
G01 X1.4206 Y9.4945
G01 X1.4328 Y9.4927
G01 X1.4499 Y9.4917
G01 X1.4720 Y9.4927
G01 X1.4841 Y9.4945
G01 X1.5008 Y9.4985
G01 X1.5216 Y9.5059
G01 X1.5370 Y9.5135
G01 X1.5516 Y9.5225
G01 X1.5615 Y9.5298
G01 X1.5779 Y9.5447
G01 X1.5892 Y9.5575
G01 X1.5965 Y9.5674
G01 X1.6079 Y9.5863
G01 X1.6150 Y9.6020
G01 X1.6191 Y9.6135
G01 X1.6245 Y9.6349
G01 X1.6268 Y9.6520
G01 X1.6274 Y9.6667
G01 X1.6274 Y10.2381
G01 X1.6263 Y10.2577
G01 X1.6245 Y10.2698
G01 X1.6206 Y10.2865
G01 X1.6150 Y10.3028
G01 X1.6079 Y10.3184
G01 X1.5993 Y10.3333
G01 X1.5892 Y10.3472
G01 X1.5779 Y10.3601
G01 X1.5653 Y10.3718
G01 X1.5516 Y10.3822
G01 X1.5370 Y10.3913
G01 X1.5216 Y10.3988
G01 X1.5055 Y10.4049
G01 X1.4889 Y10.4093
G01 X1.4720 Y10.4120
G01 X1.4548 Y10.4131
G01 X1.4377 Y10.4125
G01 X1.4206 Y10.4102
G01 X1.4039 Y10.4063
G01 X1.3877 Y10.4007
G01 X1.3720 Y10.3936
G01 X1.3572 Y10.3850
G01 X1.3395 Y10.3718
G01 X1.3269 Y10.3601
G01 X1.3155 Y10.3472
G01 X1.3082 Y10.3374
G01 X1.2992 Y10.3228
G01 X1.2916 Y10.3073
G01 X1.2842 Y10.2865
G01 X1.2803 Y10.2698
G01 X1.2780 Y10.2528
G01 X1.2773 Y10.2381
G01 X1.2773 Y10.1274
G01 X0.4524 Y10.1274
G01 X0.4377 Y10.1268
G01 X0.4206 Y10.1245
G01 X0.4039 Y10.1206
G01 X0.3877 Y10.1150
G01 X0.3720 Y10.1079
G01 X0.3572 Y10.0992
G01 X0.3432 Y10.0892
G01 X0.3303 Y10.0778
G01 X0.3186 Y10.0652
G01 X0.3082 Y10.0516
G01 X0.2992 Y10.0370
G01 X0.2916 Y10.0215
G01 X0.2856 Y10.0054
G01 X0.2812 Y9.9888
G01 X0.2780 Y9.9670
G01 X0.2774 Y9.9498
G01 X0.2785 Y9.9327
G00 Z2.0000
G00 X1.1821 Y10.6642
G01 F60.00
G01 Z-0.0600
G01 F100.00
G01 X1.1832 Y10.6471
G01 X1.1850 Y10.6349
G01 X1.1890 Y10.6182
G01 X1.1945 Y10.6020
G01 X1.2040 Y10.5820
G01 X1.2130 Y10.5674
G01 X1.2234 Y10.5538
G01 X1.2334 Y10.5429
G01 X1.2810 Y10.4953
G01 X1.2956 Y10.4822
G01 X1.3096 Y10.4722
G01 X1.3244 Y10.4636
G01 X1.3401 Y10.4564
G01 X1.3563 Y10.4509
G01 X1.3730 Y10.4469
G01 X1.3900 Y10.4446
G01 X1.4072 Y10.4440
G01 X1.4195 Y10.4446
G01 X1.4365 Y10.4469
G01 X1.4532 Y10.4509
G01 X1.4740 Y10.4583
G01 X1.4894 Y10.4659
G01 X1.5040 Y10.4749
G01 X1.5177 Y10.4853
G01 X1.5285 Y10.4953
G01 X1.5762 Y10.5429
G01 X1.5892 Y10.5575
G01 X1.5993 Y10.5715
G01 X1.6079 Y10.5863
G01 X1.6150 Y10.6020
G01 X1.6206 Y10.6182
G01 X1.6245 Y10.6349
G01 X1.6268 Y10.6520
G01 X1.6274 Y10.6691
G01 X1.6263 Y10.6863
G01 X1.6245 Y10.6984
G01 X1.6206 Y10.7151
G01 X1.6150 Y10.7314
G01 X1.6056 Y10.7513
G01 X1.5965 Y10.7659
G01 X1.5861 Y10.7796
G01 X1.5762 Y10.7905
G01 X1.5285 Y10.8381
G01 X1.5139 Y10.8511
G01 X1.4999 Y10.8612
G01 X1.4851 Y10.8698
G01 X1.4695 Y10.8769
G01 X1.4532 Y10.8825
G01 X1.4365 Y10.8864
G01 X1.4195 Y10.8887
G01 X1.4023 Y10.8893
G01 X1.3900 Y10.8887
G01 X1.3730 Y10.8864
G01 X1.3563 Y10.8825
G01 X1.3355 Y10.8750
G01 X1.3201 Y10.8675
G01 X1.3055 Y10.8584
G01 X1.2918 Y10.8480
G01 X1.2810 Y10.8381
G01 X1.2334 Y10.7905
G01 X1.2203 Y10.7758
G01 X1.2103 Y10.7619
G01 X1.2016 Y10.7470
G01 X1.1945 Y10.7314
G01 X1.1890 Y10.7151
G01 X1.1850 Y10.6984
G01 X1.1827 Y10.6814
G01 X1.1821 Y10.6642
G00 Z2.0000
G00 X0.6274 Y11.3747
G01 F60.00
G01 Z-0.0600
G01 F100.00
G01 X0.6439 Y11.3418
G01 X0.6513 Y11.3344
G01 X0.7040 Y11.3080
G01 X0.8549 Y11.2703
G01 X1.0499 Y11.2703
G01 X1.2008 Y11.3080
G01 X1.2534 Y11.3344
G01 X1.2609 Y11.3418
G01 X1.2773 Y11.3747
G01 X1.2773 Y11.3872
G01 X1.2609 Y11.4201
G01 X1.2534 Y11.4276
G01 X1.2008 Y11.4539
G01 X1.0499 Y11.4916
G01 X0.8549 Y11.4916
G01 X0.7040 Y11.4539
G01 X0.6513 Y11.4276
G01 X0.6439 Y11.4201
G01 X0.6274 Y11.3872
G01 X0.6274 Y11.3747
G00 Z2.0000
G00 X0.2773 Y11.4286
G01 F60.00
G01 Z-0.0600
G01 F100.00
G01 X0.2773 Y11.3333
G01 X0.2780 Y11.3186
G01 X0.2803 Y11.3016
G01 X0.2829 Y11.2895
G01 X0.2856 Y11.2802
G01 X0.2898 Y11.2685
G01 X0.2958 Y11.2550
G01 X0.3434 Y11.1598
G01 X0.3542 Y11.1413
G01 X0.3654 Y11.1262
G01 X0.3744 Y11.1163
G01 X0.4258 Y11.0648
G01 X0.4358 Y11.0559
G01 X0.4508 Y11.0447
G01 X0.4670 Y11.0352
G01 X0.5646 Y10.9863
G01 X0.5847 Y10.9778
G01 X0.6004 Y10.9730
G01 X0.7909 Y10.9254
G01 X0.8089 Y10.9220
G01 X0.8150 Y10.9212
G01 X0.8333 Y10.9202
G01 X1.0714 Y10.9202
G01 X1.0898 Y10.9212
G01 X1.0958 Y10.9220
G01 X1.1139 Y10.9254
G01 X1.3044 Y10.9730
G01 X1.3201 Y10.9778
G01 X1.3402 Y10.9863
G01 X1.4354 Y11.0339
G01 X1.4540 Y11.0447
G01 X1.4690 Y11.0559
G01 X1.4809 Y11.0667
G01 X1.5285 Y11.1143
G01 X1.5394 Y11.1262
G01 X1.5506 Y11.1413
G01 X1.5601 Y11.1574
G01 X1.6099 Y11.2571
G01 X1.6163 Y11.2721
G01 X1.6213 Y11.2875
G01 X1.6248 Y11.3033
G01 X1.6269 Y11.3194
G01 X1.6274 Y11.3333
G01 X1.6274 Y11.4286
G01 X1.6269 Y11.4425
G01 X1.6240 Y11.4631
G01 X1.6200 Y11.4789
G01 X1.6163 Y11.4898
G01 X1.6090 Y11.5069
G01 X1.5613 Y11.6021
G01 X1.5506 Y11.6206
G01 X1.5394 Y11.6357
G01 X1.5304 Y11.6457
G01 X1.4809 Y11.6952
G01 X1.4648 Y11.7094
G01 X1.4540 Y11.7172
G01 X1.4378 Y11.7267
G01 X1.3402 Y11.7756
G01 X1.3252 Y11.7822
G01 X1.3044 Y11.7889
G01 X1.1139 Y11.8365
G01 X1.0958 Y11.8400
G01 X1.0898 Y11.8407
G01 X1.0714 Y11.8417
G01 X0.8333 Y11.8417
G01 X0.8150 Y11.8407
G01 X0.8089 Y11.8400
G01 X0.7909 Y11.8365
G01 X0.6004 Y11.7889
G01 X0.5847 Y11.7841
G01 X0.5646 Y11.7756
G01 X0.4693 Y11.7280
G01 X0.4508 Y11.7172
G01 X0.4358 Y11.7060
G01 X0.4238 Y11.6952
G01 X0.3744 Y11.6457
G01 X0.3620 Y11.6315
G01 X0.3513 Y11.6161
G01 X0.3434 Y11.6021
G01 X0.2958 Y11.5069
G01 X0.2901 Y11.4942
G01 X0.2847 Y11.4789
G01 X0.2808 Y11.4631
G01 X0.2783 Y11.4471
G01 X0.2773 Y11.4286
G00 Z2.0000
G00 X0.1544 Y12.9942
G01 F60.00
G01 Z-0.0600
G01 F100.00
G01 X0.1669 Y12.9118
G01 X0.1874 Y12.8309
G01 X0.2138 Y12.7570
G01 X0.2493 Y12.6815
G01 X0.2919 Y12.6098
G01 X0.3414 Y12.5427
G01 X0.3973 Y12.4807
G01 X0.4589 Y12.4245
G01 X0.5258 Y12.3747
G01 X0.5972 Y12.3316
G01 X0.6725 Y12.2957
G01 X0.7509 Y12.2674
G01 X0.8318 Y12.2469
G01 X0.9142 Y12.2344
G01 X1.0025 Y12.2301
G01 X1.0858 Y12.2344
G01 X1.1634 Y12.2459
G01 X1.2444 Y12.2659
G01 X1.3230 Y12.2938
G01 X1.3985 Y12.3293
G01 X1.4742 Y12.3747
G01 X1.5411 Y12.4245
G01 X1.6027 Y12.4807
G01 X1.6586 Y12.5427
G01 X1.7081 Y12.6098
G01 X1.7507 Y12.6815
G01 X1.7843 Y12.7525
G01 X1.8126 Y12.8309
G01 X1.8331 Y12.9118
G01 X1.8456 Y12.9942
G01 X1.8499 Y13.0825
G01 X1.8456 Y13.1658
G01 X1.8341 Y13.2434
G01 X1.8202 Y13.2999
G01 X2.7500 Y13.2999
G01 X2.7501 Y12.8725
G01 X2.7513 Y12.8480
G01 X2.7553 Y12.8189
G01 X2.7623 Y12.7903
G01 X2.7720 Y12.7625
G01 X2.7843 Y12.7358
G01 X2.8020 Y12.7063
G01 X2.8166 Y12.6866
G01 X2.8362 Y12.6646
G01 X2.8616 Y12.6416
G01 X2.8854 Y12.6242
G01 X2.9108 Y12.6093
G01 X2.9330 Y12.5988
G01 X2.9653 Y12.5873
G01 X2.9939 Y12.5803
G01 X3.0182 Y12.5767
G01 X3.0500 Y12.5750
G01 X3.8500 Y12.5750
G01 X3.8818 Y12.5767
G01 X3.9109 Y12.5813
G01 X3.9394 Y12.5887
G01 X3.9670 Y12.5988
G01 X3.9936 Y12.6116
G01 X4.0187 Y12.6270
G01 X4.0422 Y12.6447
G01 X4.0638 Y12.6646
G01 X4.0834 Y12.6866
G01 X4.1008 Y12.7104
G01 X4.1157 Y12.7358
G01 X4.1280 Y12.7625
G01 X4.1363 Y12.7856
G01 X4.1437 Y12.8141
G01 X4.1487 Y12.8480
G01 X4.1500 Y12.8750
G01 X4.1500 Y13.0671
G01 X5.5499 Y11.6671
G01 X5.5500 Y10.0000
G01 X5.5509 Y9.9853
G01 X5.5529 Y9.9732
G01 X5.5562 Y9.9614
G01 X5.5586 Y9.9545
G01 X5.5660 Y9.9389
G01 X5.5725 Y9.9285
G01 X5.5800 Y9.9188
G01 X5.5884 Y9.9099
G01 X5.5938 Y9.9050
G01 X5.6076 Y9.8948
G01 X5.6183 Y9.8887
G01 X5.6249 Y9.8855
G01 X5.6364 Y9.8812
G01 X5.6482 Y9.8779
G01 X5.6652 Y9.8754
G01 X5.6750 Y9.8750
G01 X5.8250 Y9.8750
G01 X5.8397 Y9.8759
G01 X5.8518 Y9.8779
G01 X5.8636 Y9.8812
G01 X5.8705 Y9.8836
G01 X5.8817 Y9.8887
G01 X5.8924 Y9.8948
G01 X5.9024 Y9.9019
G01 X5.9116 Y9.9099
G01 X5.9200 Y9.9188
G01 X5.9302 Y9.9326
G01 X5.9363 Y9.9433
G01 X5.9414 Y9.9545
G01 X5.9438 Y9.9614
G01 X5.9471 Y9.9732
G01 X5.9491 Y9.9853
G01 X5.9500 Y10.0000
G01 X5.9501 Y11.7500
G01 X5.9488 Y11.7720
G01 X5.9457 Y11.7914
G01 X5.9407 Y11.8104
G01 X5.9339 Y11.8288
G01 X5.9252 Y11.8464
G01 X5.9149 Y11.8632
G01 X5.9031 Y11.8788
G01 X5.8915 Y11.8915
G01 X4.1500 Y13.6329
G01 X4.1500 Y14.1250
G01 X4.1483 Y14.1568
G01 X4.1437 Y14.1859
G01 X4.1363 Y14.2144
G01 X4.1280 Y14.2375
G01 X4.1157 Y14.2642
G01 X4.1008 Y14.2896
G01 X4.0834 Y14.3134
G01 X4.0604 Y14.3388
G01 X4.0384 Y14.3584
G01 X4.0146 Y14.3758
G01 X3.9892 Y14.3907
G01 X3.9625 Y14.4030
G01 X3.9394 Y14.4113
G01 X3.9109 Y14.4187
G01 X3.8818 Y14.4233
G01 X3.8525 Y14.4249
G01 X3.0500 Y14.4250
G01 X3.0182 Y14.4233
G01 X2.9939 Y14.4197
G01 X2.9653 Y14.4127
G01 X2.9330 Y14.4012
G01 X2.9064 Y14.3884
G01 X2.8813 Y14.3730
G01 X2.8616 Y14.3584
G01 X2.8396 Y14.3388
G01 X2.8197 Y14.3172
G01 X2.8020 Y14.2937
G01 X2.7866 Y14.2686
G01 X2.7738 Y14.2420
G01 X2.7637 Y14.2144
G01 X2.7563 Y14.1859
G01 X2.7517 Y14.1568
G01 X2.7500 Y14.1250
G01 X2.7500 Y13.7001
G01 X1.5801 Y13.7001
G01 X1.5373 Y13.7386
G01 X1.4742 Y13.7853
G01 X1.3985 Y13.8307
G01 X1.3230 Y13.8662
G01 X1.2491 Y13.8926
G01 X1.1634 Y13.9141
G01 X1.0858 Y13.9256
G01 X1.0025 Y13.9299
G01 X0.9142 Y13.9256
G01 X0.8366 Y13.9141
G01 X0.7556 Y13.8941
G01 X0.6770 Y13.8662
G01 X0.6015 Y13.8307
G01 X0.5298 Y13.7881
G01 X0.4589 Y13.7355
G01 X0.3973 Y13.6793
G01 X0.3445 Y13.6211
G01 X0.2919 Y13.5502
G01 X0.2493 Y13.4785
G01 X0.2138 Y13.4030
G01 X0.1874 Y13.3291
G01 X0.1669 Y13.2482
G01 X0.1544 Y13.1658
G01 X0.1501 Y13.0825
G01 X0.1544 Y12.9942
G00 Z2.0000
G00 X3.5250 Y9.3250
G01 F60.00
G01 Z-0.0600
G01 F100.00
G01 X3.5250 Y9.1750
G01 X3.5254 Y9.1652
G01 X3.5279 Y9.1482
G01 X3.5312 Y9.1364
G01 X3.5355 Y9.1249
G01 X3.5387 Y9.1183
G01 X3.5448 Y9.1076
G01 X3.5550 Y9.0938
G01 X3.5634 Y9.0849
G01 X3.5726 Y9.0769
G01 X3.5785 Y9.0725
G01 X3.5933 Y9.0637
G01 X3.6045 Y9.0586
G01 X3.6114 Y9.0562
G01 X3.6280 Y9.0520
G01 X3.6402 Y9.0504
G01 X3.6500 Y9.0500
G01 X7.1671 Y9.0499
G01 X8.1103 Y8.1068
G01 X8.1212 Y8.0969
G01 X8.1368 Y8.0851
G01 X8.1579 Y8.0724
G01 X8.1757 Y8.0643
G01 X8.1943 Y8.0579
G01 X8.2134 Y8.0533
G01 X8.2280 Y8.0512
G01 X8.2500 Y8.0499
G01 X10.6263 Y8.0499
G01 X10.6334 Y8.0484
G01 X10.6480 Y8.0462
G01 X10.6676 Y8.0450
G01 X10.6921 Y8.0462
G01 X10.7067 Y8.0484
G01 X10.7140 Y8.0500
G01 X11.3525 Y8.0501
G01 X11.3598 Y8.0504
G01 X11.3720 Y8.0520
G01 X11.3839 Y8.0547
G01 X11.3955 Y8.0586
G01 X11.4067 Y8.0637
G01 X11.4174 Y8.0698
G01 X11.4274 Y8.0769
G01 X11.4366 Y8.0849
G01 X11.4481 Y8.0976
G01 X11.4552 Y8.1076
G01 X11.4613 Y8.1183
G01 X11.4664 Y8.1295
G01 X11.4688 Y8.1364
G01 X11.4721 Y8.1482
G01 X11.4741 Y8.1603
G01 X11.4750 Y8.1750
G01 X11.4749 Y8.3275
G01 X11.4746 Y8.3348
G01 X11.4730 Y8.3470
G01 X11.4703 Y8.3589
G01 X11.4664 Y8.3705
G01 X11.4590 Y8.3861
G01 X11.4525 Y8.3965
G01 X11.4481 Y8.4024
G01 X11.4366 Y8.4151
G01 X11.4274 Y8.4231
G01 X11.4215 Y8.4275
G01 X11.4067 Y8.4363
G01 X11.3955 Y8.4414
G01 X11.3886 Y8.4438
G01 X11.3720 Y8.4480
G01 X11.3598 Y8.4496
G01 X11.3500 Y8.4500
G01 X8.3329 Y8.4501
G01 X7.3897 Y9.3932
G01 X7.3788 Y9.4031
G01 X7.3632 Y9.4149
G01 X7.3421 Y9.4276
G01 X7.3243 Y9.4357
G01 X7.3057 Y9.4421
G01 X7.2866 Y9.4467
G01 X7.2720 Y9.4488
G01 X7.2500 Y9.4501
G01 X3.6475 Y9.4499
G01 X3.6353 Y9.4491
G01 X3.6232 Y9.4471
G01 X3.6114 Y9.4438
G01 X3.5999 Y9.4395
G01 X3.5889 Y9.4340
G01 X3.5785 Y9.4275
G01 X3.5688 Y9.4200
G01 X3.5599 Y9.4116
G01 X3.5519 Y9.4024
G01 X3.5448 Y9.3924
G01 X3.5387 Y9.3817
G01 X3.5336 Y9.3705
G01 X3.5297 Y9.3589
G01 X3.5270 Y9.3470
G01 X3.5254 Y9.3348
G01 X3.5250 Y9.3250
G00 Z2.0000
G00 X3.5250 Y8.8250
G01 F60.00
G01 Z-0.0600
G01 F100.00
G01 X3.5251 Y8.6725
G01 X3.5254 Y8.6652
G01 X3.5270 Y8.6530
G01 X3.5297 Y8.6411
G01 X3.5336 Y8.6295
G01 X3.5387 Y8.6183
G01 X3.5475 Y8.6035
G01 X3.5519 Y8.5976
G01 X3.5599 Y8.5884
G01 X3.5726 Y8.5769
G01 X3.5826 Y8.5698
G01 X3.5933 Y8.5637
G01 X3.5999 Y8.5605
G01 X3.6161 Y8.5547
G01 X3.6280 Y8.5520
G01 X3.6353 Y8.5509
G01 X3.6500 Y8.5500
G01 X5.0000 Y8.5500
G01 X5.0098 Y8.5504
G01 X5.0268 Y8.5529
G01 X5.0386 Y8.5562
G01 X5.0501 Y8.5605
G01 X5.0567 Y8.5637
G01 X5.0674 Y8.5698
G01 X5.0774 Y8.5769
G01 X5.0866 Y8.5849
G01 X5.0981 Y8.5976
G01 X5.1052 Y8.6076
G01 X5.1113 Y8.6183
G01 X5.1164 Y8.6295
G01 X5.1188 Y8.6364
G01 X5.1221 Y8.6482
G01 X5.1241 Y8.6603
G01 X5.1250 Y8.6750
G01 X5.1249 Y8.8275
G01 X5.1246 Y8.8348
G01 X5.1230 Y8.8470
G01 X5.1203 Y8.8589
G01 X5.1164 Y8.8705
G01 X5.1113 Y8.8817
G01 X5.1025 Y8.8965
G01 X5.0981 Y8.9024
G01 X5.0901 Y8.9116
G01 X5.0774 Y8.9231
G01 X5.0674 Y8.9302
G01 X5.0567 Y8.9363
G01 X5.0501 Y8.9395
G01 X5.0339 Y8.9453
G01 X5.0220 Y8.9480
G01 X5.0147 Y8.9491
G01 X5.0000 Y8.9500
G01 X3.6500 Y8.9500
G01 X3.6402 Y8.9496
G01 X3.6280 Y8.9480
G01 X3.6161 Y8.9453
G01 X3.6045 Y8.9414
G01 X3.5933 Y8.9363
G01 X3.5826 Y8.9302
G01 X3.5726 Y8.9231
G01 X3.5599 Y8.9116
G01 X3.5519 Y8.9024
G01 X3.5448 Y8.8924
G01 X3.5387 Y8.8817
G01 X3.5336 Y8.8705
G01 X3.5297 Y8.8589
G01 X3.5270 Y8.8470
G01 X3.5254 Y8.8348
G01 X3.5250 Y8.8250
G00 Z2.0000
G00 X3.5250 Y8.3250
G01 F60.00
G01 Z-0.0600
G01 F100.00
G01 X3.5251 Y8.1725
G01 X3.5254 Y8.1652
G01 X3.5270 Y8.1530
G01 X3.5297 Y8.1411
G01 X3.5336 Y8.1295
G01 X3.5387 Y8.1183
G01 X3.5475 Y8.1035
G01 X3.5519 Y8.0976
G01 X3.5599 Y8.0884
G01 X3.5726 Y8.0769
G01 X3.5826 Y8.0698
G01 X3.5933 Y8.0637
G01 X3.5999 Y8.0605
G01 X3.6161 Y8.0547
G01 X3.6280 Y8.0520
G01 X3.6353 Y8.0509
G01 X3.6500 Y8.0500
G01 X5.0000 Y8.0500
G01 X5.0098 Y8.0504
G01 X5.0268 Y8.0529
G01 X5.0386 Y8.0562
G01 X5.0501 Y8.0605
G01 X5.0567 Y8.0637
G01 X5.0674 Y8.0698
G01 X5.0774 Y8.0769
G01 X5.0866 Y8.0849
G01 X5.0981 Y8.0976
G01 X5.1052 Y8.1076
G01 X5.1113 Y8.1183
G01 X5.1164 Y8.1295
G01 X5.1188 Y8.1364
G01 X5.1221 Y8.1482
G01 X5.1241 Y8.1603
G01 X5.1250 Y8.1750
G01 X5.1249 Y8.3275
G01 X5.1246 Y8.3348
G01 X5.1230 Y8.3470
G01 X5.1203 Y8.3589
G01 X5.1164 Y8.3705
G01 X5.1113 Y8.3817
G01 X5.1025 Y8.3965
G01 X5.0981 Y8.4024
G01 X5.0901 Y8.4116
G01 X5.0774 Y8.4231
G01 X5.0674 Y8.4302
G01 X5.0567 Y8.4363
G01 X5.0501 Y8.4395
G01 X5.0339 Y8.4453
G01 X5.0220 Y8.4480
G01 X5.0147 Y8.4491
G01 X5.0000 Y8.4500
G01 X3.6500 Y8.4500
G01 X3.6402 Y8.4496
G01 X3.6280 Y8.4480
G01 X3.6161 Y8.4453
G01 X3.6045 Y8.4414
G01 X3.5933 Y8.4363
G01 X3.5826 Y8.4302
G01 X3.5726 Y8.4231
G01 X3.5599 Y8.4116
G01 X3.5519 Y8.4024
G01 X3.5448 Y8.3924
G01 X3.5387 Y8.3817
G01 X3.5336 Y8.3705
G01 X3.5297 Y8.3589
G01 X3.5270 Y8.3470
G01 X3.5254 Y8.3348
G01 X3.5250 Y8.3250
G00 Z2.0000
G00 X3.5250 Y7.8250
G01 F60.00
G01 Z-0.0600
G01 F100.00
G01 X3.5251 Y7.6725
G01 X3.5254 Y7.6652
G01 X3.5270 Y7.6530
G01 X3.5297 Y7.6411
G01 X3.5336 Y7.6295
G01 X3.5387 Y7.6183
G01 X3.5475 Y7.6035
G01 X3.5519 Y7.5976
G01 X3.5599 Y7.5884
G01 X3.5726 Y7.5769
G01 X3.5826 Y7.5698
G01 X3.5933 Y7.5637
G01 X3.5999 Y7.5605
G01 X3.6161 Y7.5547
G01 X3.6280 Y7.5520
G01 X3.6353 Y7.5509
G01 X3.6500 Y7.5500
G01 X5.0000 Y7.5500
G01 X5.0098 Y7.5504
G01 X5.0268 Y7.5529
G01 X5.0386 Y7.5562
G01 X5.0501 Y7.5605
G01 X5.0567 Y7.5637
G01 X5.0674 Y7.5698
G01 X5.0774 Y7.5769
G01 X5.0866 Y7.5849
G01 X5.0981 Y7.5976
G01 X5.1052 Y7.6076
G01 X5.1113 Y7.6183
G01 X5.1164 Y7.6295
G01 X5.1188 Y7.6364
G01 X5.1221 Y7.6482
G01 X5.1241 Y7.6603
G01 X5.1250 Y7.6750
G01 X5.1249 Y7.8275
G01 X5.1246 Y7.8348
G01 X5.1230 Y7.8470
G01 X5.1203 Y7.8589
G01 X5.1164 Y7.8705
G01 X5.1113 Y7.8817
G01 X5.1025 Y7.8965
G01 X5.0981 Y7.9024
G01 X5.0901 Y7.9116
G01 X5.0774 Y7.9231
G01 X5.0674 Y7.9302
G01 X5.0567 Y7.9363
G01 X5.0501 Y7.9395
G01 X5.0339 Y7.9453
G01 X5.0220 Y7.9480
G01 X5.0147 Y7.9491
G01 X5.0000 Y7.9500
G01 X3.6500 Y7.9500
G01 X3.6402 Y7.9496
G01 X3.6280 Y7.9480
G01 X3.6161 Y7.9453
G01 X3.6045 Y7.9414
G01 X3.5933 Y7.9363
G01 X3.5826 Y7.9302
G01 X3.5726 Y7.9231
G01 X3.5599 Y7.9116
G01 X3.5519 Y7.9024
G01 X3.5448 Y7.8924
G01 X3.5387 Y7.8817
G01 X3.5336 Y7.8705
G01 X3.5297 Y7.8589
G01 X3.5270 Y7.8470
G01 X3.5254 Y7.8348
G01 X3.5250 Y7.8250
G00 Z2.0000
G00 X3.5250 Y7.3250
G01 F60.00
G01 Z-0.0600
G01 F100.00
G01 X3.5251 Y7.1725
G01 X3.5254 Y7.1652
G01 X3.5270 Y7.1530
G01 X3.5297 Y7.1411
G01 X3.5336 Y7.1295
G01 X3.5387 Y7.1183
G01 X3.5475 Y7.1035
G01 X3.5519 Y7.0976
G01 X3.5599 Y7.0884
G01 X3.5726 Y7.0769
G01 X3.5826 Y7.0698
G01 X3.5933 Y7.0637
G01 X3.5999 Y7.0605
G01 X3.6161 Y7.0547
G01 X3.6280 Y7.0520
G01 X3.6353 Y7.0509
G01 X3.6500 Y7.0500
G01 X5.0000 Y7.0500
G01 X5.0098 Y7.0504
G01 X5.0268 Y7.0529
G01 X5.0386 Y7.0562
G01 X5.0501 Y7.0605
G01 X5.0567 Y7.0637
G01 X5.0674 Y7.0698
G01 X5.0774 Y7.0769
G01 X5.0866 Y7.0849
G01 X5.0981 Y7.0976
G01 X5.1052 Y7.1076
G01 X5.1113 Y7.1183
G01 X5.1164 Y7.1295
G01 X5.1188 Y7.1364
G01 X5.1221 Y7.1482
G01 X5.1241 Y7.1603
G01 X5.1250 Y7.1750
G01 X5.1249 Y7.3275
G01 X5.1246 Y7.3348
G01 X5.1230 Y7.3470
G01 X5.1203 Y7.3589
G01 X5.1164 Y7.3705
G01 X5.1113 Y7.3817
G01 X5.1025 Y7.3965
G01 X5.0981 Y7.4024
G01 X5.0901 Y7.4116
G01 X5.0774 Y7.4231
G01 X5.0674 Y7.4302
G01 X5.0567 Y7.4363
G01 X5.0501 Y7.4395
G01 X5.0339 Y7.4453
G01 X5.0220 Y7.4480
G01 X5.0147 Y7.4491
G01 X5.0000 Y7.4500
G01 X3.6500 Y7.4500
G01 X3.6402 Y7.4496
G01 X3.6280 Y7.4480
G01 X3.6161 Y7.4453
G01 X3.6045 Y7.4414
G01 X3.5933 Y7.4363
G01 X3.5826 Y7.4302
G01 X3.5726 Y7.4231
G01 X3.5599 Y7.4116
G01 X3.5519 Y7.4024
G01 X3.5448 Y7.3924
G01 X3.5387 Y7.3817
G01 X3.5336 Y7.3705
G01 X3.5297 Y7.3589
G01 X3.5270 Y7.3470
G01 X3.5254 Y7.3348
G01 X3.5250 Y7.3250
G00 Z2.0000
G00 X3.5250 Y6.8250
G01 F60.00
G01 Z-0.0600
G01 F100.00
G01 X3.5251 Y6.6725
G01 X3.5254 Y6.6652
G01 X3.5270 Y6.6530
G01 X3.5297 Y6.6411
G01 X3.5336 Y6.6295
G01 X3.5387 Y6.6183
G01 X3.5475 Y6.6035
G01 X3.5519 Y6.5976
G01 X3.5599 Y6.5884
G01 X3.5726 Y6.5769
G01 X3.5826 Y6.5698
G01 X3.5933 Y6.5637
G01 X3.5999 Y6.5605
G01 X3.6161 Y6.5547
G01 X3.6280 Y6.5520
G01 X3.6353 Y6.5509
G01 X3.6500 Y6.5500
G01 X5.0000 Y6.5500
G01 X5.0098 Y6.5504
G01 X5.0268 Y6.5529
G01 X5.0386 Y6.5562
G01 X5.0501 Y6.5605
G01 X5.0567 Y6.5637
G01 X5.0674 Y6.5698
G01 X5.0774 Y6.5769
G01 X5.0866 Y6.5849
G01 X5.0981 Y6.5976
G01 X5.1052 Y6.6076
G01 X5.1113 Y6.6183
G01 X5.1164 Y6.6295
G01 X5.1188 Y6.6364
G01 X5.1221 Y6.6482
G01 X5.1241 Y6.6603
G01 X5.1250 Y6.6750
G01 X5.1249 Y6.8275
G01 X5.1246 Y6.8348
G01 X5.1230 Y6.8470
G01 X5.1203 Y6.8589
G01 X5.1164 Y6.8705
G01 X5.1113 Y6.8817
G01 X5.1025 Y6.8965
G01 X5.0981 Y6.9024
G01 X5.0901 Y6.9116
G01 X5.0774 Y6.9231
G01 X5.0674 Y6.9302
G01 X5.0567 Y6.9363
G01 X5.0501 Y6.9395
G01 X5.0339 Y6.9453
G01 X5.0220 Y6.9480
G01 X5.0147 Y6.9491
G01 X5.0000 Y6.9500
G01 X3.6500 Y6.9500
G01 X3.6402 Y6.9496
G01 X3.6280 Y6.9480
G01 X3.6161 Y6.9453
G01 X3.6045 Y6.9414
G01 X3.5933 Y6.9363
G01 X3.5826 Y6.9302
G01 X3.5726 Y6.9231
G01 X3.5599 Y6.9116
G01 X3.5519 Y6.9024
G01 X3.5448 Y6.8924
G01 X3.5387 Y6.8817
G01 X3.5336 Y6.8705
G01 X3.5297 Y6.8589
G01 X3.5270 Y6.8470
G01 X3.5254 Y6.8348
G01 X3.5250 Y6.8250
G00 Z2.0000
G00 X3.5250 Y6.3250
G01 F60.00
G01 Z-0.0600
G01 F100.00
G01 X3.5251 Y6.1725
G01 X3.5254 Y6.1652
G01 X3.5270 Y6.1530
G01 X3.5297 Y6.1411
G01 X3.5336 Y6.1295
G01 X3.5387 Y6.1183
G01 X3.5475 Y6.1035
G01 X3.5519 Y6.0976
G01 X3.5599 Y6.0884
G01 X3.5726 Y6.0769
G01 X3.5826 Y6.0698
G01 X3.5933 Y6.0637
G01 X3.5999 Y6.0605
G01 X3.6161 Y6.0547
G01 X3.6280 Y6.0520
G01 X3.6353 Y6.0509
G01 X3.6500 Y6.0500
G01 X5.0000 Y6.0500
G01 X5.0098 Y6.0504
G01 X5.0268 Y6.0529
G01 X5.0386 Y6.0562
G01 X5.0501 Y6.0605
G01 X5.0567 Y6.0637
G01 X5.0674 Y6.0698
G01 X5.0774 Y6.0769
G01 X5.0866 Y6.0849
G01 X5.0981 Y6.0976
G01 X5.1052 Y6.1076
G01 X5.1113 Y6.1183
G01 X5.1164 Y6.1295
G01 X5.1188 Y6.1364
G01 X5.1221 Y6.1482
G01 X5.1241 Y6.1603
G01 X5.1250 Y6.1750
G01 X5.1249 Y6.3275
G01 X5.1246 Y6.3348
G01 X5.1230 Y6.3470
G01 X5.1203 Y6.3589
G01 X5.1164 Y6.3705
G01 X5.1113 Y6.3817
G01 X5.1025 Y6.3965
G01 X5.0981 Y6.4024
G01 X5.0901 Y6.4116
G01 X5.0774 Y6.4231
G01 X5.0674 Y6.4302
G01 X5.0567 Y6.4363
G01 X5.0501 Y6.4395
G01 X5.0339 Y6.4453
G01 X5.0220 Y6.4480
G01 X5.0147 Y6.4491
G01 X5.0000 Y6.4500
G01 X3.6500 Y6.4500
G01 X3.6402 Y6.4496
G01 X3.6280 Y6.4480
G01 X3.6161 Y6.4453
G01 X3.6045 Y6.4414
G01 X3.5933 Y6.4363
G01 X3.5826 Y6.4302
G01 X3.5726 Y6.4231
G01 X3.5599 Y6.4116
G01 X3.5519 Y6.4024
G01 X3.5448 Y6.3924
G01 X3.5387 Y6.3817
G01 X3.5336 Y6.3705
G01 X3.5297 Y6.3589
G01 X3.5270 Y6.3470
G01 X3.5254 Y6.3348
G01 X3.5250 Y6.3250
G00 Z2.0000
G00 X5.7688 Y6.3630
G01 F60.00
G01 Z-0.0600
G01 F100.00
G01 X5.7701 Y6.3521
G01 X5.7725 Y6.3413
G01 X5.7760 Y6.3308
G01 X5.7794 Y6.3229
G01 X6.0174 Y5.8229
G01 X6.0242 Y5.8109
G01 X6.0307 Y5.8017
G01 X6.0381 Y5.7932
G01 X6.0463 Y5.7855
G01 X6.0553 Y5.7786
G01 X6.0649 Y5.7727
G01 X6.0751 Y5.7678
G01 X6.0809 Y5.7655
G01 X6.0856 Y5.7639
G01 X6.0966 Y5.7611
G01 X6.1077 Y5.7594
G01 X6.1190 Y5.7588
G01 X6.1303 Y5.7594
G01 X6.1365 Y5.7602
G01 X6.1475 Y5.7625
G01 X6.1583 Y5.7659
G01 X6.1629 Y5.7677
G01 X6.1731 Y5.7726
G01 X6.1827 Y5.7786
G01 X6.1878 Y5.7822
G01 X6.1963 Y5.7896
G01 X6.2041 Y5.7977
G01 X6.2111 Y5.8066
G01 X6.2171 Y5.8162
G01 X6.3095 Y5.9893
G01 X6.4007 Y5.8184
G01 X6.4080 Y5.8066
G01 X6.4149 Y5.7977
G01 X6.4227 Y5.7896
G01 X6.4313 Y5.7822
G01 X6.4405 Y5.7758
G01 X6.4504 Y5.7703
G01 X6.4608 Y5.7659
G01 X6.4667 Y5.7639
G01 X6.4776 Y5.7611
G01 X6.4888 Y5.7594
G01 X6.5001 Y5.7588
G01 X6.5113 Y5.7594
G01 X6.5163 Y5.7600
G01 X6.5274 Y5.7622
G01 X6.5382 Y5.7655
G01 X6.5440 Y5.7678
G01 X6.5541 Y5.7727
G01 X6.5637 Y5.7786
G01 X6.5678 Y5.7816
G01 X6.5765 Y5.7888
G01 X6.5809 Y5.7932
G01 X6.5884 Y5.8017
G01 X6.5914 Y5.8057
G01 X6.5975 Y5.8152
G01 X6.6016 Y5.8229
G01 X6.8397 Y6.3229
G01 X6.8447 Y6.3354
G01 X6.8477 Y6.3461
G01 X6.8497 Y6.3569
G01 X6.8503 Y6.3630
G01 X6.8506 Y6.3741
G01 X6.8490 Y6.3899
G01 X6.8479 Y6.3960
G01 X6.8449 Y6.4066
G01 X6.8409 Y6.4169
G01 X6.8335 Y6.4310
G01 X6.8301 Y6.4361
G01 X6.8233 Y6.4448
G01 X6.8120 Y6.4561
G01 X6.8034 Y6.4629
G01 X6.7983 Y6.4664
G01 X6.7887 Y6.4718
G01 X6.7740 Y6.4779
G01 X6.7633 Y6.4809
G01 X6.7525 Y6.4829
G01 X6.7464 Y6.4835
G01 X6.7304 Y6.4835
G01 X6.7195 Y6.4823
G01 X6.7134 Y6.4811
G01 X6.7028 Y6.4781
G01 X6.6881 Y6.4721
G01 X6.6784 Y6.4667
G01 X6.6733 Y6.4633
G01 X6.6610 Y6.4532
G01 X6.6533 Y6.4452
G01 X6.6465 Y6.4366
G01 X6.6430 Y6.4315
G01 X6.6376 Y6.4219
G01 X6.4943 Y6.1211
G01 X6.4088 Y6.2814
G01 X6.4017 Y6.2929
G01 X6.3950 Y6.3016
G01 X6.3874 Y6.3097
G01 X6.3790 Y6.3169
G01 X6.3741 Y6.3206
G01 X6.3604 Y6.3288
G01 X6.3503 Y6.3333
G01 X6.3445 Y6.3354
G01 X6.3291 Y6.3392
G01 X6.3230 Y6.3401
G01 X6.3120 Y6.3409
G01 X6.3009 Y6.3406
G01 X6.2852 Y6.3383
G01 X6.2745 Y6.3354
G01 X6.2687 Y6.3333
G01 X6.2543 Y6.3265
G01 X6.2449 Y6.3206
G01 X6.2400 Y6.3169
G01 X6.2317 Y6.3097
G01 X6.2210 Y6.2978
G01 X6.2173 Y6.2929
G01 X6.2114 Y6.2835
G01 X6.1247 Y6.1211
G01 X5.9814 Y6.4219
G01 X5.9760 Y6.4315
G01 X5.9726 Y6.4366
G01 X5.9657 Y6.4452
G01 X5.9581 Y6.4532
G01 X5.9457 Y6.4633
G01 X5.9406 Y6.4667
G01 X5.9310 Y6.4721
G01 X5.9163 Y6.4781
G01 X5.9056 Y6.4811
G01 X5.8996 Y6.4823
G01 X5.8837 Y6.4838
G01 X5.8727 Y6.4835
G01 X5.8617 Y6.4822
G01 X5.8557 Y6.4809
G01 X5.8405 Y6.4763
G01 X5.8348 Y6.4739
G01 X5.8250 Y6.4689
G01 X5.8117 Y6.4600
G01 X5.8034 Y6.4528
G01 X5.7991 Y6.4484
G01 X5.7919 Y6.4400
G01 X5.7831 Y6.4268
G01 X5.7781 Y6.4169
G01 X5.7758 Y6.4112
G01 X5.7712 Y6.3960
G01 X5.7700 Y6.3899
G01 X5.7687 Y6.3790
G01 X5.7688 Y6.3630
G00 Z2.0000
G00 X5.9113 Y7.1763
G01 F60.00
G01 Z-0.0600
G01 F100.00
G01 X5.9113 Y6.6763
G01 X5.9116 Y6.6677
G01 X5.9130 Y6.6568
G01 X5.9155 Y6.6460
G01 X5.9208 Y6.6310
G01 X5.9258 Y6.6211
G01 X5.9317 Y6.6118
G01 X5.9353 Y6.6069
G01 X5.9425 Y6.5985
G01 X5.9506 Y6.5909
G01 X5.9593 Y6.5842
G01 X5.9686 Y6.5783
G01 X5.9785 Y6.5733
G01 X5.9888 Y6.5694
G01 X5.9995 Y6.5665
G01 X6.0103 Y6.5646
G01 X6.0214 Y6.5638
G01 X6.0324 Y6.5641
G01 X6.0433 Y6.5655
G01 X6.0541 Y6.5680
G01 X6.0646 Y6.5715
G01 X6.0747 Y6.5760
G01 X6.0843 Y6.5814
G01 X6.0933 Y6.5878
G01 X6.1016 Y6.5950
G01 X6.1092 Y6.6031
G01 X6.1160 Y6.6118
G01 X6.1242 Y6.6255
G01 X6.1287 Y6.6355
G01 X6.1307 Y6.6413
G01 X6.1336 Y6.6520
G01 X6.1360 Y6.6677
G01 X6.1363 Y6.6763
G01 X6.1363 Y6.8257
G01 X6.4827 Y6.8257
G01 X6.4827 Y6.6763
G01 X6.4835 Y6.6628
G01 X6.4844 Y6.6568
G01 X6.4869 Y6.6460
G01 X6.4904 Y6.6355
G01 X6.4949 Y6.6255
G01 X6.5031 Y6.6118
G01 X6.5067 Y6.6069
G01 X6.5140 Y6.5985
G01 X6.5220 Y6.5909
G01 X6.5348 Y6.5814
G01 X6.5444 Y6.5760
G01 X6.5545 Y6.5715
G01 X6.5649 Y6.5680
G01 X6.5757 Y6.5655
G01 X6.5818 Y6.5646
G01 X6.5928 Y6.5638
G01 X6.6038 Y6.5641
G01 X6.6148 Y6.5655
G01 X6.6255 Y6.5680
G01 X6.6405 Y6.5733
G01 X6.6504 Y6.5783
G01 X6.6598 Y6.5842
G01 X6.6647 Y6.5878
G01 X6.6730 Y6.5950
G01 X6.6806 Y6.6031
G01 X6.6874 Y6.6118
G01 X6.6956 Y6.6255
G01 X6.7001 Y6.6355
G01 X6.7022 Y6.6413
G01 X6.7060 Y6.6568
G01 X6.7074 Y6.6677
G01 X6.7077 Y6.6739
G01 X6.7077 Y7.1788
G01 X6.7074 Y7.1849
G01 X6.7060 Y7.1958
G01 X6.7036 Y7.2066
G01 X6.6982 Y7.2216
G01 X6.6933 Y7.2315
G01 X6.6874 Y7.2408
G01 X6.6837 Y7.2458
G01 X6.6765 Y7.2541
G01 X6.6685 Y7.2617
G01 X6.6598 Y7.2685
G01 X6.6504 Y7.2743
G01 X6.6405 Y7.2793
G01 X6.6302 Y7.2832
G01 X6.6196 Y7.2861
G01 X6.6087 Y7.2880
G01 X6.5977 Y7.2888
G01 X6.5867 Y7.2885
G01 X6.5757 Y7.2871
G01 X6.5602 Y7.2832
G01 X6.5499 Y7.2793
G01 X6.5401 Y7.2743
G01 X6.5307 Y7.2685
G01 X6.5220 Y7.2617
G01 X6.5140 Y7.2541
G01 X6.5067 Y7.2458
G01 X6.5031 Y7.2408
G01 X6.4972 Y7.2315
G01 X6.4923 Y7.2216
G01 X6.4869 Y7.2066
G01 X6.4844 Y7.1958
G01 X6.4835 Y7.1898
G01 X6.4827 Y7.1763
G01 X6.4827 Y7.0507
G01 X6.1363 Y7.0507
G01 X6.1363 Y7.1788
G01 X6.1355 Y7.1898
G01 X6.1336 Y7.2007
G01 X6.1307 Y7.2113
G01 X6.1287 Y7.2171
G01 X6.1218 Y7.2315
G01 X6.1160 Y7.2408
G01 X6.1123 Y7.2458
G01 X6.1051 Y7.2541
G01 X6.0971 Y7.2617
G01 X6.0843 Y7.2712
G01 X6.0747 Y7.2767
G01 X6.0646 Y7.2812
G01 X6.0588 Y7.2832
G01 X6.0482 Y7.2861
G01 X6.0324 Y7.2885
G01 X6.0214 Y7.2888
G01 X6.0103 Y7.2880
G01 X5.9995 Y7.2861
G01 X5.9888 Y7.2832
G01 X5.9830 Y7.2812
G01 X5.9730 Y7.2767
G01 X5.9634 Y7.2712
G01 X5.9544 Y7.2648
G01 X5.9425 Y7.2541
G01 X5.9353 Y7.2458
G01 X5.9289 Y7.2368
G01 X5.9235 Y7.2272
G01 X5.9190 Y7.2171
G01 X5.9169 Y7.2113
G01 X5.9140 Y7.2007
G01 X5.9121 Y7.1898
G01 X5.9113 Y7.1763
G00 Z2.0000
G00 X6.9120 Y6.8541
G01 F60.00
G01 Z-0.0600
G01 F100.00
G01 X6.9128 Y6.8483
G01 X6.9150 Y6.8381
G01 X6.9181 Y6.8282
G01 X6.9222 Y6.8186
G01 X6.9708 Y6.7212
G01 X6.9783 Y6.7085
G01 X6.9855 Y6.6989
G01 X6.9919 Y6.6920
G01 X7.0395 Y6.6444
G01 X7.0506 Y6.6347
G01 X7.0605 Y6.6279
G01 X7.0687 Y6.6233
G01 X7.1163 Y6.5995
G01 X7.1302 Y6.5937
G01 X7.1394 Y6.5909
G01 X7.2376 Y6.5665
G01 X7.2512 Y6.5643
G01 X7.2619 Y6.5638
G01 X7.3571 Y6.5638
G01 X7.3678 Y6.5643
G01 X7.3814 Y6.5665
G01 X7.4797 Y6.5909
G01 X7.4888 Y6.5937
G01 X7.5027 Y6.5995
G01 X7.5527 Y6.6245
G01 X7.5630 Y6.6308
G01 X7.5726 Y6.6380
G01 X7.5776 Y6.6425
G01 X7.6272 Y6.6920
G01 X7.6369 Y6.7031
G01 X7.6437 Y6.7130
G01 X7.6483 Y6.7212
G01 X7.6959 Y6.8165
G01 X7.7009 Y6.8282
G01 X7.7028 Y6.8337
G01 X7.7054 Y6.8438
G01 X7.7070 Y6.8541
G01 X7.7078 Y6.8668
G01 X7.7078 Y6.9858
G01 X7.7070 Y6.9986
G01 X7.7054 Y7.0089
G01 X7.7028 Y7.0190
G01 X7.7009 Y7.0244
G01 X7.6959 Y7.0362
G01 X7.6483 Y7.1314
G01 X7.6408 Y7.1441
G01 X7.6335 Y7.1537
G01 X7.6272 Y7.1606
G01 X7.5796 Y7.2083
G01 X7.5685 Y7.2179
G01 X7.5585 Y7.2248
G01 X7.5503 Y7.2293
G01 X7.5027 Y7.2532
G01 X7.4888 Y7.2589
G01 X7.4797 Y7.2617
G01 X7.3814 Y7.2861
G01 X7.3678 Y7.2883
G01 X7.3571 Y7.2888
G01 X7.2619 Y7.2888
G01 X7.2533 Y7.2885
G01 X7.2424 Y7.2871
G01 X7.2346 Y7.2855
G01 X7.1394 Y7.2617
G01 X7.1302 Y7.2589
G01 X7.1163 Y7.2532
G01 X7.0687 Y7.2293
G01 X7.0560 Y7.2219
G01 X7.0464 Y7.2146
G01 X7.0414 Y7.2101
G01 X6.9919 Y7.1606
G01 X6.9822 Y7.1495
G01 X6.9754 Y7.1396
G01 X6.9708 Y7.1314
G01 X6.9232 Y7.0362
G01 X6.9181 Y7.0244
G01 X6.9150 Y7.0145
G01 X6.9128 Y7.0043
G01 X6.9120 Y6.9986
G01 X6.9113 Y6.9858
G01 X6.9113 Y6.8668
G01 X6.9120 Y6.8541
G00 Z2.0000
G00 X7.2758 Y7.0638
G01 F60.00
G01 Z-0.0600
G01 F100.00
G01 X7.2059 Y7.0463
G01 X7.1857 Y7.0362
G01 X7.1639 Y7.0144
G01 X7.1363 Y6.9593
G01 X7.1363 Y6.8934
G01 X7.1639 Y6.8382
G01 X7.1857 Y6.8164
G01 X7.2059 Y6.8063
G01 X7.2758 Y6.7888
G01 X7.3433 Y6.7888
G01 X7.4131 Y6.8063
G01 X7.4333 Y6.8164
G01 X7.4551 Y6.8382
G01 X7.4827 Y6.8934
G01 X7.4827 Y6.9593
G01 X7.4551 Y7.0144
G01 X7.4333 Y7.0362
G01 X7.4131 Y7.0463
G01 X7.3433 Y7.0638
G01 X7.2758 Y7.0638
G00 Z2.0000
G00 X7.8652 Y6.6816
G01 F60.00
G01 Z-0.0600
G01 F100.00
G01 X7.8675 Y6.6710
G01 X7.8708 Y6.6607
G01 X7.8751 Y6.6507
G01 X7.8803 Y6.6412
G01 X7.8864 Y6.6323
G01 X7.8934 Y6.6240
G01 X7.9011 Y6.6164
G01 X7.9095 Y6.6095
G01 X7.9185 Y6.6035
G01 X7.9259 Y6.5995
G01 X7.9735 Y6.5757
G01 X7.9830 Y6.5715
G01 X7.9888 Y6.5694
G01 X7.9976 Y6.5669
G01 X8.0090 Y6.5648
G01 X8.0214 Y6.5638
G01 X8.0324 Y6.5641
G01 X8.0433 Y6.5655
G01 X8.0541 Y6.5680
G01 X8.0646 Y6.5715
G01 X8.0741 Y6.5757
G01 X8.1218 Y6.5995
G01 X8.1291 Y6.6035
G01 X8.1381 Y6.6095
G01 X8.1501 Y6.6197
G01 X8.1574 Y6.6276
G01 X8.1640 Y6.6362
G01 X8.1673 Y6.6412
G01 X8.1725 Y6.6507
G01 X8.1768 Y6.6607
G01 X8.1801 Y6.6710
G01 X8.1824 Y6.6816
G01 X8.1839 Y6.6971
G01 X8.1837 Y6.7079
G01 X8.1824 Y6.7187
G01 X8.1812 Y6.7246
G01 X8.1784 Y6.7350
G01 X8.1745 Y6.7452
G01 X8.1697 Y6.7549
G01 X8.1612 Y6.7679
G01 X8.1542 Y6.7763
G01 X8.1465 Y6.7839
G01 X8.1381 Y6.7907
G01 X8.1291 Y6.7967
G01 X8.1218 Y6.8008
G01 X8.0741 Y6.8246
G01 X8.0617 Y6.8298
G01 X8.0501 Y6.8333
G01 X8.0394 Y6.8353
G01 X8.0286 Y6.8363
G01 X8.0128 Y6.8359
G01 X8.0021 Y6.8343
G01 X7.9915 Y6.8317
G01 X7.9812 Y6.8281
G01 X7.9735 Y6.8246
G01 X7.9259 Y6.8008
G01 X7.9185 Y6.7967
G01 X7.9057 Y6.7878
G01 X7.8976 Y6.7806
G01 X7.8934 Y6.7763
G01 X7.8864 Y6.7679
G01 X7.8779 Y6.7549
G01 X7.8731 Y6.7452
G01 X7.8692 Y6.7350
G01 X7.8664 Y6.7246
G01 X7.8652 Y6.7187
G01 X7.8640 Y6.7079
G01 X7.8637 Y6.6971
G01 X7.8652 Y6.6816
G00 Z2.0000
G00 X8.3406 Y6.9253
G01 F60.00
G01 Z-0.0600
G01 F100.00
G01 X8.3415 Y6.9193
G01 X8.3438 Y6.9086
G01 X8.3490 Y6.8937
G01 X8.3516 Y6.8882
G01 X8.3569 Y6.8787
G01 X8.3662 Y6.8660
G01 X8.3736 Y6.8579
G01 X8.3780 Y6.8538
G01 X8.3905 Y6.8443
G01 X8.3957 Y6.8411
G01 X8.4054 Y6.8360
G01 X8.4182 Y6.8311
G01 X8.4043 Y6.8256
G01 X8.3945 Y6.8204
G01 X8.3894 Y6.8171
G01 X8.3805 Y6.8105
G01 X8.3724 Y6.8030
G01 X8.3650 Y6.7948
G01 X8.3559 Y6.7818
G01 X8.3507 Y6.7720
G01 X8.3465 Y6.7618
G01 X8.3433 Y6.7513
G01 X8.3411 Y6.7404
G01 X8.3404 Y6.7343
G01 X8.3399 Y6.7233
G01 X8.3405 Y6.7123
G01 X8.3422 Y6.7014
G01 X8.3465 Y6.6860
G01 X8.3507 Y6.6758
G01 X8.3559 Y6.6661
G01 X8.3620 Y6.6569
G01 X8.3690 Y6.6484
G01 X8.3768 Y6.6406
G01 X8.3854 Y6.6336
G01 X8.3945 Y6.6274
G01 X8.4021 Y6.6233
G01 X8.4497 Y6.5995
G01 X8.4584 Y6.5956
G01 X8.4727 Y6.5909
G01 X8.5679 Y6.5671
G01 X8.5785 Y6.5651
G01 X8.5845 Y6.5643
G01 X8.5952 Y6.5638
G01 X8.8333 Y6.5638
G01 X8.8440 Y6.5643
G01 X8.8501 Y6.5651
G01 X8.8606 Y6.5671
G01 X8.9559 Y6.5909
G01 X8.9650 Y6.5937
G01 X8.9789 Y6.5995
G01 X9.0289 Y6.6245
G01 X9.0392 Y6.6308
G01 X9.0447 Y6.6347
G01 X9.0538 Y6.6425
G01 X9.1034 Y6.6920
G01 X9.1123 Y6.7021
G01 X9.1187 Y6.7111
G01 X9.1242 Y6.7207
G01 X9.1287 Y6.7308
G01 X9.1307 Y6.7366
G01 X9.1336 Y6.7472
G01 X9.1355 Y6.7581
G01 X9.1363 Y6.7715
G01 X9.1363 Y6.8930
G01 X9.1355 Y6.9041
G01 X9.1336 Y6.9149
G01 X9.1307 Y6.9256
G01 X9.1287 Y6.9314
G01 X9.1242 Y6.9415
G01 X9.1160 Y6.9551
G01 X9.1123 Y6.9601
G01 X9.1051 Y6.9684
G01 X9.0558 Y7.0178
G01 X9.0488 Y7.0241
G01 X9.0392 Y7.0314
G01 X9.0289 Y7.0376
G01 X8.9765 Y7.0638
G01 X8.9848 Y7.0641
G01 X8.9957 Y7.0655
G01 X9.0065 Y7.0680
G01 X9.0170 Y7.0715
G01 X9.0314 Y7.0783
G01 X9.0407 Y7.0842
G01 X9.0494 Y7.0909
G01 X9.0575 Y7.0985
G01 X9.0616 Y7.1031
G01 X9.0683 Y7.1118
G01 X9.0742 Y7.1211
G01 X9.0792 Y7.1310
G01 X9.0831 Y7.1413
G01 X9.0860 Y7.1520
G01 X9.0879 Y7.1628
G01 X9.0887 Y7.1788
G01 X9.0879 Y7.1898
G01 X9.0860 Y7.2007
G01 X9.0831 Y7.2113
G01 X9.0792 Y7.2216
G01 X9.0742 Y7.2315
G01 X9.0683 Y7.2408
G01 X9.0616 Y7.2496
G01 X9.0540 Y7.2576
G01 X9.0456 Y7.2648
G01 X9.0407 Y7.2685
G01 X9.0314 Y7.2743
G01 X9.0215 Y7.2793
G01 X9.0112 Y7.2832
G01 X9.0005 Y7.2861
G01 X8.9897 Y7.2880
G01 X8.9762 Y7.2888
G01 X8.5000 Y7.2888
G01 X8.4865 Y7.2880
G01 X8.4805 Y7.2871
G01 X8.4697 Y7.2847
G01 X8.4547 Y7.2793
G01 X8.4449 Y7.2744
G01 X8.4355 Y7.2685
G01 X8.4268 Y7.2617
G01 X8.4188 Y7.2542
G01 X8.4116 Y7.2458
G01 X8.4052 Y7.2368
G01 X8.3997 Y7.2272
G01 X8.3952 Y7.2172
G01 X8.3917 Y7.2067
G01 X8.3897 Y7.1984
G01 X8.3420 Y6.9603
G01 X8.3407 Y6.9519
G01 X8.3399 Y6.9410
G01 X8.3406 Y6.9253
G00 Z2.0000
G00 X8.4866 Y6.8311
G01 F60.00
G01 Z-0.0600
G01 F100.00
G01 X8.4949 Y6.8281
G01 X8.5027 Y6.8246
G01 X8.5393 Y6.8063
G01 X8.6091 Y6.7888
G01 X8.8195 Y6.7888
G01 X8.8893 Y6.8063
G01 X8.9095 Y6.8164
G01 X8.9113 Y6.8182
G01 X8.9113 Y6.8440
G01 X8.9095 Y6.8457
G01 X8.8893 Y6.8558
G01 X8.8195 Y6.8733
G01 X8.6091 Y6.8733
G01 X8.5393 Y6.8558
G01 X8.5005 Y6.8365
G01 X8.4950 Y6.8341
G01 X8.4866 Y6.8311
G00 Z2.0000
G00 X8.7519 Y6.2588
G01 F60.00
G01 Z-0.0600
G01 F100.00
G01 X8.6821 Y6.2413
G01 X8.6619 Y6.2312
G01 X8.6401 Y6.2094
G01 X8.6125 Y6.1543
G01 X8.6125 Y6.0884
G01 X8.6401 Y6.0332
G01 X8.6619 Y6.0114
G01 X8.6821 Y6.0013
G01 X8.7519 Y5.9838
G01 X8.8195 Y5.9838
G01 X8.8893 Y6.0013
G01 X8.9095 Y6.0114
G01 X8.9313 Y6.0332
G01 X8.9589 Y6.0884
G01 X8.9589 Y6.1543
G01 X8.9313 Y6.2094
G01 X8.9095 Y6.2312
G01 X8.8893 Y6.2413
G01 X8.8195 Y6.2588
G01 X8.7519 Y6.2588
G00 Z2.0000
G00 X8.3882 Y6.0491
G01 F60.00
G01 Z-0.0600
G01 F100.00
G01 X8.3890 Y6.0433
G01 X8.3912 Y6.0331
G01 X8.3943 Y6.0232
G01 X8.3984 Y6.0136
G01 X8.4470 Y5.9162
G01 X8.4544 Y5.9035
G01 X8.4617 Y5.8939
G01 X8.4680 Y5.8870
G01 X8.5157 Y5.8394
G01 X8.5268 Y5.8297
G01 X8.5367 Y5.8229
G01 X8.5449 Y5.8183
G01 X8.5925 Y5.7945
G01 X8.6064 Y5.7887
G01 X8.6156 Y5.7859
G01 X8.7138 Y5.7615
G01 X8.7274 Y5.7593
G01 X8.7381 Y5.7588
G01 X8.8333 Y5.7588
G01 X8.8440 Y5.7593
G01 X8.8576 Y5.7615
G01 X8.9559 Y5.7859
G01 X8.9650 Y5.7887
G01 X8.9789 Y5.7945
G01 X9.0289 Y5.8195
G01 X9.0392 Y5.8258
G01 X9.0447 Y5.8297
G01 X9.0538 Y5.8375
G01 X9.1034 Y5.8870
G01 X9.1131 Y5.8981
G01 X9.1199 Y5.9080
G01 X9.1245 Y5.9162
G01 X9.1721 Y6.0115
G01 X9.1771 Y6.0232
G01 X9.1789 Y6.0287
G01 X9.1815 Y6.0388
G01 X9.1832 Y6.0491
G01 X9.1840 Y6.0618
G01 X9.1840 Y6.1808
G01 X9.1832 Y6.1936
G01 X9.1815 Y6.2039
G01 X9.1789 Y6.2140
G01 X9.1771 Y6.2194
G01 X9.1721 Y6.2312
G01 X9.1245 Y6.3264
G01 X9.1170 Y6.3391
G01 X9.1097 Y6.3487
G01 X9.1034 Y6.3556
G01 X9.0558 Y6.4033
G01 X9.0447 Y6.4129
G01 X9.0347 Y6.4198
G01 X9.0265 Y6.4243
G01 X8.9789 Y6.4482
G01 X8.9650 Y6.4539
G01 X8.9559 Y6.4567
G01 X8.8576 Y6.4811
G01 X8.8440 Y6.4833
G01 X8.8333 Y6.4838
G01 X8.7381 Y6.4838
G01 X8.7295 Y6.4835
G01 X8.7186 Y6.4821
G01 X8.7108 Y6.4805
G01 X8.6156 Y6.4567
G01 X8.6064 Y6.4539
G01 X8.5925 Y6.4482
G01 X8.5449 Y6.4243
G01 X8.5322 Y6.4169
G01 X8.5226 Y6.4096
G01 X8.5176 Y6.4051
G01 X8.4680 Y6.3556
G01 X8.4584 Y6.3445
G01 X8.4515 Y6.3346
G01 X8.4470 Y6.3264
G01 X8.3993 Y6.2312
G01 X8.3943 Y6.2194
G01 X8.3912 Y6.2095
G01 X8.3890 Y6.1993
G01 X8.3882 Y6.1936
G01 X8.3875 Y6.1808
G01 X8.3875 Y6.0618
G01 X8.3882 Y6.0491
G00 Z2.0000
G00 X7.9129 Y5.8766
G01 F60.00
G01 Z-0.0600
G01 F100.00
G01 X7.9152 Y5.8660
G01 X7.9185 Y5.8557
G01 X7.9227 Y5.8457
G01 X7.9280 Y5.8362
G01 X7.9341 Y5.8273
G01 X7.9410 Y5.8190
G01 X7.9487 Y5.8114
G01 X7.9571 Y5.8045
G01 X7.9661 Y5.7985
G01 X7.9735 Y5.7945
G01 X8.0211 Y5.7707
G01 X8.0307 Y5.7665
G01 X8.0364 Y5.7644
G01 X8.0453 Y5.7619
G01 X8.0567 Y5.7598
G01 X8.0690 Y5.7588
G01 X8.0800 Y5.7591
G01 X8.0910 Y5.7605
G01 X8.1017 Y5.7630
G01 X8.1122 Y5.7665
G01 X8.1218 Y5.7707
G01 X8.1694 Y5.7945
G01 X8.1767 Y5.7985
G01 X8.1858 Y5.8045
G01 X8.1977 Y5.8147
G01 X8.2050 Y5.8226
G01 X8.2116 Y5.8312
G01 X8.2149 Y5.8362
G01 X8.2201 Y5.8457
G01 X8.2244 Y5.8557
G01 X8.2277 Y5.8660
G01 X8.2300 Y5.8766
G01 X8.2315 Y5.8921
G01 X8.2313 Y5.9029
G01 X8.2300 Y5.9137
G01 X8.2289 Y5.9196
G01 X8.2260 Y5.9300
G01 X8.2221 Y5.9402
G01 X8.2173 Y5.9499
G01 X8.2088 Y5.9629
G01 X8.2019 Y5.9713
G01 X8.1942 Y5.9789
G01 X8.1858 Y5.9857
G01 X8.1767 Y5.9917
G01 X8.1694 Y5.9958
G01 X8.1218 Y6.0196
G01 X8.1093 Y6.0248
G01 X8.0977 Y6.0283
G01 X8.0870 Y6.0303
G01 X8.0762 Y6.0313
G01 X8.0605 Y6.0309
G01 X8.0497 Y6.0293
G01 X8.0391 Y6.0267
G01 X8.0288 Y6.0231
G01 X8.0211 Y6.0196
G01 X7.9735 Y5.9958
G01 X7.9661 Y5.9917
G01 X7.9533 Y5.9828
G01 X7.9452 Y5.9756
G01 X7.9410 Y5.9713
G01 X7.9341 Y5.9629
G01 X7.9255 Y5.9499
G01 X7.9207 Y5.9402
G01 X7.9169 Y5.9300
G01 X7.9140 Y5.9196
G01 X7.9129 Y5.9137
G01 X7.9116 Y5.9029
G01 X7.9114 Y5.8921
G01 X7.9129 Y5.8766
G00 Z2.0000
G00 X8.0500 Y5.0000
G01 F60.00
G01 Z-0.0600
G01 F100.00
G01 X8.0500 Y3.6500
G01 X8.0509 Y3.6353
G01 X8.0529 Y3.6232
G01 X8.0562 Y3.6114
G01 X8.0586 Y3.6045
G01 X8.0637 Y3.5933
G01 X8.0725 Y3.5785
G01 X8.0769 Y3.5726
G01 X8.0849 Y3.5634
G01 X8.0938 Y3.5550
G01 X8.1076 Y3.5448
G01 X8.1183 Y3.5387
G01 X8.1295 Y3.5336
G01 X8.1364 Y3.5312
G01 X8.1530 Y3.5270
G01 X8.1652 Y3.5254
G01 X8.1750 Y3.5250
G01 X8.3250 Y3.5250
G01 X8.3397 Y3.5259
G01 X8.3518 Y3.5279
G01 X8.3636 Y3.5312
G01 X8.3705 Y3.5336
G01 X8.3861 Y3.5410
G01 X8.3965 Y3.5475
G01 X8.4062 Y3.5550
G01 X8.4151 Y3.5634
G01 X8.4200 Y3.5688
G01 X8.4302 Y3.5826
G01 X8.4363 Y3.5933
G01 X8.4395 Y3.5999
G01 X8.4438 Y3.6114
G01 X8.4471 Y3.6232
G01 X8.4496 Y3.6402
G01 X8.4500 Y3.6500
G01 X8.4500 Y5.0000
G01 X8.4491 Y5.0147
G01 X8.4471 Y5.0268
G01 X8.4438 Y5.0386
G01 X8.4414 Y5.0455
G01 X8.4363 Y5.0567
G01 X8.4275 Y5.0715
G01 X8.4231 Y5.0774
G01 X8.4151 Y5.0866
G01 X8.4062 Y5.0950
G01 X8.3924 Y5.1052
G01 X8.3817 Y5.1113
G01 X8.3705 Y5.1164
G01 X8.3636 Y5.1188
G01 X8.3470 Y5.1230
G01 X8.3348 Y5.1246
G01 X8.3275 Y5.1249
G01 X8.1750 Y5.1250
G01 X8.1652 Y5.1246
G01 X8.1530 Y5.1230
G01 X8.1411 Y5.1203
G01 X8.1295 Y5.1164
G01 X8.1183 Y5.1113
G01 X8.1076 Y5.1052
G01 X8.0976 Y5.0981
G01 X8.0849 Y5.0866
G01 X8.0769 Y5.0774
G01 X8.0698 Y5.0674
G01 X8.0637 Y5.0567
G01 X8.0586 Y5.0455
G01 X8.0547 Y5.0339
G01 X8.0520 Y5.0220
G01 X8.0504 Y5.0098
G01 X8.0500 Y5.0000
G00 Z2.0000
G00 X7.5500 Y5.0000
G01 F60.00
G01 Z-0.0600
G01 F100.00
G01 X7.5500 Y3.6500
G01 X7.5509 Y3.6353
G01 X7.5529 Y3.6232
G01 X7.5562 Y3.6114
G01 X7.5586 Y3.6045
G01 X7.5637 Y3.5933
G01 X7.5725 Y3.5785
G01 X7.5769 Y3.5726
G01 X7.5849 Y3.5634
G01 X7.5938 Y3.5550
G01 X7.6076 Y3.5448
G01 X7.6183 Y3.5387
G01 X7.6295 Y3.5336
G01 X7.6364 Y3.5312
G01 X7.6530 Y3.5270
G01 X7.6652 Y3.5254
G01 X7.6750 Y3.5250
G01 X7.8250 Y3.5250
G01 X7.8397 Y3.5259
G01 X7.8518 Y3.5279
G01 X7.8636 Y3.5312
G01 X7.8705 Y3.5336
G01 X7.8861 Y3.5410
G01 X7.8965 Y3.5475
G01 X7.9062 Y3.5550
G01 X7.9151 Y3.5634
G01 X7.9200 Y3.5688
G01 X7.9302 Y3.5826
G01 X7.9363 Y3.5933
G01 X7.9395 Y3.5999
G01 X7.9438 Y3.6114
G01 X7.9471 Y3.6232
G01 X7.9496 Y3.6402
G01 X7.9500 Y3.6500
G01 X7.9500 Y5.0000
G01 X7.9491 Y5.0147
G01 X7.9471 Y5.0268
G01 X7.9438 Y5.0386
G01 X7.9414 Y5.0455
G01 X7.9363 Y5.0567
G01 X7.9275 Y5.0715
G01 X7.9231 Y5.0774
G01 X7.9151 Y5.0866
G01 X7.9062 Y5.0950
G01 X7.8924 Y5.1052
G01 X7.8817 Y5.1113
G01 X7.8705 Y5.1164
G01 X7.8636 Y5.1188
G01 X7.8470 Y5.1230
G01 X7.8348 Y5.1246
G01 X7.8275 Y5.1249
G01 X7.6750 Y5.1250
G01 X7.6652 Y5.1246
G01 X7.6530 Y5.1230
G01 X7.6411 Y5.1203
G01 X7.6295 Y5.1164
G01 X7.6183 Y5.1113
G01 X7.6076 Y5.1052
G01 X7.5976 Y5.0981
G01 X7.5849 Y5.0866
G01 X7.5769 Y5.0774
G01 X7.5698 Y5.0674
G01 X7.5637 Y5.0567
G01 X7.5586 Y5.0455
G01 X7.5547 Y5.0339
G01 X7.5520 Y5.0220
G01 X7.5504 Y5.0098
G01 X7.5500 Y5.0000
G00 Z2.0000
G00 X7.0500 Y5.0000
G01 F60.00
G01 Z-0.0600
G01 F100.00
G01 X7.0500 Y3.6500
G01 X7.0509 Y3.6353
G01 X7.0529 Y3.6232
G01 X7.0562 Y3.6114
G01 X7.0586 Y3.6045
G01 X7.0637 Y3.5933
G01 X7.0725 Y3.5785
G01 X7.0769 Y3.5726
G01 X7.0849 Y3.5634
G01 X7.0938 Y3.5550
G01 X7.1076 Y3.5448
G01 X7.1183 Y3.5387
G01 X7.1295 Y3.5336
G01 X7.1364 Y3.5312
G01 X7.1530 Y3.5270
G01 X7.1652 Y3.5254
G01 X7.1750 Y3.5250
G01 X7.3250 Y3.5250
G01 X7.3397 Y3.5259
G01 X7.3518 Y3.5279
G01 X7.3636 Y3.5312
G01 X7.3705 Y3.5336
G01 X7.3861 Y3.5410
G01 X7.3965 Y3.5475
G01 X7.4062 Y3.5550
G01 X7.4151 Y3.5634
G01 X7.4200 Y3.5688
G01 X7.4302 Y3.5826
G01 X7.4363 Y3.5933
G01 X7.4395 Y3.5999
G01 X7.4438 Y3.6114
G01 X7.4471 Y3.6232
G01 X7.4496 Y3.6402
G01 X7.4500 Y3.6500
G01 X7.4500 Y5.0000
G01 X7.4491 Y5.0147
G01 X7.4471 Y5.0268
G01 X7.4438 Y5.0386
G01 X7.4414 Y5.0455
G01 X7.4363 Y5.0567
G01 X7.4275 Y5.0715
G01 X7.4231 Y5.0774
G01 X7.4151 Y5.0866
G01 X7.4062 Y5.0950
G01 X7.3924 Y5.1052
G01 X7.3817 Y5.1113
G01 X7.3705 Y5.1164
G01 X7.3636 Y5.1188
G01 X7.3470 Y5.1230
G01 X7.3348 Y5.1246
G01 X7.3275 Y5.1249
G01 X7.1750 Y5.1250
G01 X7.1652 Y5.1246
G01 X7.1530 Y5.1230
G01 X7.1411 Y5.1203
G01 X7.1295 Y5.1164
G01 X7.1183 Y5.1113
G01 X7.1076 Y5.1052
G01 X7.0976 Y5.0981
G01 X7.0849 Y5.0866
G01 X7.0769 Y5.0774
G01 X7.0698 Y5.0674
G01 X7.0637 Y5.0567
G01 X7.0586 Y5.0455
G01 X7.0547 Y5.0339
G01 X7.0520 Y5.0220
G01 X7.0504 Y5.0098
G01 X7.0500 Y5.0000
G00 Z2.0000
G00 X6.5500 Y5.0000
G01 F60.00
G01 Z-0.0600
G01 F100.00
G01 X6.5500 Y3.6500
G01 X6.5509 Y3.6353
G01 X6.5529 Y3.6232
G01 X6.5562 Y3.6114
G01 X6.5586 Y3.6045
G01 X6.5637 Y3.5933
G01 X6.5725 Y3.5785
G01 X6.5769 Y3.5726
G01 X6.5849 Y3.5634
G01 X6.5938 Y3.5550
G01 X6.6076 Y3.5448
G01 X6.6183 Y3.5387
G01 X6.6295 Y3.5336
G01 X6.6364 Y3.5312
G01 X6.6530 Y3.5270
G01 X6.6652 Y3.5254
G01 X6.6750 Y3.5250
G01 X6.8250 Y3.5250
G01 X6.8397 Y3.5259
G01 X6.8518 Y3.5279
G01 X6.8636 Y3.5312
G01 X6.8705 Y3.5336
G01 X6.8861 Y3.5410
G01 X6.8965 Y3.5475
G01 X6.9062 Y3.5550
G01 X6.9151 Y3.5634
G01 X6.9200 Y3.5688
G01 X6.9302 Y3.5826
G01 X6.9363 Y3.5933
G01 X6.9395 Y3.5999
G01 X6.9438 Y3.6114
G01 X6.9471 Y3.6232
G01 X6.9496 Y3.6402
G01 X6.9500 Y3.6500
G01 X6.9500 Y5.0000
G01 X6.9491 Y5.0147
G01 X6.9471 Y5.0268
G01 X6.9438 Y5.0386
G01 X6.9414 Y5.0455
G01 X6.9363 Y5.0567
G01 X6.9275 Y5.0715
G01 X6.9231 Y5.0774
G01 X6.9151 Y5.0866
G01 X6.9062 Y5.0950
G01 X6.8924 Y5.1052
G01 X6.8817 Y5.1113
G01 X6.8705 Y5.1164
G01 X6.8636 Y5.1188
G01 X6.8470 Y5.1230
G01 X6.8348 Y5.1246
G01 X6.8275 Y5.1249
G01 X6.6750 Y5.1250
G01 X6.6652 Y5.1246
G01 X6.6530 Y5.1230
G01 X6.6411 Y5.1203
G01 X6.6295 Y5.1164
G01 X6.6183 Y5.1113
G01 X6.6076 Y5.1052
G01 X6.5976 Y5.0981
G01 X6.5849 Y5.0866
G01 X6.5769 Y5.0774
G01 X6.5698 Y5.0674
G01 X6.5637 Y5.0567
G01 X6.5586 Y5.0455
G01 X6.5547 Y5.0339
G01 X6.5520 Y5.0220
G01 X6.5504 Y5.0098
G01 X6.5500 Y5.0000
G00 Z2.0000
G00 X6.0500 Y5.0000
G01 F60.00
G01 Z-0.0600
G01 F100.00
G01 X6.0500 Y3.6500
G01 X6.0509 Y3.6353
G01 X6.0529 Y3.6232
G01 X6.0562 Y3.6114
G01 X6.0586 Y3.6045
G01 X6.0637 Y3.5933
G01 X6.0725 Y3.5785
G01 X6.0769 Y3.5726
G01 X6.0849 Y3.5634
G01 X6.0938 Y3.5550
G01 X6.1076 Y3.5448
G01 X6.1183 Y3.5387
G01 X6.1295 Y3.5336
G01 X6.1364 Y3.5312
G01 X6.1530 Y3.5270
G01 X6.1652 Y3.5254
G01 X6.1750 Y3.5250
G01 X6.3250 Y3.5250
G01 X6.3397 Y3.5259
G01 X6.3518 Y3.5279
G01 X6.3636 Y3.5312
G01 X6.3705 Y3.5336
G01 X6.3861 Y3.5410
G01 X6.3965 Y3.5475
G01 X6.4062 Y3.5550
G01 X6.4151 Y3.5634
G01 X6.4200 Y3.5688
G01 X6.4302 Y3.5826
G01 X6.4363 Y3.5933
G01 X6.4395 Y3.5999
G01 X6.4438 Y3.6114
G01 X6.4471 Y3.6232
G01 X6.4496 Y3.6402
G01 X6.4500 Y3.6500
G01 X6.4500 Y5.0000
G01 X6.4491 Y5.0147
G01 X6.4471 Y5.0268
G01 X6.4438 Y5.0386
G01 X6.4414 Y5.0455
G01 X6.4363 Y5.0567
G01 X6.4275 Y5.0715
G01 X6.4231 Y5.0774
G01 X6.4151 Y5.0866
G01 X6.4062 Y5.0950
G01 X6.3924 Y5.1052
G01 X6.3817 Y5.1113
G01 X6.3705 Y5.1164
G01 X6.3636 Y5.1188
G01 X6.3470 Y5.1230
G01 X6.3348 Y5.1246
G01 X6.3275 Y5.1249
G01 X6.1750 Y5.1250
G01 X6.1652 Y5.1246
G01 X6.1530 Y5.1230
G01 X6.1411 Y5.1203
G01 X6.1295 Y5.1164
G01 X6.1183 Y5.1113
G01 X6.1076 Y5.1052
G01 X6.0976 Y5.0981
G01 X6.0849 Y5.0866
G01 X6.0769 Y5.0774
G01 X6.0698 Y5.0674
G01 X6.0637 Y5.0567
G01 X6.0586 Y5.0455
G01 X6.0547 Y5.0339
G01 X6.0520 Y5.0220
G01 X6.0504 Y5.0098
G01 X6.0500 Y5.0000
G00 Z2.0000
G00 X5.5500 Y5.0000
G01 F60.00
G01 Z-0.0600
G01 F100.00
G01 X5.5500 Y3.6500
G01 X5.5509 Y3.6353
G01 X5.5529 Y3.6232
G01 X5.5562 Y3.6114
G01 X5.5586 Y3.6045
G01 X5.5637 Y3.5933
G01 X5.5725 Y3.5785
G01 X5.5769 Y3.5726
G01 X5.5849 Y3.5634
G01 X5.5938 Y3.5550
G01 X5.6076 Y3.5448
G01 X5.6183 Y3.5387
G01 X5.6295 Y3.5336
G01 X5.6364 Y3.5312
G01 X5.6530 Y3.5270
G01 X5.6652 Y3.5254
G01 X5.6750 Y3.5250
G01 X5.8250 Y3.5250
G01 X5.8397 Y3.5259
G01 X5.8518 Y3.5279
G01 X5.8636 Y3.5312
G01 X5.8705 Y3.5336
G01 X5.8861 Y3.5410
G01 X5.8965 Y3.5475
G01 X5.9062 Y3.5550
G01 X5.9151 Y3.5634
G01 X5.9200 Y3.5688
G01 X5.9302 Y3.5826
G01 X5.9363 Y3.5933
G01 X5.9395 Y3.5999
G01 X5.9438 Y3.6114
G01 X5.9471 Y3.6232
G01 X5.9496 Y3.6402
G01 X5.9500 Y3.6500
G01 X5.9500 Y5.0000
G01 X5.9491 Y5.0147
G01 X5.9471 Y5.0268
G01 X5.9438 Y5.0386
G01 X5.9414 Y5.0455
G01 X5.9363 Y5.0567
G01 X5.9275 Y5.0715
G01 X5.9231 Y5.0774
G01 X5.9151 Y5.0866
G01 X5.9062 Y5.0950
G01 X5.8924 Y5.1052
G01 X5.8817 Y5.1113
G01 X5.8705 Y5.1164
G01 X5.8636 Y5.1188
G01 X5.8470 Y5.1230
G01 X5.8348 Y5.1246
G01 X5.8275 Y5.1249
G01 X5.6750 Y5.1250
G01 X5.6652 Y5.1246
G01 X5.6530 Y5.1230
G01 X5.6411 Y5.1203
G01 X5.6295 Y5.1164
G01 X5.6183 Y5.1113
G01 X5.6076 Y5.1052
G01 X5.5976 Y5.0981
G01 X5.5849 Y5.0866
G01 X5.5769 Y5.0774
G01 X5.5698 Y5.0674
G01 X5.5637 Y5.0567
G01 X5.5586 Y5.0455
G01 X5.5547 Y5.0339
G01 X5.5520 Y5.0220
G01 X5.5504 Y5.0098
G01 X5.5500 Y5.0000
G00 Z2.0000
G00 X6.9597 Y5.8578
G01 F60.00
G01 Z-0.0600
G01 F100.00
G01 X6.9606 Y5.8518
G01 X6.9631 Y5.8410
G01 X6.9666 Y5.8305
G01 X6.9711 Y5.8205
G01 X6.9793 Y5.8068
G01 X6.9860 Y5.7981
G01 X6.9936 Y5.7900
G01 X7.0020 Y5.7828
G01 X7.0069 Y5.7792
G01 X7.0206 Y5.7710
G01 X7.0307 Y5.7665
G01 X7.0411 Y5.7630
G01 X7.0519 Y5.7605
G01 X7.0580 Y5.7596
G01 X7.0714 Y5.7588
G01 X7.6429 Y5.7588
G01 X7.6563 Y5.7596
G01 X7.6672 Y5.7615
G01 X7.6779 Y5.7644
G01 X7.6882 Y5.7683
G01 X7.6980 Y5.7733
G01 X7.7074 Y5.7792
G01 X7.7161 Y5.7859
G01 X7.7241 Y5.7935
G01 X7.7314 Y5.8019
G01 X7.7377 Y5.8109
G01 X7.7432 Y5.8205
G01 X7.7477 Y5.8305
G01 X7.7512 Y5.8410
G01 X7.7536 Y5.8518
G01 X7.7550 Y5.8627
G01 X7.7553 Y5.8738
G01 X7.7545 Y5.8848
G01 X7.7536 Y5.8908
G01 X7.7498 Y5.9063
G01 X7.7477 Y5.9121
G01 X7.7432 Y5.9222
G01 X7.7350 Y5.9358
G01 X7.7314 Y5.9408
G01 X7.7241 Y5.9491
G01 X7.7123 Y5.9598
G01 X7.7074 Y5.9635
G01 X7.6980 Y5.9693
G01 X7.6836 Y5.9762
G01 X7.6779 Y5.9782
G01 X7.6672 Y5.9811
G01 X7.6563 Y5.9830
G01 X7.6453 Y5.9838
G01 X7.4697 Y5.9838
G01 X7.4697 Y6.3713
G01 X7.4689 Y6.3845
G01 X7.4671 Y6.3952
G01 X7.4643 Y6.4057
G01 X7.4605 Y6.4158
G01 X7.4579 Y6.4213
G01 X7.4527 Y6.4307
G01 X7.4435 Y6.4434
G01 X7.4362 Y6.4513
G01 X7.4281 Y6.4586
G01 X7.4194 Y6.4650
G01 X7.4101 Y6.4706
G01 X7.4003 Y6.4752
G01 X7.3947 Y6.4773
G01 X7.3844 Y6.4805
G01 X7.3737 Y6.4826
G01 X7.3630 Y6.4837
G01 X7.3521 Y6.4837
G01 X7.3414 Y6.4827
G01 X7.3261 Y6.4794
G01 X7.3158 Y6.4759
G01 X7.3103 Y6.4736
G01 X7.3007 Y6.4686
G01 X7.2896 Y6.4613
G01 X7.2025 Y6.3960
G01 X7.1274 Y6.3584
G01 X7.0441 Y6.3376
G01 X7.0313 Y6.3335
G01 X7.0212 Y6.3291
G01 X7.0115 Y6.3237
G01 X7.0064 Y6.3203
G01 X6.9941 Y6.3102
G01 X6.9898 Y6.3058
G01 X6.9826 Y6.2975
G01 X6.9762 Y6.2884
G01 X6.9708 Y6.2788
G01 X6.9664 Y6.2687
G01 X6.9629 Y6.2582
G01 X6.9598 Y6.2426
G01 X6.9590 Y6.2316
G01 X6.9592 Y6.2205
G01 X6.9605 Y6.2096
G01 X6.9617 Y6.2036
G01 X6.9647 Y6.1929
G01 X6.9687 Y6.1826
G01 X6.9737 Y6.1728
G01 X6.9796 Y6.1635
G01 X6.9864 Y6.1548
G01 X6.9977 Y6.1435
G01 X7.0064 Y6.1367
G01 X7.0157 Y6.1307
G01 X7.0255 Y6.1258
G01 X7.0312 Y6.1234
G01 X7.0417 Y6.1200
G01 X7.0573 Y6.1168
G01 X7.0634 Y6.1162
G01 X7.0744 Y6.1160
G01 X7.0903 Y6.1176
G01 X7.0987 Y6.1193
G01 X7.1940 Y6.1431
G01 X7.2031 Y6.1458
G01 X7.2170 Y6.1516
G01 X7.2446 Y6.1654
G01 X7.2446 Y5.9838
G01 X7.0690 Y5.9838
G01 X7.0580 Y5.9830
G01 X7.0471 Y5.9811
G01 X7.0364 Y5.9782
G01 X7.0261 Y5.9743
G01 X7.0206 Y5.9717
G01 X7.0110 Y5.9662
G01 X6.9982 Y5.9567
G01 X6.9902 Y5.9491
G01 X6.9860 Y5.9446
G01 X6.9793 Y5.9358
G01 X6.9734 Y5.9265
G01 X6.9666 Y5.9121
G01 X6.9645 Y5.9063
G01 X6.9616 Y5.8957
G01 X6.9597 Y5.8848
G01 X6.9590 Y5.8738
G01 X6.9597 Y5.8578
G00 Z2.0000
G00 X8.5500 Y5.0000
G01 F60.00
G01 Z-0.0600
G01 F100.00
G01 X8.5500 Y3.6500
G01 X8.5509 Y3.6353
G01 X8.5529 Y3.6232
G01 X8.5562 Y3.6114
G01 X8.5586 Y3.6045
G01 X8.5637 Y3.5933
G01 X8.5725 Y3.5785
G01 X8.5769 Y3.5726
G01 X8.5849 Y3.5634
G01 X8.5938 Y3.5550
G01 X8.6076 Y3.5448
G01 X8.6183 Y3.5387
G01 X8.6295 Y3.5336
G01 X8.6364 Y3.5312
G01 X8.6530 Y3.5270
G01 X8.6652 Y3.5254
G01 X8.6750 Y3.5250
G01 X8.8250 Y3.5250
G01 X8.8397 Y3.5259
G01 X8.8518 Y3.5279
G01 X8.8636 Y3.5312
G01 X8.8705 Y3.5336
G01 X8.8861 Y3.5410
G01 X8.8965 Y3.5475
G01 X8.9062 Y3.5550
G01 X8.9151 Y3.5634
G01 X8.9200 Y3.5688
G01 X8.9302 Y3.5826
G01 X8.9363 Y3.5933
G01 X8.9395 Y3.5999
G01 X8.9438 Y3.6114
G01 X8.9471 Y3.6232
G01 X8.9496 Y3.6402
G01 X8.9500 Y3.6500
G01 X8.9500 Y5.0000
G01 X8.9491 Y5.0147
G01 X8.9471 Y5.0268
G01 X8.9438 Y5.0386
G01 X8.9414 Y5.0455
G01 X8.9363 Y5.0567
G01 X8.9275 Y5.0715
G01 X8.9231 Y5.0774
G01 X8.9151 Y5.0866
G01 X8.9062 Y5.0950
G01 X8.8924 Y5.1052
G01 X8.8817 Y5.1113
G01 X8.8705 Y5.1164
G01 X8.8636 Y5.1188
G01 X8.8470 Y5.1230
G01 X8.8348 Y5.1246
G01 X8.8275 Y5.1249
G01 X8.6750 Y5.1250
G01 X8.6652 Y5.1246
G01 X8.6530 Y5.1230
G01 X8.6411 Y5.1203
G01 X8.6295 Y5.1164
G01 X8.6183 Y5.1113
G01 X8.6076 Y5.1052
G01 X8.5976 Y5.0981
G01 X8.5849 Y5.0866
G01 X8.5769 Y5.0774
G01 X8.5698 Y5.0674
G01 X8.5637 Y5.0567
G01 X8.5586 Y5.0455
G01 X8.5547 Y5.0339
G01 X8.5520 Y5.0220
G01 X8.5504 Y5.0098
G01 X8.5500 Y5.0000
G00 Z2.0000
G00 X9.0500 Y5.0000
G01 F60.00
G01 Z-0.0600
G01 F100.00
G01 X9.0500 Y3.6500
G01 X9.0509 Y3.6353
G01 X9.0529 Y3.6232
G01 X9.0562 Y3.6114
G01 X9.0586 Y3.6045
G01 X9.0637 Y3.5933
G01 X9.0725 Y3.5785
G01 X9.0769 Y3.5726
G01 X9.0849 Y3.5634
G01 X9.0938 Y3.5550
G01 X9.1076 Y3.5448
G01 X9.1183 Y3.5387
G01 X9.1295 Y3.5336
G01 X9.1364 Y3.5312
G01 X9.1530 Y3.5270
G01 X9.1652 Y3.5254
G01 X9.1750 Y3.5250
G01 X9.3250 Y3.5250
G01 X9.3397 Y3.5259
G01 X9.3518 Y3.5279
G01 X9.3636 Y3.5312
G01 X9.3705 Y3.5336
G01 X9.3861 Y3.5410
G01 X9.3965 Y3.5475
G01 X9.4062 Y3.5550
G01 X9.4151 Y3.5634
G01 X9.4200 Y3.5688
G01 X9.4302 Y3.5826
G01 X9.4363 Y3.5933
G01 X9.4395 Y3.5999
G01 X9.4438 Y3.6114
G01 X9.4471 Y3.6232
G01 X9.4496 Y3.6402
G01 X9.4500 Y3.6500
G01 X9.4500 Y5.0000
G01 X9.4491 Y5.0147
G01 X9.4471 Y5.0268
G01 X9.4438 Y5.0386
G01 X9.4414 Y5.0455
G01 X9.4363 Y5.0567
G01 X9.4275 Y5.0715
G01 X9.4231 Y5.0774
G01 X9.4151 Y5.0866
G01 X9.4062 Y5.0950
G01 X9.3924 Y5.1052
G01 X9.3817 Y5.1113
G01 X9.3705 Y5.1164
G01 X9.3636 Y5.1188
G01 X9.3470 Y5.1230
G01 X9.3348 Y5.1246
G01 X9.3275 Y5.1249
G01 X9.1750 Y5.1250
G01 X9.1652 Y5.1246
G01 X9.1530 Y5.1230
G01 X9.1411 Y5.1203
G01 X9.1295 Y5.1164
G01 X9.1183 Y5.1113
G01 X9.1076 Y5.1052
G01 X9.0976 Y5.0981
G01 X9.0849 Y5.0866
G01 X9.0769 Y5.0774
G01 X9.0698 Y5.0674
G01 X9.0637 Y5.0567
G01 X9.0586 Y5.0455
G01 X9.0547 Y5.0339
G01 X9.0520 Y5.0220
G01 X9.0504 Y5.0098
G01 X9.0500 Y5.0000
G00 Z2.0000
G00 X9.8750 Y5.8250
G01 F60.00
G01 Z-0.0600
G01 F100.00
G01 X9.8751 Y5.6725
G01 X9.8754 Y5.6652
G01 X9.8770 Y5.6530
G01 X9.8797 Y5.6411
G01 X9.8836 Y5.6295
G01 X9.8887 Y5.6183
G01 X9.8975 Y5.6035
G01 X9.9019 Y5.5976
G01 X9.9099 Y5.5884
G01 X9.9226 Y5.5769
G01 X9.9326 Y5.5698
G01 X9.9433 Y5.5637
G01 X9.9499 Y5.5605
G01 X9.9661 Y5.5547
G01 X9.9780 Y5.5520
G01 X9.9853 Y5.5509
G01 X10.0000 Y5.5500
G01 X11.3500 Y5.5500
G01 X11.3598 Y5.5504
G01 X11.3768 Y5.5529
G01 X11.3886 Y5.5562
G01 X11.4001 Y5.5605
G01 X11.4067 Y5.5637
G01 X11.4174 Y5.5698
G01 X11.4274 Y5.5769
G01 X11.4366 Y5.5849
G01 X11.4481 Y5.5976
G01 X11.4552 Y5.6076
G01 X11.4613 Y5.6183
G01 X11.4664 Y5.6295
G01 X11.4688 Y5.6364
G01 X11.4721 Y5.6482
G01 X11.4741 Y5.6603
G01 X11.4750 Y5.6750
G01 X11.4749 Y5.8275
G01 X11.4746 Y5.8348
G01 X11.4730 Y5.8470
G01 X11.4703 Y5.8589
G01 X11.4664 Y5.8705
G01 X11.4613 Y5.8817
G01 X11.4525 Y5.8965
G01 X11.4481 Y5.9024
G01 X11.4401 Y5.9116
G01 X11.4274 Y5.9231
G01 X11.4174 Y5.9302
G01 X11.4067 Y5.9363
G01 X11.4001 Y5.9395
G01 X11.3839 Y5.9453
G01 X11.3720 Y5.9480
G01 X11.3647 Y5.9491
G01 X11.3500 Y5.9500
G01 X10.0000 Y5.9500
G01 X9.9902 Y5.9496
G01 X9.9780 Y5.9480
G01 X9.9661 Y5.9453
G01 X9.9545 Y5.9414
G01 X9.9433 Y5.9363
G01 X9.9326 Y5.9302
G01 X9.9226 Y5.9231
G01 X9.9099 Y5.9116
G01 X9.9019 Y5.9024
G01 X9.8948 Y5.8924
G01 X9.8887 Y5.8817
G01 X9.8836 Y5.8705
G01 X9.8797 Y5.8589
G01 X9.8770 Y5.8470
G01 X9.8754 Y5.8348
G01 X9.8750 Y5.8250
G00 Z2.0000
G00 X9.8750 Y6.3250
G01 F60.00
G01 Z-0.0600
G01 F100.00
G01 X9.8751 Y6.1725
G01 X9.8754 Y6.1652
G01 X9.8770 Y6.1530
G01 X9.8797 Y6.1411
G01 X9.8836 Y6.1295
G01 X9.8887 Y6.1183
G01 X9.8975 Y6.1035
G01 X9.9019 Y6.0976
G01 X9.9099 Y6.0884
G01 X9.9226 Y6.0769
G01 X9.9326 Y6.0698
G01 X9.9433 Y6.0637
G01 X9.9499 Y6.0605
G01 X9.9661 Y6.0547
G01 X9.9780 Y6.0520
G01 X9.9853 Y6.0509
G01 X10.0000 Y6.0500
G01 X11.7500 Y6.0499
G01 X11.7720 Y6.0512
G01 X11.7866 Y6.0533
G01 X11.8057 Y6.0579
G01 X11.8288 Y6.0661
G01 X11.8464 Y6.0748
G01 X11.8632 Y6.0851
G01 X11.8750 Y6.0938
G01 X11.8915 Y6.1085
G01 X14.6415 Y8.8585
G01 X14.6562 Y8.8750
G01 X14.6677 Y8.8909
G01 X14.6776 Y8.9079
G01 X14.6839 Y8.9212
G01 X14.6921 Y8.9443
G01 X14.6967 Y8.9634
G01 X14.6988 Y8.9780
G01 X14.7001 Y9.0000
G01 X14.7001 Y12.5800
G01 X14.6993 Y12.5976
G01 X14.7081 Y12.6098
G01 X14.7507 Y12.6815
G01 X14.7862 Y12.7570
G01 X14.8126 Y12.8309
G01 X14.8331 Y12.9118
G01 X14.8456 Y12.9942
G01 X14.8499 Y13.0825
G01 X14.8456 Y13.1658
G01 X14.8341 Y13.2434
G01 X14.8141 Y13.3244
G01 X14.7862 Y13.4030
G01 X14.7484 Y13.4828
G01 X14.7053 Y13.5542
G01 X14.6586 Y13.6173
G01 X14.6027 Y13.6793
G01 X14.5373 Y13.7386
G01 X14.4702 Y13.7881
G01 X14.3985 Y13.8307
G01 X14.3275 Y13.8643
G01 X14.2444 Y13.8941
G01 X14.1634 Y13.9141
G01 X14.0858 Y13.9256
G01 X13.9975 Y13.9299
G01 X13.9142 Y13.9256
G01 X13.8318 Y13.9131
G01 X13.7509 Y13.8926
G01 X13.6770 Y13.8662
G01 X13.6015 Y13.8307
G01 X13.5298 Y13.7881
G01 X13.4627 Y13.7386
G01 X13.4199 Y13.7001
G01 X12.3000 Y13.7001
G01 X12.3000 Y14.1250
G01 X12.2983 Y14.1568
G01 X12.2947 Y14.1811
G01 X12.2877 Y14.2097
G01 X12.2780 Y14.2375
G01 X12.2657 Y14.2642
G01 X12.2480 Y14.2937
G01 X12.2303 Y14.3172
G01 X12.2104 Y14.3388
G01 X12.1922 Y14.3553
G01 X12.1687 Y14.3730
G01 X12.1436 Y14.3884
G01 X12.1170 Y14.4012
G01 X12.0894 Y14.4113
G01 X12.0609 Y14.4187
G01 X12.0318 Y14.4233
G01 X12.0000 Y14.4250
G01 X11.2000 Y14.4250
G01 X11.1730 Y14.4237
G01 X11.1439 Y14.4197
G01 X11.1106 Y14.4113
G01 X11.0830 Y14.4012
G01 X11.0608 Y14.3907
G01 X11.0354 Y14.3758
G01 X11.0116 Y14.3584
G01 X10.9862 Y14.3354
G01 X10.9666 Y14.3134
G01 X10.9492 Y14.2896
G01 X10.9343 Y14.2642
G01 X10.9238 Y14.2420
G01 X10.9123 Y14.2097
G01 X10.9053 Y14.1811
G01 X10.9017 Y14.1568
G01 X10.9001 Y14.1275
G01 X10.9000 Y12.8750
G01 X10.9013 Y12.8480
G01 X10.9053 Y12.8189
G01 X10.9137 Y12.7856
G01 X10.9238 Y12.7580
G01 X10.9343 Y12.7358
G01 X10.9492 Y12.7104
G01 X10.9666 Y12.6866
G01 X10.9896 Y12.6612
G01 X11.0116 Y12.6416
G01 X11.0313 Y12.6270
G01 X11.0564 Y12.6116
G01 X11.0875 Y12.5970
G01 X11.1153 Y12.5873
G01 X11.1439 Y12.5803
G01 X11.1682 Y12.5767
G01 X11.2000 Y12.5750
G01 X12.0000 Y12.5750
G01 X12.0270 Y12.5763
G01 X12.0561 Y12.5803
G01 X12.0894 Y12.5887
G01 X12.1170 Y12.5988
G01 X12.1392 Y12.6093
G01 X12.1646 Y12.6242
G01 X12.1884 Y12.6416
G01 X12.2138 Y12.6646
G01 X12.2334 Y12.6866
G01 X12.2480 Y12.7063
G01 X12.2634 Y12.7314
G01 X12.2780 Y12.7625
G01 X12.2877 Y12.7903
G01 X12.2947 Y12.8189
G01 X12.2983 Y12.8432
G01 X12.3000 Y12.8750
G01 X12.3000 Y13.2999
G01 X13.1798 Y13.2999
G01 X13.1659 Y13.2434
G01 X13.1544 Y13.1658
G01 X13.1501 Y13.0775
G01 X13.1544 Y12.9942
G01 X13.1659 Y12.9166
G01 X13.1874 Y12.8309
G01 X13.2138 Y12.7570
G01 X13.2493 Y12.6815
G01 X13.2947 Y12.6058
G01 X13.3414 Y12.5427
G01 X13.3973 Y12.4807
G01 X13.4589 Y12.4245
G01 X13.5298 Y12.3719
G01 X13.6015 Y12.3293
G01 X13.6725 Y12.2957
G01 X13.7509 Y12.2674
G01 X13.8366 Y12.2459
G01 X13.9142 Y12.2344
G01 X13.9975 Y12.2301
G01 X14.0809 Y12.2339
G01 X14.1682 Y12.2469
G01 X14.2444 Y12.2659
G01 X14.2999 Y12.2856
G01 X14.2999 Y9.0829
G01 X11.6671 Y6.4501
G01 X10.0000 Y6.4500
G01 X9.9902 Y6.4496
G01 X9.9780 Y6.4480
G01 X9.9661 Y6.4453
G01 X9.9545 Y6.4414
G01 X9.9433 Y6.4363
G01 X9.9326 Y6.4302
G01 X9.9226 Y6.4231
G01 X9.9099 Y6.4116
G01 X9.9019 Y6.4024
G01 X9.8948 Y6.3924
G01 X9.8887 Y6.3817
G01 X9.8836 Y6.3705
G01 X9.8797 Y6.3589
G01 X9.8770 Y6.3470
G01 X9.8754 Y6.3348
G01 X9.8750 Y6.3250
G00 Z2.0000
G00 X9.8750 Y6.8250
G01 F60.00
G01 Z-0.0600
G01 F100.00
G01 X9.8751 Y6.6725
G01 X9.8754 Y6.6652
G01 X9.8770 Y6.6530
G01 X9.8797 Y6.6411
G01 X9.8836 Y6.6295
G01 X9.8887 Y6.6183
G01 X9.8975 Y6.6035
G01 X9.9019 Y6.5976
G01 X9.9099 Y6.5884
G01 X9.9226 Y6.5769
G01 X9.9326 Y6.5698
G01 X9.9433 Y6.5637
G01 X9.9499 Y6.5605
G01 X9.9661 Y6.5547
G01 X9.9780 Y6.5520
G01 X9.9853 Y6.5509
G01 X10.0000 Y6.5500
G01 X11.3500 Y6.5500
G01 X11.3598 Y6.5504
G01 X11.3768 Y6.5529
G01 X11.3886 Y6.5562
G01 X11.4001 Y6.5605
G01 X11.4067 Y6.5637
G01 X11.4174 Y6.5698
G01 X11.4274 Y6.5769
G01 X11.4366 Y6.5849
G01 X11.4481 Y6.5976
G01 X11.4552 Y6.6076
G01 X11.4613 Y6.6183
G01 X11.4664 Y6.6295
G01 X11.4688 Y6.6364
G01 X11.4721 Y6.6482
G01 X11.4741 Y6.6603
G01 X11.4750 Y6.6750
G01 X11.4749 Y6.8275
G01 X11.4746 Y6.8348
G01 X11.4730 Y6.8470
G01 X11.4703 Y6.8589
G01 X11.4664 Y6.8705
G01 X11.4613 Y6.8817
G01 X11.4525 Y6.8965
G01 X11.4481 Y6.9024
G01 X11.4401 Y6.9116
G01 X11.4274 Y6.9231
G01 X11.4174 Y6.9302
G01 X11.4067 Y6.9363
G01 X11.4001 Y6.9395
G01 X11.3839 Y6.9453
G01 X11.3720 Y6.9480
G01 X11.3647 Y6.9491
G01 X11.3500 Y6.9500
G01 X10.0000 Y6.9500
G01 X9.9902 Y6.9496
G01 X9.9780 Y6.9480
G01 X9.9661 Y6.9453
G01 X9.9545 Y6.9414
G01 X9.9433 Y6.9363
G01 X9.9326 Y6.9302
G01 X9.9226 Y6.9231
G01 X9.9099 Y6.9116
G01 X9.9019 Y6.9024
G01 X9.8948 Y6.8924
G01 X9.8887 Y6.8817
G01 X9.8836 Y6.8705
G01 X9.8797 Y6.8589
G01 X9.8770 Y6.8470
G01 X9.8754 Y6.8348
G01 X9.8750 Y6.8250
G00 Z2.0000
G00 X9.8750 Y7.3250
G01 F60.00
G01 Z-0.0600
G01 F100.00
G01 X9.8751 Y7.1725
G01 X9.8754 Y7.1652
G01 X9.8770 Y7.1530
G01 X9.8797 Y7.1411
G01 X9.8836 Y7.1295
G01 X9.8887 Y7.1183
G01 X9.8975 Y7.1035
G01 X9.9019 Y7.0976
G01 X9.9099 Y7.0884
G01 X9.9226 Y7.0769
G01 X9.9326 Y7.0698
G01 X9.9433 Y7.0637
G01 X9.9499 Y7.0605
G01 X9.9661 Y7.0547
G01 X9.9780 Y7.0520
G01 X9.9853 Y7.0509
G01 X10.0000 Y7.0500
G01 X11.3500 Y7.0500
G01 X11.3598 Y7.0504
G01 X11.3768 Y7.0529
G01 X11.3886 Y7.0562
G01 X11.4001 Y7.0605
G01 X11.4067 Y7.0637
G01 X11.4174 Y7.0698
G01 X11.4274 Y7.0769
G01 X11.4366 Y7.0849
G01 X11.4481 Y7.0976
G01 X11.4552 Y7.1076
G01 X11.4613 Y7.1183
G01 X11.4664 Y7.1295
G01 X11.4688 Y7.1364
G01 X11.4721 Y7.1482
G01 X11.4741 Y7.1603
G01 X11.4750 Y7.1750
G01 X11.4749 Y7.3275
G01 X11.4746 Y7.3348
G01 X11.4730 Y7.3470
G01 X11.4703 Y7.3589
G01 X11.4664 Y7.3705
G01 X11.4613 Y7.3817
G01 X11.4525 Y7.3965
G01 X11.4481 Y7.4024
G01 X11.4401 Y7.4116
G01 X11.4274 Y7.4231
G01 X11.4174 Y7.4302
G01 X11.4067 Y7.4363
G01 X11.4001 Y7.4395
G01 X11.3839 Y7.4453
G01 X11.3720 Y7.4480
G01 X11.3647 Y7.4491
G01 X11.3500 Y7.4500
G01 X10.0000 Y7.4500
G01 X9.9902 Y7.4496
G01 X9.9780 Y7.4480
G01 X9.9661 Y7.4453
G01 X9.9545 Y7.4414
G01 X9.9433 Y7.4363
G01 X9.9326 Y7.4302
G01 X9.9226 Y7.4231
G01 X9.9099 Y7.4116
G01 X9.9019 Y7.4024
G01 X9.8948 Y7.3924
G01 X9.8887 Y7.3817
G01 X9.8836 Y7.3705
G01 X9.8797 Y7.3589
G01 X9.8770 Y7.3470
G01 X9.8754 Y7.3348
G01 X9.8750 Y7.3250
G00 Z2.0000
G00 X9.8750 Y7.8250
G01 F60.00
G01 Z-0.0600
G01 F100.00
G01 X9.8751 Y7.6725
G01 X9.8754 Y7.6652
G01 X9.8770 Y7.6530
G01 X9.8797 Y7.6411
G01 X9.8836 Y7.6295
G01 X9.8887 Y7.6183
G01 X9.8975 Y7.6035
G01 X9.9019 Y7.5976
G01 X9.9099 Y7.5884
G01 X9.9226 Y7.5769
G01 X9.9326 Y7.5698
G01 X9.9433 Y7.5637
G01 X9.9499 Y7.5605
G01 X9.9661 Y7.5547
G01 X9.9780 Y7.5520
G01 X9.9853 Y7.5509
G01 X10.0000 Y7.5500
G01 X11.3500 Y7.5500
G01 X11.3598 Y7.5504
G01 X11.3768 Y7.5529
G01 X11.3886 Y7.5562
G01 X11.4001 Y7.5605
G01 X11.4067 Y7.5637
G01 X11.4174 Y7.5698
G01 X11.4274 Y7.5769
G01 X11.4366 Y7.5849
G01 X11.4481 Y7.5976
G01 X11.4552 Y7.6076
G01 X11.4613 Y7.6183
G01 X11.4664 Y7.6295
G01 X11.4688 Y7.6364
G01 X11.4721 Y7.6482
G01 X11.4741 Y7.6603
G01 X11.4750 Y7.6750
G01 X11.4749 Y7.8275
G01 X11.4746 Y7.8348
G01 X11.4730 Y7.8470
G01 X11.4703 Y7.8589
G01 X11.4664 Y7.8705
G01 X11.4613 Y7.8817
G01 X11.4525 Y7.8965
G01 X11.4481 Y7.9024
G01 X11.4401 Y7.9116
G01 X11.4274 Y7.9231
G01 X11.4174 Y7.9302
G01 X11.4067 Y7.9363
G01 X11.4001 Y7.9395
G01 X11.3839 Y7.9453
G01 X11.3720 Y7.9480
G01 X11.3647 Y7.9491
G01 X11.3500 Y7.9500
G01 X10.0000 Y7.9500
G01 X9.9902 Y7.9496
G01 X9.9780 Y7.9480
G01 X9.9661 Y7.9453
G01 X9.9545 Y7.9414
G01 X9.9433 Y7.9363
G01 X9.9326 Y7.9302
G01 X9.9226 Y7.9231
G01 X9.9099 Y7.9116
G01 X9.9019 Y7.9024
G01 X9.8948 Y7.8924
G01 X9.8887 Y7.8817
G01 X9.8836 Y7.8705
G01 X9.8797 Y7.8589
G01 X9.8770 Y7.8470
G01 X9.8754 Y7.8348
G01 X9.8750 Y7.8250
G00 Z2.0000
G00 X9.8750 Y8.8250
G01 F60.00
G01 Z-0.0600
G01 F100.00
G01 X9.8751 Y8.6725
G01 X9.8754 Y8.6652
G01 X9.8770 Y8.6530
G01 X9.8797 Y8.6411
G01 X9.8836 Y8.6295
G01 X9.8887 Y8.6183
G01 X9.8975 Y8.6035
G01 X9.9019 Y8.5976
G01 X9.9099 Y8.5884
G01 X9.9226 Y8.5769
G01 X9.9326 Y8.5698
G01 X9.9433 Y8.5637
G01 X9.9499 Y8.5605
G01 X9.9661 Y8.5547
G01 X9.9780 Y8.5520
G01 X9.9853 Y8.5509
G01 X10.0000 Y8.5500
G01 X11.3500 Y8.5500
G01 X11.3598 Y8.5504
G01 X11.3768 Y8.5529
G01 X11.3886 Y8.5562
G01 X11.4001 Y8.5605
G01 X11.4067 Y8.5637
G01 X11.4174 Y8.5698
G01 X11.4274 Y8.5769
G01 X11.4366 Y8.5849
G01 X11.4481 Y8.5976
G01 X11.4552 Y8.6076
G01 X11.4613 Y8.6183
G01 X11.4664 Y8.6295
G01 X11.4688 Y8.6364
G01 X11.4721 Y8.6482
G01 X11.4741 Y8.6603
G01 X11.4750 Y8.6750
G01 X11.4749 Y8.8275
G01 X11.4746 Y8.8348
G01 X11.4730 Y8.8470
G01 X11.4703 Y8.8589
G01 X11.4664 Y8.8705
G01 X11.4613 Y8.8817
G01 X11.4525 Y8.8965
G01 X11.4481 Y8.9024
G01 X11.4401 Y8.9116
G01 X11.4274 Y8.9231
G01 X11.4174 Y8.9302
G01 X11.4067 Y8.9363
G01 X11.4001 Y8.9395
G01 X11.3839 Y8.9453
G01 X11.3720 Y8.9480
G01 X11.3647 Y8.9491
G01 X11.3500 Y8.9500
G01 X10.0000 Y8.9500
G01 X9.9902 Y8.9496
G01 X9.9780 Y8.9480
G01 X9.9661 Y8.9453
G01 X9.9545 Y8.9414
G01 X9.9433 Y8.9363
G01 X9.9326 Y8.9302
G01 X9.9226 Y8.9231
G01 X9.9099 Y8.9116
G01 X9.9019 Y8.9024
G01 X9.8948 Y8.8924
G01 X9.8887 Y8.8817
G01 X9.8836 Y8.8705
G01 X9.8797 Y8.8589
G01 X9.8770 Y8.8470
G01 X9.8754 Y8.8348
G01 X9.8750 Y8.8250
G00 Z2.0000
G00 X9.8750 Y9.3250
G01 F60.00
G01 Z-0.0600
G01 F100.00
G01 X9.8751 Y9.1725
G01 X9.8754 Y9.1652
G01 X9.8770 Y9.1530
G01 X9.8797 Y9.1411
G01 X9.8836 Y9.1295
G01 X9.8887 Y9.1183
G01 X9.8975 Y9.1035
G01 X9.9019 Y9.0976
G01 X9.9099 Y9.0884
G01 X9.9226 Y9.0769
G01 X9.9326 Y9.0698
G01 X9.9433 Y9.0637
G01 X9.9499 Y9.0605
G01 X9.9661 Y9.0547
G01 X9.9780 Y9.0520
G01 X9.9853 Y9.0509
G01 X10.0000 Y9.0500
G01 X11.3500 Y9.0500
G01 X11.3598 Y9.0504
G01 X11.3768 Y9.0529
G01 X11.3886 Y9.0562
G01 X11.4001 Y9.0605
G01 X11.4067 Y9.0637
G01 X11.4174 Y9.0698
G01 X11.4274 Y9.0769
G01 X11.4366 Y9.0849
G01 X11.4481 Y9.0976
G01 X11.4552 Y9.1076
G01 X11.4613 Y9.1183
G01 X11.4664 Y9.1295
G01 X11.4688 Y9.1364
G01 X11.4721 Y9.1482
G01 X11.4741 Y9.1603
G01 X11.4750 Y9.1750
G01 X11.4749 Y9.3275
G01 X11.4746 Y9.3348
G01 X11.4730 Y9.3470
G01 X11.4703 Y9.3589
G01 X11.4664 Y9.3705
G01 X11.4613 Y9.3817
G01 X11.4525 Y9.3965
G01 X11.4481 Y9.4024
G01 X11.4401 Y9.4116
G01 X11.4274 Y9.4231
G01 X11.4174 Y9.4302
G01 X11.4067 Y9.4363
G01 X11.4001 Y9.4395
G01 X11.3839 Y9.4453
G01 X11.3720 Y9.4480
G01 X11.3647 Y9.4491
G01 X11.3500 Y9.4500
G01 X10.0000 Y9.4500
G01 X9.9902 Y9.4496
G01 X9.9780 Y9.4480
G01 X9.9661 Y9.4453
G01 X9.9545 Y9.4414
G01 X9.9433 Y9.4363
G01 X9.9326 Y9.4302
G01 X9.9226 Y9.4231
G01 X9.9099 Y9.4116
G01 X9.9019 Y9.4024
G01 X9.8948 Y9.3924
G01 X9.8887 Y9.3817
G01 X9.8836 Y9.3705
G01 X9.8797 Y9.3589
G01 X9.8770 Y9.3470
G01 X9.8754 Y9.3348
G01 X9.8750 Y9.3250
G00 Z2.0000
G00 X9.0500 Y11.3500
G01 F60.00
G01 Z-0.0600
G01 F100.00
G01 X9.0500 Y10.0000
G01 X9.0509 Y9.9853
G01 X9.0529 Y9.9732
G01 X9.0562 Y9.9614
G01 X9.0586 Y9.9545
G01 X9.0637 Y9.9433
G01 X9.0725 Y9.9285
G01 X9.0769 Y9.9226
G01 X9.0849 Y9.9134
G01 X9.0938 Y9.9050
G01 X9.1076 Y9.8948
G01 X9.1183 Y9.8887
G01 X9.1295 Y9.8836
G01 X9.1364 Y9.8812
G01 X9.1530 Y9.8770
G01 X9.1652 Y9.8754
G01 X9.1750 Y9.8750
G01 X9.3250 Y9.8750
G01 X9.3397 Y9.8759
G01 X9.3518 Y9.8779
G01 X9.3636 Y9.8812
G01 X9.3705 Y9.8836
G01 X9.3861 Y9.8910
G01 X9.3965 Y9.8975
G01 X9.4062 Y9.9050
G01 X9.4151 Y9.9134
G01 X9.4200 Y9.9188
G01 X9.4302 Y9.9326
G01 X9.4363 Y9.9433
G01 X9.4395 Y9.9499
G01 X9.4438 Y9.9614
G01 X9.4471 Y9.9732
G01 X9.4496 Y9.9902
G01 X9.4500 Y10.0000
G01 X9.4500 Y11.3500
G01 X9.4491 Y11.3647
G01 X9.4471 Y11.3768
G01 X9.4438 Y11.3886
G01 X9.4414 Y11.3955
G01 X9.4363 Y11.4067
G01 X9.4275 Y11.4215
G01 X9.4231 Y11.4274
G01 X9.4151 Y11.4366
G01 X9.4062 Y11.4450
G01 X9.3924 Y11.4552
G01 X9.3817 Y11.4613
G01 X9.3705 Y11.4664
G01 X9.3636 Y11.4688
G01 X9.3470 Y11.4730
G01 X9.3348 Y11.4746
G01 X9.3275 Y11.4749
G01 X9.1750 Y11.4750
G01 X9.1652 Y11.4746
G01 X9.1530 Y11.4730
G01 X9.1411 Y11.4703
G01 X9.1295 Y11.4664
G01 X9.1183 Y11.4613
G01 X9.1076 Y11.4552
G01 X9.0976 Y11.4481
G01 X9.0849 Y11.4366
G01 X9.0769 Y11.4274
G01 X9.0698 Y11.4174
G01 X9.0637 Y11.4067
G01 X9.0586 Y11.3955
G01 X9.0547 Y11.3839
G01 X9.0520 Y11.3720
G01 X9.0504 Y11.3598
G01 X9.0500 Y11.3500
G00 Z2.0000
G00 X8.5500 Y11.3500
G01 F60.00
G01 Z-0.0600
G01 F100.00
G01 X8.5500 Y10.0000
G01 X8.5509 Y9.9853
G01 X8.5529 Y9.9732
G01 X8.5562 Y9.9614
G01 X8.5586 Y9.9545
G01 X8.5637 Y9.9433
G01 X8.5725 Y9.9285
G01 X8.5769 Y9.9226
G01 X8.5849 Y9.9134
G01 X8.5938 Y9.9050
G01 X8.6076 Y9.8948
G01 X8.6183 Y9.8887
G01 X8.6295 Y9.8836
G01 X8.6364 Y9.8812
G01 X8.6530 Y9.8770
G01 X8.6652 Y9.8754
G01 X8.6750 Y9.8750
G01 X8.8250 Y9.8750
G01 X8.8397 Y9.8759
G01 X8.8518 Y9.8779
G01 X8.8636 Y9.8812
G01 X8.8705 Y9.8836
G01 X8.8861 Y9.8910
G01 X8.8965 Y9.8975
G01 X8.9062 Y9.9050
G01 X8.9151 Y9.9134
G01 X8.9200 Y9.9188
G01 X8.9302 Y9.9326
G01 X8.9363 Y9.9433
G01 X8.9395 Y9.9499
G01 X8.9438 Y9.9614
G01 X8.9471 Y9.9732
G01 X8.9496 Y9.9902
G01 X8.9500 Y10.0000
G01 X8.9500 Y11.3500
G01 X8.9491 Y11.3647
G01 X8.9471 Y11.3768
G01 X8.9438 Y11.3886
G01 X8.9414 Y11.3955
G01 X8.9363 Y11.4067
G01 X8.9275 Y11.4215
G01 X8.9231 Y11.4274
G01 X8.9151 Y11.4366
G01 X8.9062 Y11.4450
G01 X8.8924 Y11.4552
G01 X8.8817 Y11.4613
G01 X8.8705 Y11.4664
G01 X8.8636 Y11.4688
G01 X8.8470 Y11.4730
G01 X8.8348 Y11.4746
G01 X8.8275 Y11.4749
G01 X8.6750 Y11.4750
G01 X8.6652 Y11.4746
G01 X8.6530 Y11.4730
G01 X8.6411 Y11.4703
G01 X8.6295 Y11.4664
G01 X8.6183 Y11.4613
G01 X8.6076 Y11.4552
G01 X8.5976 Y11.4481
G01 X8.5849 Y11.4366
G01 X8.5769 Y11.4274
G01 X8.5698 Y11.4174
G01 X8.5637 Y11.4067
G01 X8.5586 Y11.3955
G01 X8.5547 Y11.3839
G01 X8.5520 Y11.3720
G01 X8.5504 Y11.3598
G01 X8.5500 Y11.3500
G00 Z2.0000
G00 X8.0500 Y11.3500
G01 F60.00
G01 Z-0.0600
G01 F100.00
G01 X8.0500 Y10.0000
G01 X8.0509 Y9.9853
G01 X8.0529 Y9.9732
G01 X8.0562 Y9.9614
G01 X8.0586 Y9.9545
G01 X8.0637 Y9.9433
G01 X8.0725 Y9.9285
G01 X8.0769 Y9.9226
G01 X8.0849 Y9.9134
G01 X8.0938 Y9.9050
G01 X8.1076 Y9.8948
G01 X8.1183 Y9.8887
G01 X8.1295 Y9.8836
G01 X8.1364 Y9.8812
G01 X8.1530 Y9.8770
G01 X8.1652 Y9.8754
G01 X8.1750 Y9.8750
G01 X8.3250 Y9.8750
G01 X8.3397 Y9.8759
G01 X8.3518 Y9.8779
G01 X8.3636 Y9.8812
G01 X8.3705 Y9.8836
G01 X8.3861 Y9.8910
G01 X8.3965 Y9.8975
G01 X8.4062 Y9.9050
G01 X8.4151 Y9.9134
G01 X8.4200 Y9.9188
G01 X8.4302 Y9.9326
G01 X8.4363 Y9.9433
G01 X8.4395 Y9.9499
G01 X8.4438 Y9.9614
G01 X8.4471 Y9.9732
G01 X8.4496 Y9.9902
G01 X8.4500 Y10.0000
G01 X8.4500 Y11.3500
G01 X8.4491 Y11.3647
G01 X8.4471 Y11.3768
G01 X8.4438 Y11.3886
G01 X8.4414 Y11.3955
G01 X8.4363 Y11.4067
G01 X8.4275 Y11.4215
G01 X8.4231 Y11.4274
G01 X8.4151 Y11.4366
G01 X8.4062 Y11.4450
G01 X8.3924 Y11.4552
G01 X8.3817 Y11.4613
G01 X8.3705 Y11.4664
G01 X8.3636 Y11.4688
G01 X8.3470 Y11.4730
G01 X8.3348 Y11.4746
G01 X8.3275 Y11.4749
G01 X8.1750 Y11.4750
G01 X8.1652 Y11.4746
G01 X8.1530 Y11.4730
G01 X8.1411 Y11.4703
G01 X8.1295 Y11.4664
G01 X8.1183 Y11.4613
G01 X8.1076 Y11.4552
G01 X8.0976 Y11.4481
G01 X8.0849 Y11.4366
G01 X8.0769 Y11.4274
G01 X8.0698 Y11.4174
G01 X8.0637 Y11.4067
G01 X8.0586 Y11.3955
G01 X8.0547 Y11.3839
G01 X8.0520 Y11.3720
G01 X8.0504 Y11.3598
G01 X8.0500 Y11.3500
G00 Z2.0000
G00 X7.5500 Y11.3500
G01 F60.00
G01 Z-0.0600
G01 F100.00
G01 X7.5500 Y10.0000
G01 X7.5509 Y9.9853
G01 X7.5529 Y9.9732
G01 X7.5562 Y9.9614
G01 X7.5586 Y9.9545
G01 X7.5637 Y9.9433
G01 X7.5725 Y9.9285
G01 X7.5769 Y9.9226
G01 X7.5849 Y9.9134
G01 X7.5938 Y9.9050
G01 X7.6076 Y9.8948
G01 X7.6183 Y9.8887
G01 X7.6295 Y9.8836
G01 X7.6364 Y9.8812
G01 X7.6530 Y9.8770
G01 X7.6652 Y9.8754
G01 X7.6750 Y9.8750
G01 X7.8250 Y9.8750
G01 X7.8397 Y9.8759
G01 X7.8518 Y9.8779
G01 X7.8636 Y9.8812
G01 X7.8705 Y9.8836
G01 X7.8861 Y9.8910
G01 X7.8965 Y9.8975
G01 X7.9062 Y9.9050
G01 X7.9151 Y9.9134
G01 X7.9200 Y9.9188
G01 X7.9302 Y9.9326
G01 X7.9363 Y9.9433
G01 X7.9395 Y9.9499
G01 X7.9438 Y9.9614
G01 X7.9471 Y9.9732
G01 X7.9496 Y9.9902
G01 X7.9500 Y10.0000
G01 X7.9500 Y11.3500
G01 X7.9491 Y11.3647
G01 X7.9471 Y11.3768
G01 X7.9438 Y11.3886
G01 X7.9414 Y11.3955
G01 X7.9363 Y11.4067
G01 X7.9275 Y11.4215
G01 X7.9231 Y11.4274
G01 X7.9151 Y11.4366
G01 X7.9062 Y11.4450
G01 X7.8924 Y11.4552
G01 X7.8817 Y11.4613
G01 X7.8705 Y11.4664
G01 X7.8636 Y11.4688
G01 X7.8470 Y11.4730
G01 X7.8348 Y11.4746
G01 X7.8275 Y11.4749
G01 X7.6750 Y11.4750
G01 X7.6652 Y11.4746
G01 X7.6530 Y11.4730
G01 X7.6411 Y11.4703
G01 X7.6295 Y11.4664
G01 X7.6183 Y11.4613
G01 X7.6076 Y11.4552
G01 X7.5976 Y11.4481
G01 X7.5849 Y11.4366
G01 X7.5769 Y11.4274
G01 X7.5698 Y11.4174
G01 X7.5637 Y11.4067
G01 X7.5586 Y11.3955
G01 X7.5547 Y11.3839
G01 X7.5520 Y11.3720
G01 X7.5504 Y11.3598
G01 X7.5500 Y11.3500
G00 Z2.0000
G00 X7.0500 Y11.3500
G01 F60.00
G01 Z-0.0600
G01 F100.00
G01 X7.0500 Y10.0000
G01 X7.0509 Y9.9853
G01 X7.0529 Y9.9732
G01 X7.0562 Y9.9614
G01 X7.0586 Y9.9545
G01 X7.0637 Y9.9433
G01 X7.0725 Y9.9285
G01 X7.0769 Y9.9226
G01 X7.0849 Y9.9134
G01 X7.0938 Y9.9050
G01 X7.1076 Y9.8948
G01 X7.1183 Y9.8887
G01 X7.1295 Y9.8836
G01 X7.1364 Y9.8812
G01 X7.1530 Y9.8770
G01 X7.1652 Y9.8754
G01 X7.1750 Y9.8750
G01 X7.3250 Y9.8750
G01 X7.3397 Y9.8759
G01 X7.3518 Y9.8779
G01 X7.3636 Y9.8812
G01 X7.3705 Y9.8836
G01 X7.3861 Y9.8910
G01 X7.3965 Y9.8975
G01 X7.4062 Y9.9050
G01 X7.4151 Y9.9134
G01 X7.4200 Y9.9188
G01 X7.4302 Y9.9326
G01 X7.4363 Y9.9433
G01 X7.4395 Y9.9499
G01 X7.4438 Y9.9614
G01 X7.4471 Y9.9732
G01 X7.4496 Y9.9902
G01 X7.4500 Y10.0000
G01 X7.4500 Y11.3500
G01 X7.4491 Y11.3647
G01 X7.4471 Y11.3768
G01 X7.4438 Y11.3886
G01 X7.4414 Y11.3955
G01 X7.4363 Y11.4067
G01 X7.4275 Y11.4215
G01 X7.4231 Y11.4274
G01 X7.4151 Y11.4366
G01 X7.4062 Y11.4450
G01 X7.3924 Y11.4552
G01 X7.3817 Y11.4613
G01 X7.3705 Y11.4664
G01 X7.3636 Y11.4688
G01 X7.3470 Y11.4730
G01 X7.3348 Y11.4746
G01 X7.3275 Y11.4749
G01 X7.1750 Y11.4750
G01 X7.1652 Y11.4746
G01 X7.1530 Y11.4730
G01 X7.1411 Y11.4703
G01 X7.1295 Y11.4664
G01 X7.1183 Y11.4613
G01 X7.1076 Y11.4552
G01 X7.0976 Y11.4481
G01 X7.0849 Y11.4366
G01 X7.0769 Y11.4274
G01 X7.0698 Y11.4174
G01 X7.0637 Y11.4067
G01 X7.0586 Y11.3955
G01 X7.0547 Y11.3839
G01 X7.0520 Y11.3720
G01 X7.0504 Y11.3598
G01 X7.0500 Y11.3500
G00 Z2.0000
G00 X6.5500 Y11.3500
G01 F60.00
G01 Z-0.0600
G01 F100.00
G01 X6.5500 Y10.0000
G01 X6.5509 Y9.9853
G01 X6.5529 Y9.9732
G01 X6.5562 Y9.9614
G01 X6.5586 Y9.9545
G01 X6.5637 Y9.9433
G01 X6.5725 Y9.9285
G01 X6.5769 Y9.9226
G01 X6.5849 Y9.9134
G01 X6.5938 Y9.9050
G01 X6.6076 Y9.8948
G01 X6.6183 Y9.8887
G01 X6.6295 Y9.8836
G01 X6.6364 Y9.8812
G01 X6.6530 Y9.8770
G01 X6.6652 Y9.8754
G01 X6.6750 Y9.8750
G01 X6.8250 Y9.8750
G01 X6.8397 Y9.8759
G01 X6.8518 Y9.8779
G01 X6.8636 Y9.8812
G01 X6.8705 Y9.8836
G01 X6.8861 Y9.8910
G01 X6.8965 Y9.8975
G01 X6.9062 Y9.9050
G01 X6.9151 Y9.9134
G01 X6.9200 Y9.9188
G01 X6.9302 Y9.9326
G01 X6.9363 Y9.9433
G01 X6.9395 Y9.9499
G01 X6.9438 Y9.9614
G01 X6.9471 Y9.9732
G01 X6.9496 Y9.9902
G01 X6.9500 Y10.0000
G01 X6.9500 Y11.3500
G01 X6.9491 Y11.3647
G01 X6.9471 Y11.3768
G01 X6.9438 Y11.3886
G01 X6.9414 Y11.3955
G01 X6.9363 Y11.4067
G01 X6.9275 Y11.4215
G01 X6.9231 Y11.4274
G01 X6.9151 Y11.4366
G01 X6.9062 Y11.4450
G01 X6.8924 Y11.4552
G01 X6.8817 Y11.4613
G01 X6.8705 Y11.4664
G01 X6.8636 Y11.4688
G01 X6.8470 Y11.4730
G01 X6.8348 Y11.4746
G01 X6.8275 Y11.4749
G01 X6.6750 Y11.4750
G01 X6.6652 Y11.4746
G01 X6.6530 Y11.4730
G01 X6.6411 Y11.4703
G01 X6.6295 Y11.4664
G01 X6.6183 Y11.4613
G01 X6.6076 Y11.4552
G01 X6.5976 Y11.4481
G01 X6.5849 Y11.4366
G01 X6.5769 Y11.4274
G01 X6.5698 Y11.4174
G01 X6.5637 Y11.4067
G01 X6.5586 Y11.3955
G01 X6.5547 Y11.3839
G01 X6.5520 Y11.3720
G01 X6.5504 Y11.3598
G01 X6.5500 Y11.3500
G00 Z2.0000
G00 X6.0500 Y11.3500
G01 F60.00
G01 Z-0.0600
G01 F100.00
G01 X6.0500 Y10.0000
G01 X6.0509 Y9.9853
G01 X6.0529 Y9.9732
G01 X6.0562 Y9.9614
G01 X6.0586 Y9.9545
G01 X6.0637 Y9.9433
G01 X6.0725 Y9.9285
G01 X6.0769 Y9.9226
G01 X6.0849 Y9.9134
G01 X6.0938 Y9.9050
G01 X6.1076 Y9.8948
G01 X6.1183 Y9.8887
G01 X6.1295 Y9.8836
G01 X6.1364 Y9.8812
G01 X6.1530 Y9.8770
G01 X6.1652 Y9.8754
G01 X6.1750 Y9.8750
G01 X6.3250 Y9.8750
G01 X6.3397 Y9.8759
G01 X6.3518 Y9.8779
G01 X6.3636 Y9.8812
G01 X6.3705 Y9.8836
G01 X6.3861 Y9.8910
G01 X6.3965 Y9.8975
G01 X6.4062 Y9.9050
G01 X6.4151 Y9.9134
G01 X6.4200 Y9.9188
G01 X6.4302 Y9.9326
G01 X6.4363 Y9.9433
G01 X6.4395 Y9.9499
G01 X6.4438 Y9.9614
G01 X6.4471 Y9.9732
G01 X6.4496 Y9.9902
G01 X6.4500 Y10.0000
G01 X6.4500 Y11.3500
G01 X6.4491 Y11.3647
G01 X6.4471 Y11.3768
G01 X6.4438 Y11.3886
G01 X6.4414 Y11.3955
G01 X6.4363 Y11.4067
G01 X6.4275 Y11.4215
G01 X6.4231 Y11.4274
G01 X6.4151 Y11.4366
G01 X6.4062 Y11.4450
G01 X6.3924 Y11.4552
G01 X6.3817 Y11.4613
G01 X6.3705 Y11.4664
G01 X6.3636 Y11.4688
G01 X6.3470 Y11.4730
G01 X6.3348 Y11.4746
G01 X6.3275 Y11.4749
G01 X6.1750 Y11.4750
G01 X6.1652 Y11.4746
G01 X6.1530 Y11.4730
G01 X6.1411 Y11.4703
G01 X6.1295 Y11.4664
G01 X6.1183 Y11.4613
G01 X6.1076 Y11.4552
G01 X6.0976 Y11.4481
G01 X6.0849 Y11.4366
G01 X6.0769 Y11.4274
G01 X6.0698 Y11.4174
G01 X6.0637 Y11.4067
G01 X6.0586 Y11.3955
G01 X6.0547 Y11.3839
G01 X6.0520 Y11.3720
G01 X6.0504 Y11.3598
G01 X6.0500 Y11.3500
G00 Z2.0000
G00 X5.8517 Y12.8432
G01 F60.00
G01 Z-0.0600
G01 F100.00
G01 X5.8553 Y12.8189
G01 X5.8623 Y12.7903
G01 X5.8738 Y12.7580
G01 X5.8843 Y12.7358
G01 X5.8992 Y12.7104
G01 X5.9197 Y12.6828
G01 X5.9396 Y12.6612
G01 X5.9578 Y12.6447
G01 X5.9854 Y12.6242
G01 X6.0108 Y12.6093
G01 X6.0330 Y12.5988
G01 X6.0606 Y12.5887
G01 X6.0891 Y12.5813
G01 X6.1182 Y12.5767
G01 X6.1500 Y12.5750
G01 X6.9500 Y12.5750
G01 X6.9818 Y12.5767
G01 X7.0109 Y12.5813
G01 X7.0394 Y12.5887
G01 X7.0625 Y12.5970
G01 X7.0936 Y12.6116
G01 X7.1187 Y12.6270
G01 X7.1384 Y12.6416
G01 X7.1604 Y12.6612
G01 X7.1834 Y12.6866
G01 X7.2008 Y12.7104
G01 X7.2157 Y12.7358
G01 X7.2262 Y12.7580
G01 X7.2363 Y12.7856
G01 X7.2447 Y12.8189
G01 X7.2483 Y12.8432
G01 X7.2499 Y12.8725
G01 X7.2500 Y13.2999
G01 X7.8000 Y13.2999
G01 X7.8000 Y12.8750
G01 X7.8017 Y12.8432
G01 X7.8063 Y12.8141
G01 X7.8137 Y12.7856
G01 X7.8238 Y12.7580
G01 X7.8366 Y12.7314
G01 X7.8520 Y12.7063
G01 X7.8697 Y12.6828
G01 X7.8896 Y12.6612
G01 X7.9078 Y12.6447
G01 X7.9313 Y12.6270
G01 X7.9564 Y12.6116
G01 X7.9875 Y12.5970
G01 X8.0153 Y12.5873
G01 X8.0439 Y12.5803
G01 X8.0682 Y12.5767
G01 X8.1000 Y12.5750
G01 X8.9025 Y12.5751
G01 X8.9318 Y12.5767
G01 X8.9609 Y12.5813
G01 X8.9894 Y12.5887
G01 X9.0170 Y12.5988
G01 X9.0392 Y12.6093
G01 X9.0646 Y12.6242
G01 X9.0922 Y12.6447
G01 X9.1138 Y12.6646
G01 X9.1303 Y12.6828
G01 X9.1480 Y12.7063
G01 X9.1657 Y12.7358
G01 X9.1780 Y12.7625
G01 X9.1863 Y12.7856
G01 X9.1947 Y12.8189
G01 X9.1987 Y12.8480
G01 X9.2000 Y12.8750
G01 X9.2000 Y14.1250
G01 X9.1983 Y14.1568
G01 X9.1937 Y14.1859
G01 X9.1863 Y14.2144
G01 X9.1762 Y14.2420
G01 X9.1657 Y14.2642
G01 X9.1508 Y14.2896
G01 X9.1303 Y14.3172
G01 X9.1104 Y14.3388
G01 X9.0922 Y14.3553
G01 X9.0687 Y14.3730
G01 X9.0436 Y14.3884
G01 X9.0125 Y14.4030
G01 X8.9847 Y14.4127
G01 X8.9561 Y14.4197
G01 X8.9318 Y14.4233
G01 X8.9000 Y14.4250
G01 X8.1000 Y14.4250
G01 X8.0682 Y14.4233
G01 X8.0439 Y14.4197
G01 X8.0153 Y14.4127
G01 X7.9830 Y14.4012
G01 X7.9564 Y14.3884
G01 X7.9313 Y14.3730
G01 X7.9116 Y14.3584
G01 X7.8862 Y14.3354
G01 X7.8666 Y14.3134
G01 X7.8520 Y14.2937
G01 X7.8366 Y14.2686
G01 X7.8220 Y14.2375
G01 X7.8123 Y14.2097
G01 X7.8053 Y14.1811
G01 X7.8017 Y14.1568
G01 X7.8000 Y14.1250
G01 X7.8000 Y13.7001
G01 X7.2500 Y13.7001
G01 X7.2500 Y14.1250
G01 X7.2483 Y14.1568
G01 X7.2437 Y14.1859
G01 X7.2363 Y14.2144
G01 X7.2262 Y14.2420
G01 X7.2134 Y14.2686
G01 X7.1980 Y14.2937
G01 X7.1803 Y14.3172
G01 X7.1604 Y14.3388
G01 X7.1422 Y14.3553
G01 X7.1187 Y14.3730
G01 X7.0936 Y14.3884
G01 X7.0625 Y14.4030
G01 X7.0347 Y14.4127
G01 X7.0061 Y14.4197
G01 X6.9818 Y14.4233
G01 X6.9500 Y14.4250
G01 X6.1475 Y14.4249
G01 X6.1182 Y14.4233
G01 X6.0891 Y14.4187
G01 X6.0606 Y14.4113
G01 X6.0330 Y14.4012
G01 X6.0108 Y14.3907
G01 X5.9854 Y14.3758
G01 X5.9578 Y14.3553
G01 X5.9362 Y14.3354
G01 X5.9197 Y14.3172
G01 X5.9020 Y14.2937
G01 X5.8843 Y14.2642
G01 X5.8720 Y14.2375
G01 X5.8623 Y14.2097
G01 X5.8553 Y14.1811
G01 X5.8517 Y14.1568
G01 X5.8500 Y14.1250
G01 X5.8500 Y12.8750
G01 X5.8517 Y12.8432
G00 Z2.0000
G00 X10.3011 Y11.5476
G01 F60.00
G01 Z-0.0600
G01 F100.00
G01 X10.3012 Y10.5452
G01 X10.3018 Y10.5329
G01 X10.3041 Y10.5159
G01 X10.3094 Y10.4945
G01 X10.3136 Y10.4829
G01 X10.3207 Y10.4673
G01 X10.3320 Y10.4484
G01 X10.3394 Y10.4385
G01 X10.3507 Y10.4256
G01 X10.3633 Y10.4139
G01 X10.3769 Y10.4035
G01 X10.3959 Y10.3921
G01 X10.4115 Y10.3850
G01 X10.4230 Y10.3809
G01 X10.4396 Y10.3765
G01 X10.4566 Y10.3737
G01 X10.4786 Y10.3726
G01 X10.4958 Y10.3737
G01 X10.5127 Y10.3765
G01 X10.5293 Y10.3809
G01 X10.5409 Y10.3850
G01 X10.5565 Y10.3921
G01 X10.5755 Y10.4035
G01 X10.5891 Y10.4139
G01 X10.6017 Y10.4256
G01 X10.6099 Y10.4347
G01 X10.6203 Y10.4484
G01 X10.6317 Y10.4673
G01 X10.6388 Y10.4829
G01 X10.6429 Y10.4945
G01 X10.6483 Y10.5159
G01 X10.6506 Y10.5329
G01 X10.6513 Y10.5476
G01 X10.6513 Y10.8884
G01 X10.8956 Y10.4608
G01 X10.9062 Y10.4445
G01 X10.9169 Y10.4313
G01 X10.9253 Y10.4225
G01 X10.9418 Y10.4082
G01 X10.9558 Y10.3986
G01 X10.9707 Y10.3904
G01 X10.9863 Y10.3837
G01 X11.0025 Y10.3785
G01 X11.0191 Y10.3749
G01 X11.0360 Y10.3730
G01 X11.0530 Y10.3727
G01 X11.0651 Y10.3735
G01 X11.0819 Y10.3760
G01 X11.0984 Y10.3801
G01 X11.1188 Y10.3877
G01 X11.1340 Y10.3954
G01 X11.1484 Y10.4045
G01 X11.1580 Y10.4118
G01 X11.1707 Y10.4232
G01 X11.1822 Y10.4357
G01 X11.1924 Y10.4493
G01 X11.2013 Y10.4638
G01 X11.2087 Y10.4791
G01 X11.2159 Y10.4997
G01 X11.2198 Y10.5162
