(G-CODE GENERATED BY FLATCAM v8.994 - www.flatcam.org - Version Date: 2020/11/7)

(Name: CIM_driver-F_Cu.gbr_iso_combined_cnc)
(Type: G-code from Geometry)
(Units: MM)

(Created on Friday, 03 May 2024 at 19:16)

(This preprocessor is the default preprocessor used by FlatCAM.)
(It is made to work with MACH3 compatible motion controllers.)

(TOOL DIAMETER: 0.1 mm)
(Feedrate_XY: 60.0 mm/min)
(Feedrate_Z: 30.0 mm/min)
(Feedrate rapids 1500.0 mm/min)

(Z_Cut: -0.05 mm)
(Z_Move: 2.0 mm)
(Z Start: None mm)
(Z End: 15.0 mm)
(X,Y End: None mm)
(Steps per circle: 64)
(Preprocessor Geometry: default)

(X range:    0.3587 ...   77.7620  mm)
(Y range:    0.7380 ...   59.4020  mm)

(Spindle Speed: 0.0 RPM)
G21
G90
G94

G01 F60.00

M5
G00 Z15.0000
G00 X0.0000 Y0.0000
T1
M6    
(MSG, Change to Tool Dia = 0.1000)
M0
G00 Z15.0000

M03
G01 F60.00
G00 X0.3588 Y11.9075
G01 F30.00
G01 Z-0.0500
G01 F60.00
G01 X0.3710 Y11.6599
G01 X0.4078 Y11.4123
G01 X0.4686 Y11.1694
G01 X0.5521 Y10.9360
G01 X0.6612 Y10.7052
G01 X0.7887 Y10.4926
G01 X0.9379 Y10.2915
G01 X1.1060 Y10.1060
G01 X3.6069 Y7.6051
G01 X3.7934 Y7.4363
G01 X3.9926 Y7.2887
G01 X4.2063 Y7.1606
G01 X4.4337 Y7.0530
G01 X4.6694 Y6.9686
G01 X4.9123 Y6.9078
G01 X5.1612 Y6.8709
G01 X5.4100 Y6.8587
G01 X8.7626 Y6.8587
G01 X8.9962 Y6.7188
G01 X9.2647 Y6.5918
G01 X9.5465 Y6.4907
G01 X9.8393 Y6.4171
G01 X10.1368 Y6.3731
G01 X10.4347 Y6.3585
G01 X40.4100 Y6.3585
G01 X40.7067 Y6.3730
G01 X41.0053 Y6.4171
G01 X41.2981 Y6.4907
G01 X41.5778 Y6.5908
G01 X41.8463 Y6.7177
G01 X42.1043 Y6.8721
G01 X42.3459 Y7.0512
G01 X42.5686 Y7.2531
G01 X42.7696 Y7.4751
G01 X42.9465 Y7.7137
G01 X43.0341 Y7.8595
G01 X44.2000 Y7.8595
G01 X44.3042 Y7.8647
G01 X44.4049 Y7.8797
G01 X44.5026 Y7.9041
G01 X44.6020 Y7.9395
G01 X44.6973 Y7.9848
G01 X44.7836 Y8.0365
G01 X44.8645 Y8.0964
G01 X44.9428 Y8.1672
G01 X45.9045 Y9.1290
G01 X45.9720 Y9.2036
G01 X46.0335 Y9.2864
G01 X46.0865 Y9.3748
G01 X46.1305 Y9.4680
G01 X46.1653 Y9.5651
G01 X46.1898 Y9.6627
G01 X46.2054 Y9.7670
G01 X46.2105 Y9.8700
G01 X46.2056 Y9.9705
G01 X46.1903 Y10.0749
G01 X46.1645 Y10.1773
G01 X46.1305 Y10.2720
G01 X46.0865 Y10.3652
G01 X46.0320 Y10.4556
G01 X45.9720 Y10.5364
G01 X45.9037 Y10.6119
G01 X45.8245 Y10.6836
G01 X45.7436 Y10.7435
G01 X45.6573 Y10.7952
G01 X45.5620 Y10.8405
G01 X45.4626 Y10.8759
G01 X45.3649 Y10.9003
G01 X45.2654 Y10.9151
G01 X45.1600 Y10.9205
G01 X45.0546 Y10.9151
G01 X44.9551 Y10.9003
G01 X44.8574 Y10.8759
G01 X44.7580 Y10.8405
G01 X44.6648 Y10.7965
G01 X44.5764 Y10.7435
G01 X44.4936 Y10.6820
G01 X44.4172 Y10.6128
G01 X43.7649 Y9.9605
G01 X43.4096 Y9.9605
G01 X43.4023 Y10.0077
G01 X43.3293 Y10.2981
G01 X43.2292 Y10.5778
G01 X43.1012 Y10.8485
G01 X42.9472 Y11.1053
G01 X42.7704 Y11.3439
G01 X42.5660 Y11.5694
G01 X42.3459 Y11.7688
G01 X42.1053 Y11.9472
G01 X41.8485 Y12.1012
G01 X41.5800 Y12.2282
G01 X41.2934 Y12.3308
G01 X41.0053 Y12.4029
G01 X40.7091 Y12.4468
G01 X40.4100 Y12.4615
G01 X10.4334 Y12.4615
G01 X10.1356 Y12.4468
G01 X9.8418 Y12.4033
G01 X9.5489 Y12.3301
G01 X9.2647 Y12.2282
G01 X8.9962 Y12.1012
G01 X8.7626 Y11.9613
G01 X6.4668 Y11.9613
G01 X5.4613 Y12.9668
G01 X5.4613 Y29.1332
G01 X10.1090 Y33.7810
G01 X10.1353 Y33.7773
G01 X10.5300 Y33.7580
G01 X37.5400 Y33.7580
G01 X37.9372 Y33.7775
G01 X38.3305 Y33.8359
G01 X38.7162 Y33.9325
G01 X39.0906 Y34.0664
G01 X39.4501 Y34.2365
G01 X39.7912 Y34.4409
G01 X40.1106 Y34.6778
G01 X40.4043 Y34.9439
G01 X45.4061 Y39.9457
G01 X45.6737 Y40.2414
G01 X45.9091 Y40.5588
G01 X46.1130 Y40.8988
G01 X46.2836 Y41.2594
G01 X46.4182 Y41.6361
G01 X46.5141 Y42.0195
G01 X46.5722 Y42.4104
G01 X46.5920 Y42.8112
G01 X46.5722 Y43.2096
G01 X46.5141 Y43.6005
G01 X46.4179 Y43.9851
G01 X46.2831 Y44.3618
G01 X46.1141 Y44.7190
G01 X46.0357 Y44.8500
G01 X46.0865 Y44.9348
G01 X46.1305 Y45.0280
G01 X46.1653 Y45.1251
G01 X46.1898 Y45.2227
G01 X46.2056 Y45.3295
G01 X46.2105 Y45.4300
G01 X46.2056 Y45.5305
G01 X46.1898 Y45.6373
G01 X46.1653 Y45.7349
G01 X46.1305 Y45.8320
G01 X46.0852 Y45.9273
G01 X46.0335 Y46.0136
G01 X45.9736 Y46.0945
G01 X45.9028 Y46.1728
G01 X45.8283 Y46.2404
G01 X45.7416 Y46.3048
G01 X45.6552 Y46.3565
G01 X45.5620 Y46.4005
G01 X45.4649 Y46.4353
G01 X45.3661 Y46.4601
G01 X45.2630 Y46.4754
G01 X45.1600 Y46.4805
G01 X45.0570 Y46.4754
G01 X44.9551 Y46.4603
G01 X44.8551 Y46.4353
G01 X44.7580 Y46.4005
G01 X44.6648 Y46.3565
G01 X44.5800 Y46.3057
G01 X44.4490 Y46.3841
G01 X44.0918 Y46.5531
G01 X43.7151 Y46.6879
G01 X43.3281 Y46.7846
G01 X42.9372 Y46.8425
G01 X42.5412 Y46.8620
G01 X16.2084 Y46.8620
G01 X13.3952 Y49.6752
G01 X13.1024 Y49.9406
G01 X12.7791 Y50.1804
G01 X12.4401 Y50.3835
G01 X12.0795 Y50.5540
G01 X11.7039 Y50.6882
G01 X11.3205 Y50.7841
G01 X10.9296 Y50.8422
G01 X10.5300 Y50.8620
G01 X10.1304 Y50.8422
G01 X9.7395 Y50.7841
G01 X9.3561 Y50.6882
G01 X8.9794 Y50.5536
G01 X8.6178 Y50.3823
G01 X8.2788 Y50.1791
G01 X7.9614 Y49.9437
G01 X7.6648 Y49.6752
G01 X7.3963 Y49.3786
G01 X7.1609 Y49.0612
G01 X6.9577 Y48.7222
G01 X6.7856 Y48.3583
G01 X6.6525 Y47.9862
G01 X6.5564 Y47.6029
G01 X6.4975 Y47.2072
G01 X6.4780 Y46.8100
G01 X6.4973 Y46.4153
G01 X6.5561 Y46.0183
G01 X6.6525 Y45.6338
G01 X6.7874 Y45.2571
G01 X6.9565 Y44.8999
G01 X7.1596 Y44.5609
G01 X7.3970 Y44.2404
G01 X7.6648 Y43.9448
G01 X9.8143 Y41.7953
G01 X9.7383 Y41.7839
G01 X9.3514 Y41.6868
G01 X8.9794 Y41.5536
G01 X8.6178 Y41.3823
G01 X8.2788 Y41.1791
G01 X7.9594 Y40.9422
G01 X7.6648 Y40.6752
G01 X7.3986 Y40.3815
G01 X7.1609 Y40.0612
G01 X6.9565 Y39.7201
G01 X6.7864 Y39.3606
G01 X6.6525 Y38.9862
G01 X6.5559 Y38.6005
G01 X6.4975 Y38.2072
G01 X6.4780 Y37.8100
G01 X6.4973 Y37.4153
G01 X6.5010 Y37.3890
G01 X1.1043 Y31.9922
G01 X0.9379 Y31.8085
G01 X0.7901 Y31.6094
G01 X0.6600 Y31.3927
G01 X0.5521 Y31.1640
G01 X0.4686 Y30.9306
G01 X0.4078 Y30.6877
G01 X0.3710 Y30.4401
G01 X0.3587 Y30.1900
G01 X0.3588 Y11.9075
G00 Z2.0000
G00 X6.4781 Y25.8075
G01 F30.00
G01 Z-0.0500
G01 F60.00
G01 X6.4975 Y25.4128
G01 X6.5559 Y25.0195
G01 X6.6525 Y24.6338
G01 X6.7856 Y24.2617
G01 X6.9577 Y23.8978
G01 X7.1609 Y23.5588
G01 X7.3978 Y23.2394
G01 X7.6648 Y22.9448
G01 X7.9594 Y22.6778
G01 X8.2788 Y22.4409
G01 X8.6178 Y22.2377
G01 X8.9794 Y22.0664
G01 X9.3514 Y21.9332
G01 X9.7383 Y21.8361
G01 X9.8186 Y21.8241
G01 X9.7648 Y21.7752
G01 X7.6631 Y19.6734
G01 X7.3978 Y19.3806
G01 X7.1623 Y19.0632
G01 X6.9559 Y18.7190
G01 X6.7864 Y18.3606
G01 X6.6525 Y17.9862
G01 X6.5559 Y17.6005
G01 X6.4975 Y17.2072
G01 X6.4780 Y16.8100
G01 X6.4975 Y16.4128
G01 X6.5559 Y16.0195
G01 X6.6518 Y15.6361
G01 X6.7864 Y15.2594
G01 X6.9577 Y14.8978
G01 X7.1609 Y14.5588
G01 X7.3963 Y14.2414
G01 X7.6666 Y13.9431
G01 X7.9594 Y13.6778
G01 X8.2768 Y13.4423
G01 X8.6199 Y13.2365
G01 X8.9817 Y13.0656
G01 X9.3538 Y12.9325
G01 X9.7395 Y12.8359
G01 X10.1328 Y12.7775
G01 X10.5275 Y12.7581
G01 X10.9272 Y12.7775
G01 X11.3205 Y12.8359
G01 X11.7039 Y12.9318
G01 X12.0818 Y13.0669
G01 X12.4401 Y13.2365
G01 X12.7791 Y13.4396
G01 X13.1006 Y13.6778
G01 X13.3952 Y13.9448
G01 X14.3084 Y14.8580
G01 X34.8100 Y14.8580
G01 X35.2096 Y14.8778
G01 X35.6005 Y14.9359
G01 X35.9851 Y15.0321
G01 X36.3606 Y15.1664
G01 X36.7222 Y15.3377
G01 X37.0612 Y15.5409
G01 X37.3786 Y15.7763
G01 X37.6734 Y16.0431
G01 X43.3884 Y21.7580
G01 X48.5516 Y21.7580
G01 X53.3848 Y16.9248
G01 X53.6794 Y16.6578
G01 X53.9978 Y16.4216
G01 X54.3399 Y16.2165
G01 X54.6994 Y16.0464
G01 X55.0738 Y15.9125
G01 X55.4595 Y15.8159
G01 X55.8528 Y15.7575
G01 X56.2500 Y15.7380
G01 X56.6472 Y15.7575
G01 X57.0393 Y15.8156
G01 X57.4262 Y15.9125
G01 X57.8006 Y16.0464
G01 X58.1601 Y16.2165
G01 X58.5032 Y16.4223
G01 X58.8206 Y16.6578
G01 X59.1134 Y16.9231
G01 X59.3806 Y17.2176
G01 X59.6191 Y17.5388
G01 X59.8235 Y17.8799
G01 X59.9936 Y18.2394
G01 X60.1282 Y18.6161
G01 X60.2241 Y18.9995
G01 X60.2822 Y19.3904
G01 X60.3019 Y19.7875
G01 X60.2825 Y20.1872
G01 X60.2241 Y20.5805
G01 X60.1275 Y20.9662
G01 X59.9936 Y21.3406
G01 X59.8235 Y21.7001
G01 X59.6191 Y22.0412
G01 X59.3822 Y22.3606
G01 X59.1161 Y22.6543
G01 X53.0943 Y28.6761
G01 X52.7986 Y28.9437
G01 X52.4812 Y29.1791
G01 X52.1422 Y29.3823
G01 X51.7806 Y29.5536
G01 X51.4074 Y29.6872
G01 X51.3357 Y29.7053
G01 X56.2500 Y34.6196
G01 X57.2057 Y33.6639
G01 X57.4994 Y33.3978
G01 X57.8188 Y33.1609
G01 X58.1599 Y32.9565
G01 X58.5194 Y32.7864
G01 X58.8938 Y32.6525
G01 X59.2807 Y32.5556
G01 X59.6728 Y32.4975
G01 X60.0688 Y32.4780
G01 X65.4112 Y32.4780
G01 X65.8072 Y32.4975
G01 X66.2005 Y32.5559
G01 X66.5862 Y32.6525
G01 X66.9606 Y32.7864
G01 X67.3201 Y32.9565
G01 X67.6612 Y33.1609
G01 X67.9806 Y33.3978
G01 X68.2734 Y33.6631
G01 X68.5437 Y33.9614
G01 X68.7791 Y34.2788
G01 X68.9835 Y34.6199
G01 X69.1536 Y34.9794
G01 X69.2868 Y35.3514
G01 X69.3846 Y35.7419
G01 X69.4425 Y36.1328
G01 X69.4620 Y36.5300
G01 X69.4425 Y36.9272
G01 X69.3844 Y37.3193
G01 X69.2875 Y37.7062
G01 X69.1526 Y38.0829
G01 X68.9823 Y38.4422
G01 X68.7791 Y38.7812
G01 X68.5437 Y39.0986
G01 X68.2752 Y39.3952
G01 X67.9806 Y39.6622
G01 X67.6612 Y39.8991
G01 X67.3190 Y40.1041
G01 X66.9606 Y40.2736
G01 X66.5862 Y40.4075
G01 X66.2005 Y40.5041
G01 X65.8059 Y40.5626
G01 X65.4100 Y40.5820
G01 X61.7484 Y40.5820
G01 X59.1143 Y43.2161
G01 X58.8186 Y43.4837
G01 X58.5012 Y43.7191
G01 X58.1622 Y43.9223
G01 X57.7983 Y44.0944
G01 X57.4262 Y44.2275
G01 X57.0381 Y44.3246
G01 X56.6472 Y44.3825
G01 X56.2500 Y44.4020
G01 X55.8528 Y44.3825
G01 X55.4607 Y44.3244
G01 X55.0714 Y44.2268
G01 X54.6994 Y44.0936
G01 X54.3399 Y43.9235
G01 X53.9968 Y43.7177
G01 X53.6794 Y43.4822
G01 X53.3857 Y43.2161
G01 X40.0316 Y29.8620
G01 X10.5300 Y29.8620
G01 X10.1316 Y29.8424
G01 X9.7395 Y29.7841
G01 X9.3538 Y29.6875
G01 X8.9794 Y29.5536
G01 X8.6199 Y29.3835
G01 X8.2788 Y29.1791
G01 X7.9594 Y28.9422
G01 X7.6648 Y28.6752
G01 X7.3994 Y28.3824
G01 X7.1609 Y28.0612
G01 X6.9577 Y27.7222
G01 X6.7856 Y27.3583
G01 X6.6525 Y26.9862
G01 X6.5559 Y26.6005
G01 X6.4975 Y26.2072
G01 X6.4781 Y25.8075
G00 Z2.0000
G00 X26.1930 Y55.3950
G01 F30.00
G01 Z-0.0500
G01 F60.00
G01 X26.1939 Y55.3755
G01 X26.1964 Y55.3586
G01 X26.2009 Y55.3395
G01 X26.2024 Y55.3345
G01 X26.2082 Y55.3184
G01 X26.2166 Y55.3006
G01 X26.2267 Y55.2838
G01 X26.2383 Y55.2682
G01 X26.2514 Y55.2536
G01 X26.2641 Y55.2420
G01 X26.2797 Y55.2301
G01 X26.2840 Y55.2272
G01 X26.2987 Y55.2185
G01 X26.3165 Y55.2101
G01 X26.3348 Y55.2035
G01 X26.3526 Y55.1990
G01 X26.3759 Y55.1956
G01 X26.3930 Y55.1948
G01 X26.4127 Y55.1958
G01 X26.4319 Y55.1986
G01 X26.4485 Y55.2027
G01 X26.4671 Y55.2090
G01 X26.4719 Y55.2110
G01 X26.4874 Y55.2184
G01 X26.5019 Y55.2271
G01 X26.5198 Y55.2401
G01 X26.5344 Y55.2532
G01 X26.5830 Y55.3019
G01 X26.6546 Y55.3377
G01 X26.9173 Y55.3377
G01 X26.9889 Y55.3019
G01 X27.0144 Y55.2764
G01 X27.0502 Y55.2048
G01 X27.0502 Y54.9421
G01 X27.0144 Y54.8705
G01 X26.9889 Y54.8450
G01 X26.9173 Y54.8092
G01 X26.6546 Y54.8092
G01 X26.5830 Y54.8450
G01 X26.5346 Y54.8935
G01 X26.5209 Y54.9059
G01 X26.5042 Y54.9184
G01 X26.4895 Y54.9273
G01 X26.4696 Y54.9369
G01 X26.4512 Y54.9435
G01 X26.4321 Y54.9483
G01 X26.4139 Y54.9510
G01 X26.3931 Y54.9521
G01 X26.3735 Y54.9511
G01 X26.3540 Y54.9483
G01 X26.3327 Y54.9427
G01 X26.3143 Y54.9359
G01 X26.2988 Y54.9285
G01 X26.2840 Y54.9197
G01 X26.2662 Y54.9067
G01 X26.2525 Y54.8944
G01 X26.2384 Y54.8790
G01 X26.2254 Y54.8611
G01 X26.2166 Y54.8463
G01 X26.2092 Y54.8308
G01 X26.2016 Y54.8101
G01 X26.1964 Y54.7886
G01 X26.1940 Y54.7716
G01 X26.1931 Y54.7545
G01 X26.1940 Y54.7324
G01 X26.1971 Y54.7118
G01 X26.2016 Y54.6939
G01 X26.2092 Y54.6732
G01 X26.2166 Y54.6577
G01 X26.2254 Y54.6429
G01 X26.2369 Y54.6270
G01 X26.2516 Y54.6106
G01 X26.3230 Y54.5391
G01 X26.3366 Y54.5267
G01 X26.3428 Y54.5218
G01 X26.3534 Y54.5142
G01 X26.3702 Y54.5041
G01 X26.5179 Y54.4302
G01 X26.5297 Y54.4248
G01 X26.5370 Y54.4219
G01 X26.5493 Y54.4177
G01 X26.5683 Y54.4129
G01 X26.5878 Y54.4101
G01 X26.6061 Y54.4091
G01 X26.9645 Y54.4091
G01 X26.9799 Y54.4097
G01 X26.9982 Y54.4120
G01 X27.0162 Y54.4159
G01 X27.0238 Y54.4181
G01 X27.0372 Y54.4228
G01 X27.0529 Y54.4297
G01 X27.1968 Y54.5016
G01 X27.2129 Y54.5106
G01 X27.2195 Y54.5149
G01 X27.2343 Y54.5259
G01 X27.2449 Y54.5353
G01 X27.3203 Y54.6106
G01 X27.3335 Y54.6251
G01 X27.3452 Y54.6409
G01 X27.3488 Y54.6465
G01 X27.3577 Y54.6626
G01 X27.4292 Y54.8054
G01 X27.4371 Y54.8234
G01 X27.4413 Y54.8356
G01 X27.4435 Y54.8432
G01 X27.4467 Y54.8571
G01 X27.4492 Y54.8741
G01 X27.4503 Y54.8937
G01 X27.4503 Y55.2533
G01 X27.4492 Y55.2729
G01 X27.4472 Y55.2869
G01 X27.4435 Y55.3037
G01 X27.4413 Y55.3113
G01 X27.4371 Y55.3235
G01 X27.4297 Y55.3404
G01 X27.3547 Y55.4903
G01 X27.3474 Y55.5025
G01 X27.3376 Y55.5166
G01 X27.3327 Y55.5227
G01 X27.3203 Y55.5364
G01 X27.2449 Y55.6116
G01 X27.2333 Y55.6217
G01 X27.2185 Y55.6327
G01 X27.2129 Y55.6363
G01 X27.1968 Y55.6453
G01 X27.0540 Y55.7167
G01 X27.0360 Y55.7246
G01 X27.0174 Y55.7307
G01 X26.9982 Y55.7350
G01 X26.9853 Y55.7367
G01 X26.9775 Y55.7374
G01 X26.9645 Y55.7378
G01 X26.6284 Y55.7378
G01 X26.6456 Y55.9091
G01 X27.1788 Y55.9091
G01 X27.1960 Y55.9099
G01 X27.2178 Y55.9129
G01 X27.2392 Y55.9185
G01 X27.2554 Y55.9243
G01 X27.2709 Y55.9316
G01 X27.2900 Y55.9428
G01 X27.3057 Y55.9545
G01 X27.3203 Y55.9677
G01 X27.3335 Y55.9822
G01 X27.3452 Y55.9980
G01 X27.3552 Y56.0149
G01 X27.3636 Y56.0326
G01 X27.3703 Y56.0511
G01 X27.3750 Y56.0701
G01 X27.3779 Y56.0896
G01 X27.3789 Y56.1092
G01 X27.3779 Y56.1288
G01 X27.3750 Y56.1482
G01 X27.3703 Y56.1672
G01 X27.3636 Y56.1857
G01 X27.3552 Y56.2035
G01 X27.3445 Y56.2213
G01 X27.3335 Y56.2361
G01 X27.3185 Y56.2523
G01 X27.3057 Y56.2638
G01 X27.2920 Y56.2741
G01 X27.2752 Y56.2844
G01 X27.2554 Y56.2940
G01 X27.2369 Y56.3006
G01 X27.2178 Y56.3054
G01 X27.1960 Y56.3085
G01 X27.1788 Y56.3092
G01 X26.4621 Y56.3092
G01 X26.4452 Y56.3083
G01 X26.4282 Y56.3059
G01 X26.4065 Y56.3006
G01 X26.3882 Y56.2941
G01 X26.3727 Y56.2869
G01 X26.3524 Y56.2748
G01 X26.3376 Y56.2639
G01 X26.3231 Y56.2507
G01 X26.3099 Y56.2361
G01 X26.2982 Y56.2204
G01 X26.2881 Y56.2035
G01 X26.2797 Y56.1858
G01 X26.2731 Y56.1673
G01 X26.2681 Y56.1470
G01 X26.2654 Y56.1291
G01 X26.1940 Y55.4148
G01 X26.1930 Y55.3950
G00 Z2.0000
G00 X27.6930 Y55.6092
G01 F30.00
G01 Z-0.0500
G01 F60.00
G01 X27.6930 Y54.6092
G01 X27.6939 Y54.5908
G01 X27.6969 Y54.5701
G01 X27.7016 Y54.5511
G01 X27.7082 Y54.5326
G01 X27.7178 Y54.5127
G01 X27.7281 Y54.4960
G01 X27.7384 Y54.4822
G01 X27.7499 Y54.4695
G01 X27.7662 Y54.4545
G01 X27.7819 Y54.4428
G01 X27.7988 Y54.4327
G01 X27.8165 Y54.4243
G01 X27.8350 Y54.4177
G01 X27.8565 Y54.4125
G01 X27.8759 Y54.4099
G01 X27.8931 Y54.4091
G01 X27.9102 Y54.4099
G01 X27.9321 Y54.4129
G01 X27.9512 Y54.4177
G01 X27.9696 Y54.4243
G01 X27.9895 Y54.4339
G01 X28.0062 Y54.4442
G01 X28.0200 Y54.4545
G01 X28.0328 Y54.4660
G01 X28.0477 Y54.4822
G01 X28.0594 Y54.4980
G01 X28.0695 Y54.5149
G01 X28.0784 Y54.5337
G01 X28.0845 Y54.5511
G01 X28.0893 Y54.5701
G01 X28.0922 Y54.5896
G01 X28.0931 Y54.6079
G01 X28.0932 Y55.3784
G01 X28.1546 Y55.4091
G01 X28.2744 Y55.4091
G01 X28.3154 Y55.3886
G01 X28.3359 Y55.3477
G01 X28.3359 Y54.6092
G01 X28.3367 Y54.5908
G01 X28.3397 Y54.5701
G01 X28.3445 Y54.5511
G01 X28.3511 Y54.5326
G01 X28.3595 Y54.5149
G01 X28.3696 Y54.4980
G01 X28.3813 Y54.4822
G01 X28.3945 Y54.4677
G01 X28.4100 Y54.4537
G01 X28.4269 Y54.4415
G01 X28.4416 Y54.4327
G01 X28.4571 Y54.4253
G01 X28.4779 Y54.4177
G01 X28.4969 Y54.4129
G01 X28.5163 Y54.4101
G01 X28.5384 Y54.4092
G01 X28.5555 Y54.4101
G01 X28.5726 Y54.4125
G01 X28.5917 Y54.4171
G01 X28.6125 Y54.4243
G01 X28.6303 Y54.4327
G01 X28.6471 Y54.4428
G01 X28.6647 Y54.4561
G01 X28.6774 Y54.4677
G01 X28.6890 Y54.4804
G01 X28.7009 Y54.4960
G01 X28.7124 Y54.5149
G01 X28.7208 Y54.5326
G01 X28.7274 Y54.5511
G01 X28.7322 Y54.5701
G01 X28.7351 Y54.5896
G01 X28.7360 Y54.6079
G01 X28.7360 Y55.3477
G01 X28.7565 Y55.3886
G01 X28.7975 Y55.4091
G01 X28.9173 Y55.4091
G01 X28.9582 Y55.3886
G01 X28.9787 Y55.3477
G01 X28.9788 Y54.6067
G01 X28.9797 Y54.5896
G01 X28.9821 Y54.5726
G01 X28.9873 Y54.5511
G01 X28.9949 Y54.5304
G01 X29.0023 Y54.5149
G01 X29.0111 Y54.5001
G01 X29.0241 Y54.4822
G01 X29.0391 Y54.4660
G01 X29.0519 Y54.4545
G01 X29.0656 Y54.4442
G01 X29.0845 Y54.4327
G01 X29.1045 Y54.4234
G01 X29.1207 Y54.4177
G01 X29.1374 Y54.4135
G01 X29.1592 Y54.4101
G01 X29.1788 Y54.4091
G01 X29.1984 Y54.4101
G01 X29.2202 Y54.4135
G01 X29.2369 Y54.4177
G01 X29.2531 Y54.4234
G01 X29.2731 Y54.4327
G01 X29.2900 Y54.4428
G01 X29.3076 Y54.4561
G01 X29.3203 Y54.4677
G01 X29.3319 Y54.4804
G01 X29.3452 Y54.4980
G01 X29.3552 Y54.5149
G01 X29.3626 Y54.5304
G01 X29.3703 Y54.5511
G01 X29.3754 Y54.5726
G01 X29.3779 Y54.5896
G01 X29.3789 Y54.6079
G01 X29.3789 Y55.3949
G01 X29.3779 Y55.4145
G01 X29.3760 Y55.4286
G01 X29.3721 Y55.4465
G01 X29.3699 Y55.4541
G01 X29.3632 Y55.4726
G01 X29.3577 Y55.4844
G01 X29.2818 Y55.6358
G01 X29.2767 Y55.6443
G01 X29.2706 Y55.6534
G01 X29.2654 Y55.6604
G01 X29.2577 Y55.6697
G01 X29.2518 Y55.6762
G01 X29.2394 Y55.6881
G01 X29.2300 Y55.6958
G01 X29.2220 Y55.7017
G01 X29.2075 Y55.7109
G01 X29.1968 Y55.7167
G01 X29.0540 Y55.7881
G01 X29.0422 Y55.7935
G01 X29.0349 Y55.7965
G01 X29.0162 Y55.8025
G01 X28.9982 Y55.8064
G01 X28.9787 Y55.8087
G01 X28.9645 Y55.8092
G01 X28.7490 Y55.8092
G01 X28.7306 Y55.8083
G01 X28.7112 Y55.8054
G01 X28.6921 Y55.8006
G01 X28.6799 Y55.7965
G01 X28.6725 Y55.7935
G01 X28.6607 Y55.7881
G01 X28.5359 Y55.7257
G01 X28.4111 Y55.7881
G01 X28.3982 Y55.7940
G01 X28.3809 Y55.8003
G01 X28.3733 Y55.8025
G01 X28.3595 Y55.8056
G01 X28.3425 Y55.8081
G01 X28.3346 Y55.8088
G01 X28.3217 Y55.8092
G01 X28.1074 Y55.8092
G01 X28.0890 Y55.8084
G01 X28.0683 Y55.8054
G01 X28.0557 Y55.8025
G01 X28.0481 Y55.8003
G01 X28.0297 Y55.7935
G01 X28.0190 Y55.7887
G01 X27.9991 Y55.7787
G01 X27.9874 Y55.7856
G01 X27.9696 Y55.7940
G01 X27.9512 Y55.8006
G01 X27.9345 Y55.8049
G01 X27.9102 Y55.8085
G01 X27.8931 Y55.8092
G01 X27.8759 Y55.8085
G01 X27.8517 Y55.8049
G01 X27.8350 Y55.8006
G01 X27.8143 Y55.7930
G01 X27.7988 Y55.7856
G01 X27.7819 Y55.7755
G01 X27.7662 Y55.7638
G01 X27.7499 Y55.7489
G01 X27.7384 Y55.7361
G01 X27.7267 Y55.7203
G01 X27.7166 Y55.7035
G01 X27.7082 Y55.6857
G01 X27.7016 Y55.6672
G01 X27.6969 Y55.6482
G01 X27.6940 Y55.6288
G01 X27.6930 Y55.6092
G00 Z2.0000
G00 X29.6930 Y55.6092
G01 F30.00
G01 Z-0.0500
G01 F60.00
G01 X29.6930 Y54.6092
G01 X29.6939 Y54.5908
G01 X29.6969 Y54.5701
G01 X29.7016 Y54.5511
G01 X29.7082 Y54.5326
G01 X29.7178 Y54.5127
G01 X29.7281 Y54.4960
G01 X29.7384 Y54.4822
G01 X29.7499 Y54.4695
G01 X29.7662 Y54.4545
G01 X29.7819 Y54.4428
G01 X29.7988 Y54.4327
G01 X29.8165 Y54.4243
G01 X29.8350 Y54.4177
G01 X29.8565 Y54.4125
G01 X29.8759 Y54.4099
G01 X29.8931 Y54.4091
G01 X29.9102 Y54.4099
G01 X29.9321 Y54.4129
G01 X29.9512 Y54.4177
G01 X29.9696 Y54.4243
G01 X29.9895 Y54.4339
G01 X30.0062 Y54.4442
G01 X30.0200 Y54.4545
G01 X30.0328 Y54.4660
G01 X30.0477 Y54.4822
G01 X30.0594 Y54.4980
G01 X30.0695 Y54.5149
G01 X30.0784 Y54.5337
G01 X30.0845 Y54.5511
G01 X30.0893 Y54.5701
G01 X30.0922 Y54.5896
G01 X30.0931 Y54.6079
G01 X30.0932 Y55.3784
G01 X30.1546 Y55.4091
G01 X30.2744 Y55.4091
G01 X30.3154 Y55.3886
G01 X30.3359 Y55.3477
G01 X30.3359 Y54.6092
G01 X30.3367 Y54.5908
G01 X30.3397 Y54.5701
G01 X30.3445 Y54.5511
G01 X30.3511 Y54.5326
G01 X30.3595 Y54.5149
G01 X30.3696 Y54.4980
G01 X30.3813 Y54.4822
G01 X30.3945 Y54.4677
G01 X30.4100 Y54.4537
G01 X30.4269 Y54.4415
G01 X30.4416 Y54.4327
G01 X30.4571 Y54.4253
G01 X30.4779 Y54.4177
G01 X30.4969 Y54.4129
G01 X30.5163 Y54.4101
G01 X30.5384 Y54.4092
G01 X30.5555 Y54.4101
G01 X30.5726 Y54.4125
G01 X30.5917 Y54.4171
G01 X30.6125 Y54.4243
G01 X30.6303 Y54.4327
G01 X30.6471 Y54.4428
G01 X30.6647 Y54.4561
G01 X30.6774 Y54.4677
G01 X30.6890 Y54.4804
G01 X30.7009 Y54.4960
G01 X30.7124 Y54.5149
G01 X30.7208 Y54.5326
G01 X30.7274 Y54.5511
G01 X30.7322 Y54.5701
G01 X30.7351 Y54.5896
G01 X30.7360 Y54.6079
G01 X30.7360 Y55.3477
G01 X30.7565 Y55.3886
G01 X30.7975 Y55.4091
G01 X30.9173 Y55.4091
G01 X30.9582 Y55.3886
G01 X30.9787 Y55.3477
G01 X30.9788 Y54.6067
G01 X30.9797 Y54.5896
G01 X30.9821 Y54.5726
G01 X30.9873 Y54.5511
G01 X30.9949 Y54.5304
G01 X31.0023 Y54.5149
G01 X31.0111 Y54.5001
G01 X31.0241 Y54.4822
G01 X31.0391 Y54.4660
G01 X31.0519 Y54.4545
G01 X31.0656 Y54.4442
G01 X31.0845 Y54.4327
G01 X31.1045 Y54.4234
G01 X31.1207 Y54.4177
G01 X31.1374 Y54.4135
G01 X31.1592 Y54.4101
G01 X31.1788 Y54.4091
G01 X31.1984 Y54.4101
G01 X31.2202 Y54.4135
G01 X31.2369 Y54.4177
G01 X31.2531 Y54.4234
G01 X31.2731 Y54.4327
G01 X31.2900 Y54.4428
G01 X31.3076 Y54.4561
G01 X31.3203 Y54.4677
G01 X31.3319 Y54.4804
G01 X31.3452 Y54.4980
G01 X31.3552 Y54.5149
G01 X31.3626 Y54.5304
G01 X31.3703 Y54.5511
G01 X31.3754 Y54.5726
G01 X31.3779 Y54.5896
G01 X31.3789 Y54.6079
G01 X31.3789 Y55.3949
G01 X31.3779 Y55.4145
G01 X31.3760 Y55.4286
G01 X31.3721 Y55.4465
G01 X31.3699 Y55.4541
G01 X31.3632 Y55.4726
G01 X31.3577 Y55.4844
G01 X31.2818 Y55.6358
G01 X31.2767 Y55.6443
G01 X31.2706 Y55.6534
G01 X31.2654 Y55.6604
G01 X31.2577 Y55.6697
G01 X31.2518 Y55.6762
G01 X31.2394 Y55.6881
G01 X31.2300 Y55.6958
G01 X31.2220 Y55.7017
G01 X31.2075 Y55.7109
G01 X31.1968 Y55.7167
G01 X31.0540 Y55.7881
G01 X31.0422 Y55.7935
G01 X31.0349 Y55.7965
G01 X31.0162 Y55.8025
G01 X30.9982 Y55.8064
G01 X30.9787 Y55.8087
G01 X30.9645 Y55.8092
G01 X30.7490 Y55.8092
G01 X30.7306 Y55.8083
G01 X30.7112 Y55.8054
G01 X30.6921 Y55.8006
G01 X30.6799 Y55.7965
G01 X30.6725 Y55.7935
G01 X30.6607 Y55.7881
G01 X30.5359 Y55.7257
G01 X30.4111 Y55.7881
G01 X30.3982 Y55.7940
G01 X30.3809 Y55.8003
G01 X30.3733 Y55.8025
G01 X30.3595 Y55.8056
G01 X30.3425 Y55.8081
G01 X30.3346 Y55.8088
G01 X30.3217 Y55.8092
G01 X30.1074 Y55.8092
G01 X30.0890 Y55.8084
G01 X30.0683 Y55.8054
G01 X30.0557 Y55.8025
G01 X30.0481 Y55.8003
G01 X30.0297 Y55.7935
G01 X30.0190 Y55.7887
G01 X29.9991 Y55.7787
G01 X29.9874 Y55.7856
G01 X29.9696 Y55.7940
G01 X29.9512 Y55.8006
G01 X29.9345 Y55.8049
G01 X29.9102 Y55.8085
G01 X29.8931 Y55.8092
G01 X29.8759 Y55.8085
G01 X29.8517 Y55.8049
G01 X29.8350 Y55.8006
G01 X29.8143 Y55.7930
G01 X29.7988 Y55.7856
G01 X29.7819 Y55.7755
G01 X29.7662 Y55.7638
G01 X29.7499 Y55.7489
G01 X29.7384 Y55.7361
G01 X29.7267 Y55.7203
G01 X29.7166 Y55.7035
G01 X29.7082 Y55.6857
G01 X29.7016 Y55.6672
G01 X29.6969 Y55.6482
G01 X29.6940 Y55.6288
G01 X29.6930 Y55.6092
G00 Z2.0000
G00 X30.4100 Y56.8597
G01 F30.00
G01 Z-0.0500
G01 F60.00
G01 X34.4100 Y56.8597
G01 X34.4652 Y56.8625
G01 X34.5173 Y56.8703
G01 X34.5697 Y56.8834
G01 X34.6206 Y56.9016
G01 X34.6694 Y56.9247
G01 X34.7157 Y56.9525
G01 X34.7591 Y56.9847
G01 X34.7991 Y57.0209
G01 X34.8353 Y57.0609
G01 X34.8675 Y57.1043
G01 X34.8953 Y57.1506
G01 X34.9184 Y57.1994
G01 X34.9366 Y57.2503
G01 X34.9497 Y57.3027
G01 X34.9576 Y57.3561
G01 X34.9603 Y57.4100
G01 X34.9575 Y57.4652
G01 X34.9497 Y57.5173
G01 X34.9366 Y57.5697
G01 X34.9184 Y57.6206
G01 X34.8964 Y57.6672
G01 X34.8661 Y57.7177
G01 X34.8353 Y57.7591
G01 X34.7991 Y57.7991
G01 X34.7591 Y57.8353
G01 X34.7177 Y57.8661
G01 X34.6672 Y57.8964
G01 X34.6206 Y57.9184
G01 X34.5697 Y57.9366
G01 X34.5173 Y57.9497
G01 X34.4639 Y57.9576
G01 X34.4100 Y57.9603
G01 X30.4100 Y57.9603
G01 X30.3548 Y57.9575
G01 X30.3027 Y57.9497
G01 X30.2503 Y57.9366
G01 X30.1994 Y57.9184
G01 X30.1506 Y57.8953
G01 X30.1043 Y57.8675
G01 X30.0609 Y57.8353
G01 X30.0209 Y57.7991
G01 X29.9847 Y57.7591
G01 X29.9525 Y57.7157
G01 X29.9247 Y57.6694
G01 X29.9016 Y57.6206
G01 X29.8834 Y57.5697
G01 X29.8703 Y57.5173
G01 X29.8624 Y57.4639
G01 X29.8597 Y57.4100
G01 X29.8622 Y57.3585
G01 X29.8703 Y57.3027
G01 X29.8834 Y57.2503
G01 X29.9016 Y57.1994
G01 X29.9236 Y57.1528
G01 X29.9525 Y57.1043
G01 X29.9831 Y57.0629
G01 X30.0227 Y57.0192
G01 X30.0609 Y56.9847
G01 X30.1043 Y56.9525
G01 X30.1506 Y56.9247
G01 X30.1994 Y56.9016
G01 X30.2503 Y56.8834
G01 X30.3027 Y56.8703
G01 X30.3561 Y56.8624
G01 X30.4100 Y56.8597
G00 Z2.0000
G00 X31.5544 Y55.6500
G01 F30.00
G01 Z-0.0500
G01 F60.00
G01 X31.5516 Y55.6330
G01 X31.5502 Y55.6134
G01 X31.5507 Y55.5938
G01 X31.5532 Y55.5743
G01 X31.5576 Y55.5552
G01 X31.5638 Y55.5366
G01 X31.5718 Y55.5186
G01 X31.5809 Y55.5026
G01 X31.5929 Y55.4856
G01 X31.8886 Y55.1092
G01 X31.5929 Y54.7328
G01 X31.5815 Y54.7168
G01 X31.5708 Y54.6975
G01 X31.5638 Y54.6818
G01 X31.5583 Y54.6655
G01 X31.5532 Y54.6440
G01 X31.5507 Y54.6245
G01 X31.5502 Y54.6074
G01 X31.5516 Y54.5853
G01 X31.5555 Y54.5636
G01 X31.5600 Y54.5470
G01 X31.5670 Y54.5287
G01 X31.5758 Y54.5111
G01 X31.5849 Y54.4966
G01 X31.5999 Y54.4772
G01 X31.6118 Y54.4647
G01 X31.6266 Y54.4518
G01 X31.6426 Y54.4405
G01 X31.6575 Y54.4319
G01 X31.6799 Y54.4219
G01 X31.6962 Y54.4165
G01 X31.7154 Y54.4122
G01 X31.7348 Y54.4097
G01 X31.7520 Y54.4091
G01 X31.7765 Y54.4109
G01 X31.7934 Y54.4138
G01 X31.8124 Y54.4190
G01 X31.8307 Y54.4260
G01 X31.8483 Y54.4348
G01 X31.8649 Y54.4452
G01 X31.8804 Y54.4572
G01 X31.8947 Y54.4707
G01 X31.9068 Y54.4846
G01 X32.1431 Y54.7853
G01 X32.3794 Y54.4846
G01 X32.3915 Y54.4707
G01 X32.4058 Y54.4572
G01 X32.4213 Y54.4452
G01 X32.4368 Y54.4354
G01 X32.4577 Y54.4251
G01 X32.4738 Y54.4190
G01 X32.4927 Y54.4138
G01 X32.5121 Y54.4105
G01 X32.5292 Y54.4093
G01 X32.5538 Y54.4099
G01 X32.5708 Y54.4122
G01 X32.5899 Y54.4165
G01 X32.6086 Y54.4227
G01 X32.6243 Y54.4297
G01 X32.6456 Y54.4419
G01 X32.6595 Y54.4518
G01 X32.6744 Y54.4647
G01 X32.6879 Y54.4790
G01 X32.6984 Y54.4925
G01 X32.7103 Y54.5111
G01 X32.7191 Y54.5287
G01 X32.7253 Y54.5447
G01 X32.7313 Y54.5660
G01 X32.7346 Y54.5853
G01 X32.7359 Y54.6025
G01 X32.7354 Y54.6245
G01 X32.7330 Y54.6440
G01 X32.7292 Y54.6608
G01 X32.7219 Y54.6829
G01 X32.7132 Y54.7019
G01 X32.7046 Y54.7168
G01 X32.6940 Y54.7318
G01 X32.3975 Y55.1092
G01 X32.6933 Y55.4856
G01 X32.7046 Y55.5016
G01 X32.7154 Y55.5208
G01 X32.7224 Y55.5366
G01 X32.7279 Y55.5528
G01 X32.7330 Y55.5743
G01 X32.7354 Y55.5938
G01 X32.7360 Y55.6110
G01 X32.7346 Y55.6330
G01 X32.7307 Y55.6547
G01 X32.7261 Y55.6713
G01 X32.7191 Y55.6896
G01 X32.7103 Y55.7072
G01 X32.7013 Y55.7218
G01 X32.6862 Y55.7412
G01 X32.6744 Y55.7536
G01 X32.6595 Y55.7665
G01 X32.6435 Y55.7779
G01 X32.6286 Y55.7864
G01 X32.6063 Y55.7964
G01 X32.5899 Y55.8018
G01 X32.5708 Y55.8062
G01 X32.5513 Y55.8087
G01 X32.5341 Y55.8092
G01 X32.5097 Y55.8075
G01 X32.4927 Y55.8045
G01 X32.4738 Y55.7994
G01 X32.4555 Y55.7923
G01 X32.4379 Y55.7836
G01 X32.4213 Y55.7731
G01 X32.4058 Y55.7611
G01 X32.3915 Y55.7476
G01 X32.3794 Y55.7337
G01 X32.1431 Y55.4330
G01 X31.9075 Y55.7328
G01 X31.8955 Y55.7467
G01 X31.8804 Y55.7611
G01 X31.8628 Y55.7745
G01 X31.8461 Y55.7847
G01 X31.8307 Y55.7923
G01 X31.8147 Y55.7985
G01 X31.7934 Y55.8045
G01 X31.7741 Y55.8078
G01 X31.7545 Y55.8092
G01 X31.7324 Y55.8084
G01 X31.7154 Y55.8062
G01 X31.6939 Y55.8011
G01 X31.6776 Y55.7956
G01 X31.6619 Y55.7886
G01 X31.6447 Y55.7791
G01 X31.6266 Y55.7665
G01 X31.6118 Y55.7536
G01 X31.5983 Y55.7394
G01 X31.5863 Y55.7238
G01 X31.5758 Y55.7072
G01 X31.5670 Y55.6896
G01 X31.5600 Y55.6713
G01 X31.5544 Y55.6500
G00 Z2.0000
G00 X32.8372 Y55.7032
G01 F30.00
G01 Z-0.0500
G01 F60.00
G01 X32.8359 Y55.6860
G01 X32.8364 Y55.6664
G01 X32.8387 Y55.6469
G01 X32.8424 Y55.6301
G01 X32.8500 Y55.6068
G01 X32.8570 Y55.5911
G01 X32.8666 Y55.5740
G01 X32.8779 Y55.5579
G01 X32.8907 Y55.5430
G01 X32.9048 Y55.5295
G01 X32.9183 Y55.5188
G01 X32.9390 Y55.5056
G01 X32.9544 Y55.4979
G01 X32.9738 Y55.4904
G01 X32.9916 Y55.4855
G01 X33.0085 Y55.4825
G01 X33.0305 Y55.4806
G01 X33.0501 Y55.4810
G01 X33.0672 Y55.4830
G01 X33.0888 Y55.4876
G01 X33.1074 Y55.4937
G01 X33.1243 Y55.5011
G01 X33.2644 Y55.5712
G01 X33.2644 Y54.8092
G01 X33.0347 Y54.8092
G01 X33.0163 Y54.8083
G01 X32.9993 Y54.8058
G01 X32.9755 Y54.7999
G01 X32.9594 Y54.7940
G01 X32.9416 Y54.7856
G01 X32.9228 Y54.7741
G01 X32.9090 Y54.7638
G01 X32.8962 Y54.7523
G01 X32.8813 Y54.7361
G01 X32.8696 Y54.7203
G01 X32.8595 Y54.7035
G01 X32.8511 Y54.6857
G01 X32.8445 Y54.6672
G01 X32.8397 Y54.6482
G01 X32.8368 Y54.6288
G01 X32.8359 Y54.6092
G01 X32.8368 Y54.5896
G01 X32.8397 Y54.5701
G01 X32.8445 Y54.5511
G01 X32.8511 Y54.5326
G01 X32.8595 Y54.5149
G01 X32.8696 Y54.4980
G01 X32.8813 Y54.4822
G01 X32.8936 Y54.4686
G01 X32.9090 Y54.4545
G01 X32.9248 Y54.4428
G01 X32.9416 Y54.4327
G01 X32.9594 Y54.4243
G01 X32.9779 Y54.4177
G01 X32.9969 Y54.4129
G01 X33.0163 Y54.4101
G01 X33.0359 Y54.4091
G01 X33.8931 Y54.4091
G01 X33.9102 Y54.4099
G01 X33.9345 Y54.4135
G01 X33.9512 Y54.4177
G01 X33.9719 Y54.4253
G01 X33.9874 Y54.4327
G01 X34.0042 Y54.4428
G01 X34.0200 Y54.4545
G01 X34.0337 Y54.4668
G01 X34.0477 Y54.4822
G01 X34.0594 Y54.4980
G01 X34.0695 Y54.5149
G01 X34.0779 Y54.5326
G01 X34.0845 Y54.5511
G01 X34.0893 Y54.5701
G01 X34.0922 Y54.5896
G01 X34.0932 Y54.6092
G01 X34.0922 Y54.6288
G01 X34.0893 Y54.6482
G01 X34.0845 Y54.6672
G01 X34.0779 Y54.6857
G01 X34.0695 Y54.7035
G01 X34.0594 Y54.7203
G01 X34.0477 Y54.7361
G01 X34.0328 Y54.7523
G01 X34.0200 Y54.7638
G01 X34.0062 Y54.7741
G01 X33.9874 Y54.7856
G01 X33.9696 Y54.7940
G01 X33.9535 Y54.7999
G01 X33.9297 Y54.8058
G01 X33.9127 Y54.8083
G01 X33.8943 Y54.8092
G01 X33.6646 Y54.8092
G01 X33.6645 Y56.1118
G01 X33.6636 Y56.1290
G01 X33.6607 Y56.1484
G01 X33.6559 Y56.1674
G01 X33.6493 Y56.1859
G01 X33.6409 Y56.2036
G01 X33.6309 Y56.2203
G01 X33.6192 Y56.2361
G01 X33.6068 Y56.2498
G01 X33.5914 Y56.2638
G01 X33.5777 Y56.2741
G01 X33.5610 Y56.2844
G01 X33.5564 Y56.2868
G01 X33.5409 Y56.2941
G01 X33.5224 Y56.3007
G01 X33.5035 Y56.3054
G01 X33.4841 Y56.3083
G01 X33.4645 Y56.3092
G01 X33.4449 Y56.3083
G01 X33.4255 Y56.3054
G01 X33.4088 Y56.3013
G01 X33.4039 Y56.2998
G01 X33.3855 Y56.2929
G01 X33.3700 Y56.2855
G01 X33.3522 Y56.2747
G01 X33.3374 Y56.2637
G01 X33.3230 Y56.2506
G01 X33.3098 Y56.2361
G01 X33.2996 Y56.2223
G01 X33.1662 Y56.0224
G01 X33.0603 Y55.9165
G01 X32.9465 Y55.8596
G01 X32.9304 Y55.8506
G01 X32.9114 Y55.8371
G01 X32.8984 Y55.8259
G01 X32.8856 Y55.8126
G01 X32.8713 Y55.7942
G01 X32.8621 Y55.7797
G01 X32.8532 Y55.7622
G01 X32.8461 Y55.7439
G01 X32.8414 Y55.7273
G01 X32.8372 Y55.7032
G00 Z2.0000
G00 X34.3359 Y55.6092
G01 F30.00
G01 Z-0.0500
G01 F60.00
G01 X34.3359 Y54.6092
G01 X34.3367 Y54.5908
G01 X34.3397 Y54.5701
G01 X34.3445 Y54.5511
G01 X34.3511 Y54.5326
G01 X34.3607 Y54.5127
G01 X34.3710 Y54.4960
G01 X34.3813 Y54.4822
G01 X34.3928 Y54.4695
G01 X34.4090 Y54.4545
G01 X34.4248 Y54.4428
G01 X34.4416 Y54.4327
G01 X34.4594 Y54.4243
G01 X34.4779 Y54.4177
G01 X34.4993 Y54.4125
G01 X34.5188 Y54.4099
G01 X34.5359 Y54.4091
G01 X34.5531 Y54.4099
G01 X34.5750 Y54.4129
G01 X34.5940 Y54.4177
G01 X34.6125 Y54.4243
G01 X34.6324 Y54.4339
G01 X34.6491 Y54.4442
G01 X34.6629 Y54.4545
G01 X34.6756 Y54.4660
G01 X34.6906 Y54.4822
G01 X34.7023 Y54.4980
G01 X34.7124 Y54.5149
G01 X34.7212 Y54.5337
G01 X34.7274 Y54.5511
G01 X34.7322 Y54.5701
G01 X34.7350 Y54.5896
G01 X34.7360 Y54.6079
G01 X34.7360 Y55.3784
G01 X34.7975 Y55.4091
G01 X34.9173 Y55.4091
G01 X34.9582 Y55.3886
G01 X34.9787 Y55.3477
G01 X34.9787 Y54.6092
G01 X34.9796 Y54.5908
G01 X34.9826 Y54.5701
G01 X34.9873 Y54.5511
G01 X34.9940 Y54.5326
G01 X35.0023 Y54.5149
G01 X35.0124 Y54.4980
G01 X35.0241 Y54.4822
G01 X35.0373 Y54.4677
G01 X35.0528 Y54.4537
G01 X35.0697 Y54.4415
G01 X35.0845 Y54.4327
G01 X35.1000 Y54.4253
G01 X35.1207 Y54.4177
G01 X35.1398 Y54.4129
G01 X35.1592 Y54.4101
G01 X35.1812 Y54.4092
G01 X35.1984 Y54.4101
G01 X35.2154 Y54.4125
G01 X35.2345 Y54.4171
G01 X35.2554 Y54.4243
G01 X35.2731 Y54.4327
G01 X35.2900 Y54.4428
G01 X35.3076 Y54.4561
G01 X35.3203 Y54.4677
G01 X35.3319 Y54.4804
G01 X35.3437 Y54.4960
G01 X35.3552 Y54.5149
G01 X35.3636 Y54.5326
G01 X35.3703 Y54.5511
G01 X35.3750 Y54.5701
G01 X35.3779 Y54.5896
G01 X35.3789 Y54.6079
G01 X35.3789 Y55.3477
G01 X35.3994 Y55.3886
G01 X35.4403 Y55.4091
G01 X35.5601 Y55.4091
G01 X35.6011 Y55.3886
G01 X35.6216 Y55.3477
G01 X35.6216 Y54.6067
G01 X35.6225 Y54.5896
G01 X35.6250 Y54.5726
G01 X35.6302 Y54.5511
G01 X35.6378 Y54.5304
G01 X35.6452 Y54.5149
G01 X35.6540 Y54.5001
G01 X35.6670 Y54.4822
G01 X35.6820 Y54.4660
G01 X35.6947 Y54.4545
G01 X35.7085 Y54.4442
G01 X35.7273 Y54.4327
G01 X35.7474 Y54.4234
G01 X35.7636 Y54.4177
G01 X35.7802 Y54.4135
G01 X35.8020 Y54.4101
G01 X35.8217 Y54.4091
G01 X35.8413 Y54.4101
G01 X35.8631 Y54.4135
G01 X35.8797 Y54.4177
G01 X35.8959 Y54.4234
G01 X35.9160 Y54.4327
G01 X35.9328 Y54.4428
G01 X35.9504 Y54.4561
G01 X35.9631 Y54.4677
G01 X35.9747 Y54.4804
G01 X35.9880 Y54.4980
G01 X35.9981 Y54.5149
G01 X36.0055 Y54.5304
G01 X36.0131 Y54.5511
G01 X36.0183 Y54.5726
G01 X36.0208 Y54.5896
G01 X36.0217 Y54.6079
G01 X36.0217 Y55.3949
G01 X36.0208 Y55.4145
G01 X36.0189 Y55.4286
G01 X36.0149 Y55.4465
G01 X36.0127 Y55.4541
G01 X36.0060 Y55.4726
G01 X36.0006 Y55.4844
G01 X35.9246 Y55.6358
G01 X35.9195 Y55.6443
G01 X35.9135 Y55.6534
G01 X35.9083 Y55.6604
G01 X35.9006 Y55.6697
G01 X35.8946 Y55.6762
G01 X35.8822 Y55.6881
G01 X35.8729 Y55.6958
G01 X35.8649 Y55.7017
G01 X35.8504 Y55.7109
G01 X35.8397 Y55.7167
G01 X35.6968 Y55.7881
G01 X35.6851 Y55.7935
G01 X35.6777 Y55.7965
G01 X35.6590 Y55.8025
G01 X35.6410 Y55.8064
G01 X35.6216 Y55.8087
G01 X35.6074 Y55.8092
G01 X35.3919 Y55.8092
G01 X35.3735 Y55.8083
G01 X35.3540 Y55.8054
G01 X35.3350 Y55.8006
G01 X35.3227 Y55.7965
G01 X35.3154 Y55.7935
G01 X35.3036 Y55.7881
G01 X35.1788 Y55.7257
G01 X35.0540 Y55.7881
G01 X35.0411 Y55.7940
G01 X35.0238 Y55.8003
G01 X35.0162 Y55.8025
G01 X35.0023 Y55.8056
G01 X34.9853 Y55.8081
G01 X34.9775 Y55.8088
G01 X34.9645 Y55.8092
G01 X34.7502 Y55.8092
G01 X34.7318 Y55.8084
G01 X34.7112 Y55.8054
G01 X34.6986 Y55.8025
G01 X34.6910 Y55.8003
G01 X34.6725 Y55.7935
G01 X34.6619 Y55.7887
G01 X34.6419 Y55.7787
G01 X34.6303 Y55.7856
G01 X34.6125 Y55.7940
G01 X34.5940 Y55.8006
G01 X34.5774 Y55.8049
G01 X34.5531 Y55.8085
G01 X34.5359 Y55.8092
G01 X34.5188 Y55.8085
G01 X34.4945 Y55.8049
G01 X34.4779 Y55.8006
G01 X34.4571 Y55.7930
G01 X34.4416 Y55.7856
G01 X34.4248 Y55.7755
G01 X34.4090 Y55.7638
G01 X34.3928 Y55.7489
G01 X34.3813 Y55.7361
G01 X34.3696 Y55.7203
G01 X34.3595 Y55.7035
G01 X34.3511 Y55.6857
G01 X34.3445 Y55.6672
G01 X34.3397 Y55.6482
G01 X34.3368 Y55.6288
G01 X34.3359 Y55.6092
G00 Z2.0000
G00 X36.3359 Y55.6092
G01 F30.00
G01 Z-0.0500
G01 F60.00
G01 X36.3359 Y54.6092
G01 X36.3367 Y54.5908
G01 X36.3397 Y54.5701
G01 X36.3445 Y54.5511
G01 X36.3511 Y54.5326
G01 X36.3607 Y54.5127
G01 X36.3710 Y54.4960
G01 X36.3813 Y54.4822
G01 X36.3928 Y54.4695
G01 X36.4090 Y54.4545
G01 X36.4248 Y54.4428
G01 X36.4416 Y54.4327
G01 X36.4594 Y54.4243
G01 X36.4779 Y54.4177
G01 X36.4993 Y54.4125
G01 X36.5188 Y54.4099
G01 X36.5359 Y54.4091
G01 X36.5531 Y54.4099
G01 X36.5750 Y54.4129
G01 X36.5940 Y54.4177
G01 X36.6125 Y54.4243
G01 X36.6324 Y54.4339
G01 X36.6491 Y54.4442
G01 X36.6629 Y54.4545
G01 X36.6756 Y54.4660
G01 X36.6906 Y54.4822
G01 X36.7023 Y54.4980
G01 X36.7124 Y54.5149
G01 X36.7212 Y54.5337
G01 X36.7274 Y54.5511
G01 X36.7322 Y54.5701
G01 X36.7350 Y54.5896
G01 X36.7360 Y54.6079
G01 X36.7360 Y55.3784
G01 X36.7975 Y55.4091
G01 X36.9173 Y55.4091
G01 X36.9582 Y55.3886
G01 X36.9787 Y55.3477
G01 X36.9787 Y54.6092
G01 X36.9796 Y54.5908
G01 X36.9826 Y54.5701
G01 X36.9873 Y54.5511
G01 X36.9940 Y54.5326
G01 X37.0023 Y54.5149
G01 X37.0124 Y54.4980
G01 X37.0241 Y54.4822
G01 X37.0373 Y54.4677
G01 X37.0528 Y54.4537
G01 X37.0697 Y54.4415
G01 X37.0845 Y54.4327
G01 X37.1000 Y54.4253
G01 X37.1207 Y54.4177
G01 X37.1398 Y54.4129
G01 X37.1592 Y54.4101
G01 X37.1812 Y54.4092
G01 X37.1984 Y54.4101
G01 X37.2154 Y54.4125
G01 X37.2345 Y54.4171
G01 X37.2554 Y54.4243
G01 X37.2731 Y54.4327
G01 X37.2900 Y54.4428
G01 X37.3076 Y54.4561
G01 X37.3203 Y54.4677
G01 X37.3319 Y54.4804
G01 X37.3437 Y54.4960
G01 X37.3552 Y54.5149
G01 X37.3636 Y54.5326
G01 X37.3703 Y54.5511
G01 X37.3750 Y54.5701
G01 X37.3779 Y54.5896
G01 X37.3789 Y54.6079
G01 X37.3789 Y55.3477
G01 X37.3994 Y55.3886
G01 X37.4403 Y55.4091
G01 X37.5601 Y55.4091
G01 X37.6011 Y55.3886
G01 X37.6216 Y55.3477
G01 X37.6216 Y54.6067
G01 X37.6225 Y54.5896
G01 X37.6250 Y54.5726
G01 X37.6302 Y54.5511
G01 X37.6378 Y54.5304
G01 X37.6452 Y54.5149
G01 X37.6540 Y54.5001
G01 X37.6670 Y54.4822
G01 X37.6820 Y54.4660
G01 X37.6947 Y54.4545
G01 X37.7085 Y54.4442
G01 X37.7273 Y54.4327
G01 X37.7474 Y54.4234
G01 X37.7636 Y54.4177
G01 X37.7802 Y54.4135
G01 X37.8020 Y54.4101
G01 X37.8217 Y54.4091
G01 X37.8413 Y54.4101
G01 X37.8631 Y54.4135
G01 X37.8797 Y54.4177
G01 X37.8959 Y54.4234
G01 X37.9160 Y54.4327
G01 X37.9328 Y54.4428
G01 X37.9504 Y54.4561
G01 X37.9631 Y54.4677
G01 X37.9747 Y54.4804
G01 X37.9880 Y54.4980
G01 X37.9981 Y54.5149
G01 X38.0055 Y54.5304
G01 X38.0131 Y54.5511
G01 X38.0183 Y54.5726
G01 X38.0208 Y54.5896
G01 X38.0217 Y54.6079
G01 X38.0217 Y55.3949
G01 X38.0208 Y55.4145
G01 X38.0189 Y55.4286
G01 X38.0149 Y55.4465
G01 X38.0127 Y55.4541
G01 X38.0060 Y55.4726
G01 X38.0006 Y55.4844
G01 X37.9246 Y55.6358
G01 X37.9195 Y55.6443
G01 X37.9135 Y55.6534
G01 X37.9083 Y55.6604
G01 X37.9006 Y55.6697
G01 X37.8946 Y55.6762
G01 X37.8822 Y55.6881
G01 X37.8729 Y55.6958
G01 X37.8649 Y55.7017
G01 X37.8504 Y55.7109
G01 X37.8397 Y55.7167
G01 X37.6968 Y55.7881
G01 X37.6851 Y55.7935
G01 X37.6777 Y55.7965
G01 X37.6590 Y55.8025
G01 X37.6410 Y55.8064
G01 X37.6216 Y55.8087
G01 X37.6074 Y55.8092
G01 X37.3919 Y55.8092
G01 X37.3735 Y55.8083
G01 X37.3540 Y55.8054
G01 X37.3350 Y55.8006
G01 X37.3227 Y55.7965
G01 X37.3154 Y55.7935
G01 X37.3036 Y55.7881
G01 X37.1788 Y55.7257
G01 X37.0540 Y55.7881
G01 X37.0411 Y55.7940
G01 X37.0238 Y55.8003
G01 X37.0162 Y55.8025
G01 X37.0023 Y55.8056
G01 X36.9853 Y55.8081
G01 X36.9775 Y55.8088
G01 X36.9645 Y55.8092
G01 X36.7502 Y55.8092
G01 X36.7318 Y55.8084
G01 X36.7112 Y55.8054
G01 X36.6986 Y55.8025
G01 X36.6910 Y55.8003
G01 X36.6725 Y55.7935
G01 X36.6619 Y55.7887
G01 X36.6419 Y55.7787
G01 X36.6303 Y55.7856
G01 X36.6125 Y55.7940
G01 X36.5940 Y55.8006
G01 X36.5774 Y55.8049
G01 X36.5531 Y55.8085
G01 X36.5359 Y55.8092
G01 X36.5188 Y55.8085
G01 X36.4945 Y55.8049
G01 X36.4779 Y55.8006
G01 X36.4571 Y55.7930
G01 X36.4416 Y55.7856
G01 X36.4248 Y55.7755
G01 X36.4090 Y55.7638
G01 X36.3928 Y55.7489
G01 X36.3813 Y55.7361
G01 X36.3696 Y55.7203
G01 X36.3595 Y55.7035
G01 X36.3511 Y55.6857
G01 X36.3445 Y55.6672
G01 X36.3397 Y55.6482
G01 X36.3368 Y55.6288
G01 X36.3359 Y55.6092
G00 Z2.0000
G00 X43.8596 Y50.7575
G01 F30.00
G01 Z-0.0500
G01 F60.00
G01 X43.8646 Y50.6570
G01 X43.8797 Y50.5551
G01 X43.9047 Y50.4551
G01 X43.9386 Y50.3603
G01 X43.9835 Y50.2648
G01 X44.0352 Y50.1784
G01 X44.0972 Y50.0945
G01 X44.1100 Y50.0802
G01 X44.1101 Y49.5550
G01 X44.1107 Y49.5490
G01 X44.1122 Y49.5430
G01 X44.1143 Y49.5372
G01 X44.1178 Y49.5308
G01 X44.1213 Y49.5258
G01 X44.1255 Y49.5213
G01 X44.1302 Y49.5173
G01 X44.1364 Y49.5134
G01 X44.1420 Y49.5109
G01 X44.1479 Y49.5090
G01 X44.1539 Y49.5079
G01 X44.1600 Y49.5075
G01 X44.8471 Y49.5075
G01 X44.8574 Y49.5041
G01 X44.9575 Y49.4793
G01 X45.0570 Y49.4646
G01 X45.1600 Y49.4595
G01 X45.2630 Y49.4646
G01 X45.3625 Y49.4793
G01 X45.4626 Y49.5041
G01 X45.4729 Y49.5075
G01 X46.1612 Y49.5075
G01 X46.1685 Y49.5082
G01 X46.1745 Y49.5097
G01 X46.1803 Y49.5118
G01 X46.1857 Y49.5146
G01 X46.1908 Y49.5181
G01 X46.1962 Y49.5230
G01 X46.2002 Y49.5277
G01 X46.2041 Y49.5339
G01 X46.2066 Y49.5395
G01 X46.2085 Y49.5454
G01 X46.2096 Y49.5514
G01 X46.2100 Y49.5575
G01 X46.2100 Y50.4986
G01 X46.2105 Y50.5100
G01 X46.2100 Y50.5214
G01 X46.2100 Y51.4625
G01 X46.2096 Y51.4686
G01 X46.2078 Y51.4770
G01 X46.2052 Y51.4839
G01 X46.2009 Y51.4913
G01 X46.1962 Y51.4970
G01 X46.1898 Y51.5027
G01 X46.1836 Y51.5066
G01 X46.1757 Y51.5100
G01 X46.1685 Y51.5118
G01 X46.1600 Y51.5125
G01 X45.9605 Y51.5125
G01 X45.9605 Y57.9100
G01 X45.9553 Y58.0142
G01 X45.9403 Y58.1149
G01 X45.9153 Y58.2149
G01 X45.8805 Y58.3120
G01 X45.8376 Y58.4030
G01 X45.7820 Y58.4956
G01 X45.7220 Y58.5764
G01 X45.6528 Y58.6528
G01 X45.5764 Y58.7220
G01 X45.4956 Y58.7820
G01 X45.4030 Y58.8376
G01 X45.3120 Y58.8805
G01 X45.2149 Y58.9153
G01 X45.1149 Y58.9403
G01 X45.0154 Y58.9551
G01 X44.9100 Y58.9605
G01 X44.8070 Y58.9554
G01 X44.7051 Y58.9403
G01 X44.6051 Y58.9153
G01 X44.5080 Y58.8805
G01 X44.4148 Y58.8365
G01 X44.3264 Y58.7835
G01 X44.2436 Y58.7220
G01 X44.1672 Y58.6528
G01 X44.0980 Y58.5764
G01 X44.0365 Y58.4936
G01 X43.9835 Y58.4052
G01 X43.9395 Y58.3120
G01 X43.9047 Y58.2149
G01 X43.8797 Y58.1149
G01 X43.8649 Y58.0154
G01 X43.8595 Y57.9100
G01 X43.8596 Y50.7575
G00 Z2.0000
G00 X46.5480 Y46.9195
G01 F30.00
G01 Z-0.0500
G01 F60.00
G01 X46.6200 Y46.7673
G01 X46.7494 Y46.5516
G01 X46.8979 Y46.3515
G01 X47.0669 Y46.1651
G01 X47.2515 Y45.9979
G01 X47.4526 Y45.8487
G01 X47.6673 Y45.7200
G01 X47.8926 Y45.6134
G01 X48.1294 Y45.5286
G01 X48.3699 Y45.4683
G01 X48.6224 Y45.4309
G01 X48.8700 Y45.4187
G01 X49.1201 Y45.4310
G01 X49.3677 Y45.4678
G01 X49.6094 Y45.5283
G01 X49.8463 Y45.6130
G01 X50.0748 Y45.7212
G01 X50.2874 Y45.8487
G01 X50.4866 Y45.9963
G01 X50.6731 Y46.1651
G01 X55.8290 Y51.3210
G01 X55.8553 Y51.3173
G01 X56.2500 Y51.2980
G01 X62.7916 Y51.2980
G01 X69.6580 Y44.4316
G01 X69.6580 Y14.8884
G01 X69.4620 Y14.6924
G01 X69.4619 Y21.2925
G01 X69.4425 Y21.6872
G01 X69.3841 Y22.0805
G01 X69.2875 Y22.4662
G01 X69.1531 Y22.8418
G01 X68.9835 Y23.2001
G01 X68.7804 Y23.5391
G01 X68.5406 Y23.8624
G01 X68.2752 Y24.1552
G01 X67.9806 Y24.4222
G01 X67.6612 Y24.6591
G01 X67.3222 Y24.8623
G01 X66.9583 Y25.0344
G01 X66.5862 Y25.1675
G01 X66.2005 Y25.2641
G01 X65.8072 Y25.3225
G01 X65.4125 Y25.3419
G01 X65.0128 Y25.3225
G01 X64.6195 Y25.2641
G01 X64.2361 Y25.1682
G01 X63.8594 Y25.0336
G01 X63.4999 Y24.8635
G01 X63.1609 Y24.6604
G01 X62.8376 Y24.4206
G01 X62.5448 Y24.1552
G01 X62.2778 Y23.8606
G01 X62.0409 Y23.5412
G01 X61.8377 Y23.2022
G01 X61.6656 Y22.8383
G01 X61.5325 Y22.4662
G01 X61.4361 Y22.0817
G01 X61.3775 Y21.6872
G01 X61.3580 Y21.2900
G01 X61.3580 Y8.8420
G01 X56.2488 Y8.8420
G01 X55.8516 Y8.8224
G01 X55.4595 Y8.7641
G01 X55.2230 Y8.7050
G01 X52.2140 Y11.7140
G01 X52.0285 Y11.8821
G01 X51.8274 Y12.0313
G01 X51.6127 Y12.1600
G01 X51.3840 Y12.2679
G01 X51.1506 Y12.3514
G01 X50.9101 Y12.4117
G01 X50.6613 Y12.4488
G01 X50.4100 Y12.4613
G01 X50.1587 Y12.4488
G01 X49.9099 Y12.4117
G01 X49.6694 Y12.3514
G01 X49.5109 Y12.2947
G01 X48.6528 Y13.1528
G01 X48.5764 Y13.2220
G01 X48.4936 Y13.2835
G01 X48.4030 Y13.3376
G01 X48.3120 Y13.3805
G01 X48.2173 Y13.4145
G01 X48.1161 Y13.4401
G01 X48.0130 Y13.4554
G01 X47.9100 Y13.4605
G01 X45.1600 Y13.4605
G01 X45.0570 Y13.4554
G01 X44.9539 Y13.4401
G01 X44.8551 Y13.4153
G01 X44.7603 Y13.3814
G01 X44.6627 Y13.3352
G01 X44.5764 Y13.2835
G01 X44.4936 Y13.2220
G01 X44.4172 Y13.1528
G01 X44.3496 Y13.0783
G01 X44.2852 Y12.9916
G01 X44.2335 Y12.9052
G01 X44.1895 Y12.8120
G01 X44.1547 Y12.7149
G01 X44.1302 Y12.6173
G01 X44.1145 Y12.5117
G01 X44.1095 Y12.4100
G01 X44.1144 Y12.3095
G01 X44.1297 Y12.2051
G01 X44.1547 Y12.1051
G01 X44.1886 Y12.0103
G01 X44.2348 Y11.9127
G01 X44.2865 Y11.8264
G01 X44.3480 Y11.7436
G01 X44.4172 Y11.6672
G01 X44.4917 Y11.5996
G01 X44.5784 Y11.5352
G01 X44.6648 Y11.4835
G01 X44.7569 Y11.4399
G01 X44.8551 Y11.4047
G01 X44.9551 Y11.3797
G01 X45.0570 Y11.3646
G01 X45.1588 Y11.3595
G01 X47.4749 Y11.3595
G01 X48.0253 Y10.8091
G01 X47.9686 Y10.6506
G01 X47.9083 Y10.4101
G01 X47.8712 Y10.1613
G01 X47.8587 Y9.9100
G01 X47.8712 Y9.6587
G01 X47.9083 Y9.4099
G01 X47.9686 Y9.1694
G01 X48.0521 Y8.9360
G01 X48.1600 Y8.7073
G01 X48.2887 Y8.4926
G01 X48.4379 Y8.2915
G01 X48.6060 Y8.1060
G01 X52.2122 Y4.4998
G01 X52.2176 Y4.3916
G01 X52.2756 Y4.0007
G01 X52.3728 Y3.6126
G01 X52.5074 Y3.2371
G01 X52.6765 Y2.8799
G01 X52.8802 Y2.5399
G01 X53.1178 Y2.2194
G01 X53.3866 Y1.9231
G01 X53.6794 Y1.6578
G01 X53.9968 Y1.4223
G01 X54.3410 Y1.2159
G01 X54.7017 Y1.0456
G01 X55.0738 Y0.9125
G01 X55.4571 Y0.8164
G01 X55.8528 Y0.7575
G01 X56.2488 Y0.7380
G01 X65.2912 Y0.7380
G01 X65.6872 Y0.7575
G01 X66.0805 Y0.8159
G01 X66.4662 Y0.9125
G01 X66.8418 Y1.0469
G01 X67.2001 Y1.2165
G01 X67.5412 Y1.4209
G01 X67.8606 Y1.6578
G01 X68.1543 Y1.9239
G01 X76.5761 Y10.3457
G01 X76.8422 Y10.6394
G01 X77.0777 Y10.9568
G01 X77.2835 Y11.2999
G01 X77.4544 Y11.6617
G01 X77.5875 Y12.0338
G01 X77.6839 Y12.4183
G01 X77.7425 Y12.8128
G01 X77.7620 Y13.2100
G01 X77.7620 Y46.1100
G01 X77.7425 Y46.5072
G01 X77.6841 Y46.9005
G01 X77.5875 Y47.2862
G01 X77.4531 Y47.6618
G01 X77.2835 Y48.0201
G01 X77.0791 Y48.3612
G01 X76.8422 Y48.6806
G01 X76.5752 Y48.9752
G01 X67.3352 Y58.2152
G01 X67.0386 Y58.4837
G01 X66.7212 Y58.7191
G01 X66.3812 Y58.9230
G01 X66.0206 Y59.0936
G01 X65.6439 Y59.2282
G01 X65.2605 Y59.3241
G01 X64.8696 Y59.3822
G01 X64.4725 Y59.4019
G01 X56.2488 Y59.4020
G01 X55.8528 Y59.3825
G01 X55.4595 Y59.3241
G01 X55.0738 Y59.2275
G01 X54.6994 Y59.0936
G01 X54.3399 Y58.9235
G01 X53.9988 Y58.7191
G01 X53.6794 Y58.4822
G01 X53.3839 Y58.2143
G01 X53.1178 Y57.9206
G01 X52.8796 Y57.5991
G01 X52.6765 Y57.2601
G01 X52.5074 Y56.9029
G01 X52.3732 Y56.5286
G01 X52.2759 Y56.1405
G01 X52.2175 Y55.7472
G01 X52.1980 Y55.3500
G01 X52.2173 Y54.9553
G01 X52.2210 Y54.9290
G01 X47.0651 Y49.7731
G01 X46.8979 Y49.5885
G01 X46.7494 Y49.3884
G01 X46.6200 Y49.1727
G01 X46.5480 Y49.0205
G01 X45.1588 Y49.0205
G01 X45.0570 Y49.0154
G01 X44.9563 Y49.0005
G01 X44.8551 Y48.9753
G01 X44.7603 Y48.9414
G01 X44.6627 Y48.8952
G01 X44.5764 Y48.8435
G01 X44.4936 Y48.7820
G01 X44.4172 Y48.7128
G01 X44.3472 Y48.6355
G01 X44.2865 Y48.5536
G01 X44.2335 Y48.4652
G01 X44.1895 Y48.3720
G01 X44.1547 Y48.2749
G01 X44.1297 Y48.1749
G01 X44.1146 Y48.0730
G01 X44.1095 Y47.9700
G01 X44.1146 Y47.8670
G01 X44.1297 Y47.7651
G01 X44.1547 Y47.6651
G01 X44.1895 Y47.5680
G01 X44.2335 Y47.4748
G01 X44.2865 Y47.3864
G01 X44.3480 Y47.3036
G01 X44.4172 Y47.2272
G01 X44.4945 Y47.1572
G01 X44.5764 Y47.0965
G01 X44.6627 Y47.0448
G01 X44.7580 Y46.9995
G01 X44.8574 Y46.9641
G01 X44.9551 Y46.9397
G01 X45.0558 Y46.9247
G01 X45.1600 Y46.9195
G01 X46.5480 Y46.9195
G00 Z2.0000
G00 X44.1095 Y17.2307
G01 F30.00
G01 Z-0.0500
G01 F60.00
G01 X44.1095 Y14.9500
G01 X44.1100 Y14.9386
G01 X44.1100 Y13.9975
G01 X44.1105 Y13.9902
G01 X44.1122 Y13.9830
G01 X44.1143 Y13.9772
G01 X44.1178 Y13.9708
G01 X44.1213 Y13.9658
G01 X44.1255 Y13.9613
G01 X44.1302 Y13.9573
G01 X44.1354 Y13.9540
G01 X44.1409 Y13.9513
G01 X44.1467 Y13.9493
G01 X44.1527 Y13.9480
G01 X44.1588 Y13.9475
G01 X44.8471 Y13.9475
G01 X44.8574 Y13.9441
G01 X44.9575 Y13.9193
G01 X45.0570 Y13.9046
G01 X45.1600 Y13.8995
G01 X45.2630 Y13.9046
G01 X45.3625 Y13.9193
G01 X45.4626 Y13.9441
G01 X45.4729 Y13.9475
G01 X46.1600 Y13.9475
G01 X46.1673 Y13.9480
G01 X46.1733 Y13.9493
G01 X46.1803 Y13.9518
G01 X46.1867 Y13.9553
G01 X46.1917 Y13.9588
G01 X46.1962 Y13.9630
G01 X46.2002 Y13.9677
G01 X46.2035 Y13.9729
G01 X46.2062 Y13.9784
G01 X46.2082 Y13.9842
G01 X46.2095 Y13.9902
G01 X46.2100 Y13.9975
G01 X46.2100 Y14.9386
G01 X46.2105 Y14.9500
G01 X46.2105 Y17.6612
G01 X46.2054 Y17.7630
G01 X46.1907 Y17.8625
G01 X46.1653 Y17.9649
G01 X46.1295 Y18.0643
G01 X46.0865 Y18.1552
G01 X46.0341 Y18.2426
G01 X45.9720 Y18.3264
G01 X45.9037 Y18.4019
G01 X45.6528 Y18.6528
G01 X45.5774 Y18.7213
G01 X45.4936 Y18.7835
G01 X45.4073 Y18.8352
G01 X45.3097 Y18.8814
G01 X45.2149 Y18.9153
G01 X45.1125 Y18.9407
G01 X45.0105 Y18.9556
G01 X44.9100 Y18.9605
G01 X44.8095 Y18.9556
G01 X44.7051 Y18.9403
G01 X44.6051 Y18.9153
G01 X44.5080 Y18.8805
G01 X44.4148 Y18.8365
G01 X44.3264 Y18.7835
G01 X44.2417 Y18.7204
G01 X44.1672 Y18.6528
G01 X44.0996 Y18.5783
G01 X44.0380 Y18.4956
G01 X43.9835 Y18.4052
G01 X43.9395 Y18.3120
G01 X43.9047 Y18.2149
G01 X43.8797 Y18.1149
G01 X43.8646 Y18.0130
G01 X43.8596 Y17.9075
G01 X43.8649 Y17.8046
G01 X43.8797 Y17.7051
G01 X43.9041 Y17.6074
G01 X43.9395 Y17.5080
G01 X43.9835 Y17.4148
G01 X44.0365 Y17.3264
G01 X44.0972 Y17.2445
G01 X44.1095 Y17.2307
G00 Z2.0000
M05
G00 Z2.0000
G00 Z15.00


