(G-CODE GENERATED BY FLATCAM v8.991 - www.flatcam.org - Version Date: 2019/12/27)

(Name: lamp-remote-drill-0.75mm.drl_cnc)
(Type: G-code from Excellon)
(Units: MM)

(Created on Tuesday, 18 April 2023 at 09:31)

(Feedrate: 300.0 mm/min)
(Feedrate rapids 1500.0 mm/min)

(Z_Cut: -1.7 mm)
(Z_Move: 2.0 mm)
(Z Toolchange: 15.0 mm)
(X,Y Toolchange: 0.0000, 0.0000 mm)
(Z Start: None mm)
(Z End: 0.5 mm)
(Steps per circle: 64)
(Preprocessor Excellon: default)

(X range:    2.1506 ...   36.6451  mm)
(Y range:    2.1483 ...   18.9135  mm)

(Spindle Speed: None RPM)
G21
G90
G94




G01 F300.00
G00 Z2.0000

M03
G00 X2.5012 Y2.4988
G01 Z-1.7000
G01 Z0
G00 Z2.0000
M03
G00 X21.5004 Y12.5394
G01 Z-1.7000
G01 Z0
G00 Z2.0000
G00 X22.7704 Y11.2694
G01 Z-1.7000
G01 Z0
G00 Z2.0000
G00 X21.5004 Y9.9994
G01 Z-1.7000
G01 Z0
G00 Z2.0000
G00 X26.9995 Y9.9994
G01 Z-1.7000
G01 Z0
G00 Z2.0000
G00 X28.2695 Y11.2694
G01 Z-1.7000
G01 Z0
G00 Z2.0000
G00 X33.7305 Y7.2689
G01 Z-1.7000
G01 Z0
G00 Z2.0000
G00 X35.0005 Y5.9989
G01 Z-1.7000
G01 Z0
G00 Z2.0000
G00 X36.2705 Y7.2689
G01 Z-1.7000
G01 Z0
G00 Z2.0000
G00 X31.0203 Y15.9989
G01 Z-1.7000
G01 Z0
G00 Z2.0000
G00 X31.0203 Y18.5389
G01 Z-1.7000
G01 Z0
G00 Z2.0000
G00 X29.7503 Y17.2689
G01 Z-1.7000
G01 Z0
G00 Z2.0000
G00 X26.9995 Y12.5394
G01 Z-1.7000
G01 Z0
G00 Z2.0000
M03
G00 X2.8796 Y18.5008
G01 Z-1.7000
G01 Z0
G00 Z2.0000
G00 X2.8796 Y15.9608
G01 Z-1.7000
G01 Z0
G00 Z2.0000
G00 X2.8796 Y13.4208
G01 Z-1.7000
G01 Z0
G00 Z2.0000
G00 X2.8796 Y10.8808
G01 Z-1.7000
G01 Z0
G00 Z2.0000
G00 X7.4999 Y5.9989
G01 Z-1.7000
G01 Z0
G00 Z2.0000
G00 X7.4999 Y3.4995
G01 Z-1.7000
G01 Z0
G00 Z2.0000
G00 X16.4991 Y3.4995
G01 Z-1.7000
G01 Z0
G00 Z2.0000
G00 X16.4991 Y5.9989
G01 Z-1.7000
G01 Z0
G00 Z2.0000
G00 X10.4996 Y10.8808
G01 Z-1.7000
G01 Z0
G00 Z2.0000
G00 X10.4996 Y13.4208
G01 Z-1.7000
G01 Z0
G00 Z2.0000
G00 X10.4996 Y15.9608
G01 Z-1.7000
G01 Z0
G00 Z2.0000
G00 X10.4996 Y18.5008
G01 Z-1.7000
G01 Z0
G00 Z2.0000
M05
G00 Z0.50
G00 X0.0 Y0.0

