(G-CODE GENERATED BY FLATCAM v8.991 - www.flatcam.org - Version Date: 2019/12/27)

(Name: lamp-remote)
(Type: G-code from Geometry)
(Units: MM)

(Created on Saturday, 22 April 2023 at 10:41)

(TOOL DIAMETER: 0.1 mm)
(Feedrate: 50.0 mm/min)
(Feedrate_Z: 60.0 mm/min)
(Feedrate rapids 1500.0 mm/min)

(Z_Cut: -0.04 mm)
(Z_Move: 3.0 mm)
(Z Toolchange: 15.0 mm)
(X,Y Toolchange: 0.0000, 0.0000 mm)
(Z Start: None mm)
(Z End: 15.0 mm)
(Steps per circle: 64)
(Preprocessor Geometry: default)

(X range:    0.1999 ...   38.2692  mm)
(Y range:    0.1999 ...   20.8001  mm)

(Spindle Speed: None RPM)
G21
G90
G94




G01 F50.00
G00 Z3.0000

M03
G00 X1.3000 Y7.1250
G01 F60.00
G01 Z-0.0400
G01 F50.00
G01 X1.3000 Y5.8750
G01 X1.3017 Y5.8432
G01 X1.3053 Y5.8189
G01 X1.3123 Y5.7903
G01 X1.3220 Y5.7625
G01 X1.3343 Y5.7358
G01 X1.3492 Y5.7104
G01 X1.3666 Y5.6866
G01 X1.3862 Y5.6646
G01 X1.4078 Y5.6447
G01 X1.4313 Y5.6270
G01 X1.4564 Y5.6116
G01 X1.4875 Y5.5970
G01 X1.5153 Y5.5873
G01 X1.5439 Y5.5803
G01 X1.5730 Y5.5763
G01 X1.5975 Y5.5751
G01 X1.6999 Y5.5750
G01 X1.7000 Y1.7500
G01 X1.7010 Y1.7402
G01 X1.7038 Y1.7309
G01 X1.7084 Y1.7222
G01 X1.7113 Y1.7183
G01 X1.7183 Y1.7113
G01 X1.7222 Y1.7084
G01 X1.7264 Y1.7059
G01 X1.7355 Y1.7022
G01 X1.7451 Y1.7002
G01 X1.7500 Y1.7000
G01 X3.2500 Y1.7000
G01 X3.2598 Y1.7010
G01 X3.2691 Y1.7038
G01 X3.2778 Y1.7084
G01 X3.2817 Y1.7113
G01 X3.2887 Y1.7183
G01 X3.2916 Y1.7222
G01 X3.2941 Y1.7264
G01 X3.2978 Y1.7355
G01 X3.2990 Y1.7402
G01 X3.3000 Y1.7500
G01 X3.3000 Y3.2500
G01 X3.2998 Y3.2549
G01 X3.2978 Y3.2645
G01 X3.2962 Y3.2691
G01 X3.2916 Y3.2778
G01 X3.2854 Y3.2854
G01 X3.2778 Y3.2916
G01 X3.2736 Y3.2941
G01 X3.2645 Y3.2978
G01 X3.2598 Y3.2990
G01 X3.2500 Y3.3000
G01 X2.3001 Y3.3000
G01 X2.3001 Y5.5750
G01 X2.4025 Y5.5751
G01 X2.4270 Y5.5763
G01 X2.4561 Y5.5803
G01 X2.4847 Y5.5873
G01 X2.5125 Y5.5970
G01 X2.5392 Y5.6093
G01 X2.5646 Y5.6242
G01 X2.5884 Y5.6416
G01 X2.6104 Y5.6612
G01 X2.6303 Y5.6828
G01 X2.6480 Y5.7063
G01 X2.6634 Y5.7314
G01 X2.6762 Y5.7580
G01 X2.6863 Y5.7856
G01 X2.6937 Y5.8141
G01 X2.6983 Y5.8432
G01 X2.7000 Y5.8750
G01 X2.7000 Y7.1250
G01 X2.6987 Y7.1520
G01 X2.6947 Y7.1811
G01 X2.6877 Y7.2097
G01 X2.6780 Y7.2375
G01 X2.6634 Y7.2686
G01 X2.6480 Y7.2937
G01 X2.6334 Y7.3134
G01 X2.6104 Y7.3388
G01 X2.5884 Y7.3584
G01 X2.5646 Y7.3758
G01 X2.5436 Y7.3884
G01 X2.5170 Y7.4012
G01 X2.4894 Y7.4113
G01 X2.4561 Y7.4197
G01 X2.4270 Y7.4237
G01 X2.4000 Y7.4250
G01 X1.6000 Y7.4250
G01 X1.5730 Y7.4237
G01 X1.5439 Y7.4197
G01 X1.5153 Y7.4127
G01 X1.4875 Y7.4030
G01 X1.4608 Y7.3907
G01 X1.4313 Y7.3730
G01 X1.4078 Y7.3553
G01 X1.3862 Y7.3354
G01 X1.3666 Y7.3134
G01 X1.3492 Y7.2896
G01 X1.3343 Y7.2642
G01 X1.3220 Y7.2375
G01 X1.3123 Y7.2097
G01 X1.3053 Y7.1811
G01 X1.3013 Y7.1520
G01 X1.3000 Y7.1250
G00 Z3.0000
G00 X4.4000 Y7.1250
G01 F60.00
G01 Z-0.0400
G01 F50.00
G01 X4.4000 Y5.8750
G01 X4.4013 Y5.8480
G01 X4.4053 Y5.8189
G01 X4.4123 Y5.7903
G01 X4.4220 Y5.7625
G01 X4.4343 Y5.7358
G01 X4.4492 Y5.7104
G01 X4.4666 Y5.6866
G01 X4.4862 Y5.6646
G01 X4.5078 Y5.6447
G01 X4.5354 Y5.6242
G01 X4.5564 Y5.6116
G01 X4.5830 Y5.5988
G01 X4.6153 Y5.5873
G01 X4.6439 Y5.5803
G01 X4.6730 Y5.5763
G01 X4.7000 Y5.5750
G01 X5.5025 Y5.5751
G01 X5.5318 Y5.5767
G01 X5.5609 Y5.5813
G01 X5.5894 Y5.5887
G01 X5.6125 Y5.5970
G01 X5.6392 Y5.6093
G01 X5.6687 Y5.6270
G01 X5.6922 Y5.6447
G01 X5.7138 Y5.6646
G01 X5.7303 Y5.6828
G01 X5.7432 Y5.6999
G01 X6.6500 Y5.6999
G01 X6.6502 Y5.1951
G01 X6.6522 Y5.1855
G01 X6.6538 Y5.1809
G01 X6.6559 Y5.1764
G01 X6.6613 Y5.1683
G01 X6.6683 Y5.1613
G01 X6.6722 Y5.1584
G01 X6.6809 Y5.1538
G01 X6.6902 Y5.1510
G01 X6.7000 Y5.1500
G01 X8.3000 Y5.1500
G01 X8.3098 Y5.1510
G01 X8.3191 Y5.1538
G01 X8.3278 Y5.1584
G01 X8.3354 Y5.1646
G01 X8.3416 Y5.1722
G01 X8.3462 Y5.1809
G01 X8.3490 Y5.1902
G01 X8.3500 Y5.2000
G01 X8.3500 Y6.8000
G01 X8.3498 Y6.8049
G01 X8.3478 Y6.8145
G01 X8.3441 Y6.8236
G01 X8.3416 Y6.8278
G01 X8.3354 Y6.8354
G01 X8.3317 Y6.8387
G01 X8.3278 Y6.8416
G01 X8.3191 Y6.8462
G01 X8.3098 Y6.8490
G01 X8.3000 Y6.8500
G01 X6.7000 Y6.8500
G01 X6.6902 Y6.8490
G01 X6.6855 Y6.8478
G01 X6.6764 Y6.8441
G01 X6.6683 Y6.8387
G01 X6.6646 Y6.8354
G01 X6.6613 Y6.8317
G01 X6.6559 Y6.8236
G01 X6.6522 Y6.8145
G01 X6.6502 Y6.8049
G01 X6.6500 Y6.3001
G01 X5.8000 Y6.3001
G01 X5.8000 Y6.7756
G01 X6.7243 Y7.6999
G01 X8.3757 Y7.6999
G01 X9.3000 Y6.7756
G01 X9.3000 Y5.8750
G01 X9.3017 Y5.8432
G01 X9.3063 Y5.8141
G01 X9.3123 Y5.7903
G01 X9.3220 Y5.7625
G01 X9.3366 Y5.7314
G01 X9.3520 Y5.7063
G01 X9.3666 Y5.6866
G01 X9.3862 Y5.6646
G01 X9.4078 Y5.6447
G01 X9.4354 Y5.6242
G01 X9.4608 Y5.6093
G01 X9.4875 Y5.5970
G01 X9.5153 Y5.5873
G01 X9.5391 Y5.5813
G01 X9.5682 Y5.5767
G01 X9.5975 Y5.5751
G01 X10.4000 Y5.5750
G01 X10.4270 Y5.5763
G01 X10.4561 Y5.5803
G01 X10.4894 Y5.5887
G01 X10.5125 Y5.5970
G01 X10.5392 Y5.6093
G01 X10.5687 Y5.6270
G01 X10.5884 Y5.6416
G01 X10.6104 Y5.6612
G01 X10.6334 Y5.6866
G01 X10.6508 Y5.7104
G01 X10.6634 Y5.7314
G01 X10.6780 Y5.7625
G01 X10.6877 Y5.7903
G01 X10.6937 Y5.8141
G01 X10.6983 Y5.8432
G01 X10.7000 Y5.8750
G01 X10.6999 Y7.1275
G01 X10.6987 Y7.1520
G01 X10.6947 Y7.1811
G01 X10.6877 Y7.2097
G01 X10.6780 Y7.2375
G01 X10.6634 Y7.2686
G01 X10.6480 Y7.2937
G01 X10.6303 Y7.3172
G01 X10.6104 Y7.3388
G01 X10.5884 Y7.3584
G01 X10.5646 Y7.3758
G01 X10.5392 Y7.3907
G01 X10.5125 Y7.4030
G01 X10.4847 Y7.4127
G01 X10.4561 Y7.4197
G01 X10.4270 Y7.4237
G01 X10.4000 Y7.4250
G01 X9.6000 Y7.4250
G01 X9.5730 Y7.4237
G01 X9.5439 Y7.4197
G01 X9.5125 Y7.4119
G01 X8.7104 Y8.2139
G01 X8.6885 Y8.2335
G01 X8.6647 Y8.2509
G01 X8.6436 Y8.2635
G01 X8.6126 Y8.2782
G01 X8.5848 Y8.2879
G01 X8.5609 Y8.2938
G01 X8.5319 Y8.2984
G01 X8.5000 Y8.3001
G01 X6.6000 Y8.3001
G01 X6.5681 Y8.2984
G01 X6.5391 Y8.2938
G01 X6.5152 Y8.2879
G01 X6.4874 Y8.2782
G01 X6.4564 Y8.2635
G01 X6.4313 Y8.2481
G01 X6.4115 Y8.2335
G01 X6.3896 Y8.2139
G01 X5.5875 Y7.4119
G01 X5.5561 Y7.4197
G01 X5.5270 Y7.4237
G01 X5.5000 Y7.4250
G01 X4.7000 Y7.4250
G01 X4.6682 Y7.4233
G01 X4.6391 Y7.4187
G01 X4.6106 Y7.4113
G01 X4.5830 Y7.4012
G01 X4.5564 Y7.3884
G01 X4.5354 Y7.3758
G01 X4.5116 Y7.3584
G01 X4.4896 Y7.3388
G01 X4.4666 Y7.3134
G01 X4.4492 Y7.2896
G01 X4.4366 Y7.2686
G01 X4.4238 Y7.2420
G01 X4.4137 Y7.2144
G01 X4.4053 Y7.1811
G01 X4.4013 Y7.1520
G01 X4.4000 Y7.1250
G00 Z3.0000
G00 X2.4800 Y10.0300
G01 F60.00
G01 Z-0.0400
G01 F50.00
G01 X3.2800 Y10.0300
G01 X3.3044 Y10.0311
G01 X4.5496 Y8.7861
G01 X4.5677 Y8.7696
G01 X4.5913 Y8.7519
G01 X4.6207 Y8.7342
G01 X4.6429 Y8.7237
G01 X4.6705 Y8.7136
G01 X4.7039 Y8.7052
G01 X4.7330 Y8.7011
G01 X4.7600 Y8.6999
G01 X10.4757 Y8.6999
G01 X12.4000 Y6.7756
G01 X12.4000 Y5.8750
G01 X12.4017 Y5.8432
G01 X12.4063 Y5.8141
G01 X12.4123 Y5.7903
G01 X12.4220 Y5.7625
G01 X12.4343 Y5.7358
G01 X12.4520 Y5.7063
G01 X12.4666 Y5.6866
G01 X12.4862 Y5.6646
G01 X12.5078 Y5.6447
G01 X12.5354 Y5.6242
G01 X12.5608 Y5.6093
G01 X12.5830 Y5.5988
G01 X12.6106 Y5.5887
G01 X12.6391 Y5.5813
G01 X12.6682 Y5.5767
G01 X12.6975 Y5.5751
G01 X13.5000 Y5.5750
G01 X13.5318 Y5.5767
G01 X13.5609 Y5.5813
G01 X13.5894 Y5.5887
G01 X13.6170 Y5.5988
G01 X13.6392 Y5.6093
G01 X13.6646 Y5.6242
G01 X13.6922 Y5.6447
G01 X13.7138 Y5.6646
G01 X13.7334 Y5.6866
G01 X13.7508 Y5.7104
G01 X13.7657 Y5.7358
G01 X13.7780 Y5.7625
G01 X13.7877 Y5.7903
G01 X13.7937 Y5.8141
G01 X13.7983 Y5.8432
G01 X13.7999 Y5.8725
G01 X13.8000 Y6.1999
G01 X15.6500 Y6.1999
G01 X15.6500 Y5.2000
G01 X15.6510 Y5.1902
G01 X15.6522 Y5.1855
G01 X15.6559 Y5.1764
G01 X15.6584 Y5.1722
G01 X15.6613 Y5.1683
G01 X15.6683 Y5.1613
G01 X15.6764 Y5.1559
G01 X15.6855 Y5.1522
G01 X15.6902 Y5.1510
G01 X15.7000 Y5.1500
G01 X17.3000 Y5.1500
G01 X17.3049 Y5.1502
G01 X17.3145 Y5.1522
G01 X17.3191 Y5.1538
G01 X17.3278 Y5.1584
G01 X17.3317 Y5.1613
G01 X17.3387 Y5.1683
G01 X17.3441 Y5.1764
G01 X17.3478 Y5.1855
G01 X17.3498 Y5.1951
G01 X17.3500 Y5.2000
G01 X17.3500 Y6.8000
G01 X17.3490 Y6.8098
G01 X17.3478 Y6.8145
G01 X17.3462 Y6.8191
G01 X17.3416 Y6.8278
G01 X17.3354 Y6.8354
G01 X17.3317 Y6.8387
G01 X17.3278 Y6.8416
G01 X17.3191 Y6.8462
G01 X17.3098 Y6.8490
G01 X17.3000 Y6.8500
G01 X15.7000 Y6.8500
G01 X15.6902 Y6.8490
G01 X15.6809 Y6.8462
G01 X15.6722 Y6.8416
G01 X15.6646 Y6.8354
G01 X15.6584 Y6.8278
G01 X15.6538 Y6.8191
G01 X15.6510 Y6.8098
G01 X15.6500 Y6.8001
G01 X13.8000 Y6.8001
G01 X13.8000 Y7.1250
G01 X13.7983 Y7.1568
G01 X13.7937 Y7.1859
G01 X13.7877 Y7.2097
G01 X13.7780 Y7.2375
G01 X13.7657 Y7.2642
G01 X13.7508 Y7.2896
G01 X13.7334 Y7.3134
G01 X13.7138 Y7.3354
G01 X13.6884 Y7.3584
G01 X13.6687 Y7.3730
G01 X13.6436 Y7.3884
G01 X13.6125 Y7.4030
G01 X13.5847 Y7.4127
G01 X13.5609 Y7.4187
G01 X13.5270 Y7.4237
G01 X13.5000 Y7.4250
G01 X12.7000 Y7.4250
G01 X12.6730 Y7.4237
G01 X12.6439 Y7.4197
G01 X12.6125 Y7.4119
G01 X10.8122 Y9.2122
G01 X10.7885 Y9.2335
G01 X10.7647 Y9.2509
G01 X10.7436 Y9.2635
G01 X10.7171 Y9.2763
G01 X10.6895 Y9.2864
G01 X10.6561 Y9.2948
G01 X10.6270 Y9.2989
G01 X10.6000 Y9.3001
G01 X4.8843 Y9.3001
G01 X3.8927 Y10.2917
G01 X3.9386 Y10.3427
G01 X3.9881 Y10.4098
G01 X4.0307 Y10.4815
G01 X4.0643 Y10.5525
G01 X4.0744 Y10.5799
G01 X5.3825 Y10.5799
G01 X5.4070 Y10.5811
G01 X5.4361 Y10.5852
G01 X5.4695 Y10.5936
G01 X5.4926 Y10.6018
G01 X5.5193 Y10.6142
G01 X5.5487 Y10.6319
G01 X5.5723 Y10.6496
G01 X5.5922 Y10.6678
G01 X8.0443 Y13.1199
G01 X9.3056 Y13.1199
G01 X9.3157 Y13.0925
G01 X9.3493 Y13.0215
G01 X9.3947 Y12.9458
G01 X9.4445 Y12.8789
G01 X9.4973 Y12.8207
G01 X9.5627 Y12.7614
G01 X9.6298 Y12.7119
G01 X9.6972 Y12.6716
G01 X9.7770 Y12.6338
G01 X9.8556 Y12.6059
G01 X9.9318 Y12.5869
G01 X10.0142 Y12.5744
G01 X10.1000 Y12.5700
G01 X10.9000 Y12.5700
G01 X10.9809 Y12.5739
G01 X11.0634 Y12.5859
G01 X11.1444 Y12.6059
G01 X11.2230 Y12.6338
G01 X11.3028 Y12.6716
G01 X11.3702 Y12.7119
G01 X11.4373 Y12.7614
G01 X11.5027 Y12.8207
G01 X11.5555 Y12.8789
G01 X11.6053 Y12.9458
G01 X11.6507 Y13.0215
G01 X11.6843 Y13.0925
G01 X11.7126 Y13.1709
G01 X11.7341 Y13.2566
G01 X11.7456 Y13.3342
G01 X11.7499 Y13.4175
G01 X11.7461 Y13.5009
G01 X11.7331 Y13.5882
G01 X11.7126 Y13.6691
G01 X11.6862 Y13.7430
G01 X11.6484 Y13.8228
G01 X11.6081 Y13.8902
G01 X11.5586 Y13.9573
G01 X11.4993 Y14.0227
G01 X11.4373 Y14.0786
G01 X11.3742 Y14.1253
G01 X11.2985 Y14.1707
G01 X11.2275 Y14.2043
G01 X11.1491 Y14.2326
G01 X11.0634 Y14.2541
G01 X10.9809 Y14.2661
G01 X10.9000 Y14.2700
G01 X10.1000 Y14.2700
G01 X10.0191 Y14.2661
G01 X9.9366 Y14.2541
G01 X9.8509 Y14.2326
G01 X9.7770 Y14.2062
G01 X9.7015 Y14.1707
G01 X9.6298 Y14.1281
G01 X9.5589 Y14.0755
G01 X9.4973 Y14.0193
G01 X9.4445 Y13.9611
G01 X9.3947 Y13.8942
G01 X9.3493 Y13.8185
G01 X9.3157 Y13.7475
G01 X9.3056 Y13.7201
G01 X7.9200 Y13.7201
G01 X7.8881 Y13.7184
G01 X7.8591 Y13.7138
G01 X7.8305 Y13.7064
G01 X7.8074 Y13.6982
G01 X7.7807 Y13.6858
G01 X7.7513 Y13.6681
G01 X7.7277 Y13.6504
G01 X7.7078 Y13.6322
G01 X5.2557 Y11.1801
G01 X4.0744 Y11.1801
G01 X4.0643 Y11.2075
G01 X4.0307 Y11.2785
G01 X3.9853 Y11.3542
G01 X3.9386 Y11.4173
G01 X3.8827 Y11.4793
G01 X3.8173 Y11.5386
G01 X3.7502 Y11.5881
G01 X3.6828 Y11.6284
G01 X3.6030 Y11.6662
G01 X3.5244 Y11.6941
G01 X3.4482 Y11.7131
G01 X3.3658 Y11.7256
G01 X3.2800 Y11.7300
G01 X2.4800 Y11.7300
G01 X2.3991 Y11.7261
G01 X2.3166 Y11.7141
G01 X2.2356 Y11.6941
G01 X2.1570 Y11.6662
G01 X2.0815 Y11.6307
G01 X2.0058 Y11.5853
G01 X1.9389 Y11.5355
G01 X1.8807 Y11.4827
G01 X1.8245 Y11.4211
G01 X1.7747 Y11.3542
G01 X1.7293 Y11.2785
G01 X1.6938 Y11.2030
G01 X1.6659 Y11.1244
G01 X1.6459 Y11.0434
G01 X1.6344 Y10.9658
G01 X1.6301 Y10.8775
G01 X1.6344 Y10.7942
G01 X1.6469 Y10.7118
G01 X1.6674 Y10.6309
G01 X1.6957 Y10.5525
G01 X1.7316 Y10.4772
G01 X1.7719 Y10.4098
G01 X1.8214 Y10.3427
G01 X1.8773 Y10.2807
G01 X1.9427 Y10.2214
G01 X2.0098 Y10.1719
G01 X2.0772 Y10.1316
G01 X2.1525 Y10.0957
G01 X2.2309 Y10.0674
G01 X2.3166 Y10.0459
G01 X2.3991 Y10.0339
G01 X2.4800 Y10.0300
G00 Z3.0000
G00 X2.4800 Y12.5700
G01 F60.00
G01 Z-0.0400
G01 F50.00
G01 X3.2825 Y12.5701
G01 X3.3609 Y12.5739
G01 X3.4434 Y12.5859
G01 X3.5291 Y12.6074
G01 X3.6075 Y12.6357
G01 X3.6828 Y12.6716
G01 X3.7542 Y12.7147
G01 X3.8211 Y12.7645
G01 X3.8793 Y12.8173
G01 X3.9355 Y12.8789
G01 X3.9881 Y12.9498
G01 X4.0307 Y13.0215
G01 X4.0643 Y13.0925
G01 X4.0744 Y13.1199
G01 X5.9200 Y13.1199
G01 X5.9470 Y13.1211
G01 X5.9761 Y13.1252
G01 X6.0048 Y13.1321
G01 X6.0326 Y13.1418
G01 X6.0593 Y13.1542
G01 X6.0847 Y13.1691
G01 X6.1085 Y13.1865
G01 X6.1322 Y13.2078
G01 X7.3348 Y14.4104
G01 X13.7629 Y14.4104
G01 X13.7874 Y14.4116
G01 X13.8166 Y14.4157
G01 X13.8499 Y14.4240
G01 X13.8776 Y14.4342
G01 X13.8998 Y14.4447
G01 X13.9292 Y14.4623
G01 X13.9527 Y14.4801
G01 X13.9727 Y14.4983
G01 X14.1999 Y14.7254
G01 X14.1999 Y13.7500
G01 X13.8725 Y13.7499
G01 X13.8480 Y13.7487
G01 X13.8189 Y13.7447
G01 X13.7856 Y13.7363
G01 X13.7580 Y13.7262
G01 X13.7358 Y13.7157
G01 X13.7104 Y13.7008
G01 X13.6866 Y13.6834
G01 X13.6612 Y13.6604
G01 X13.6416 Y13.6384
G01 X13.6270 Y13.6187
G01 X13.6116 Y13.5936
G01 X13.5988 Y13.5670
G01 X13.5873 Y13.5347
G01 X13.5813 Y13.5109
G01 X13.5767 Y13.4818
G01 X13.5750 Y13.4500
G01 X13.5750 Y12.6500
G01 X13.5767 Y12.6182
G01 X13.5813 Y12.5891
G01 X13.5887 Y12.5606
G01 X13.5988 Y12.5330
G01 X13.6093 Y12.5108
G01 X13.6242 Y12.4854
G01 X13.6447 Y12.4578
G01 X13.6646 Y12.4362
G01 X13.6866 Y12.4166
G01 X13.7063 Y12.4020
G01 X13.7358 Y12.3843
G01 X13.7625 Y12.3720
G01 X13.7903 Y12.3623
G01 X13.8141 Y12.3563
G01 X13.8432 Y12.3517
G01 X13.8750 Y12.3500
G01 X15.1250 Y12.3500
G01 X15.1568 Y12.3517
G01 X15.1859 Y12.3563
G01 X15.2097 Y12.3623
G01 X15.2420 Y12.3738
G01 X15.2686 Y12.3866
G01 X15.2896 Y12.3992
G01 X15.3172 Y12.4197
G01 X15.3388 Y12.4396
G01 X15.3553 Y12.4578
G01 X15.3730 Y12.4813
G01 X15.3907 Y12.5108
G01 X15.4030 Y12.5375
G01 X15.4113 Y12.5606
G01 X15.4197 Y12.5939
G01 X15.4237 Y12.6230
G01 X15.4250 Y12.6500
G01 X15.4250 Y13.4500
G01 X15.4237 Y13.4770
G01 X15.4197 Y13.5061
G01 X15.4127 Y13.5347
G01 X15.4012 Y13.5670
G01 X15.3907 Y13.5892
G01 X15.3758 Y13.6146
G01 X15.3553 Y13.6422
G01 X15.3354 Y13.6638
G01 X15.3134 Y13.6834
G01 X15.2937 Y13.6980
G01 X15.2642 Y13.7157
G01 X15.2375 Y13.7280
G01 X15.2097 Y13.7377
G01 X15.1859 Y13.7437
G01 X15.1520 Y13.7487
G01 X15.1250 Y13.7500
G01 X14.8001 Y13.7500
G01 X14.8001 Y14.7500
G01 X15.1275 Y14.7501
G01 X15.1568 Y14.7517
G01 X15.1859 Y14.7563
G01 X15.2097 Y14.7623
G01 X15.2420 Y14.7738
G01 X15.2686 Y14.7866
G01 X15.2937 Y14.8020
G01 X15.3172 Y14.8197
G01 X15.3388 Y14.8396
G01 X15.3584 Y14.8616
G01 X15.3758 Y14.8854
G01 X15.3907 Y14.9108
G01 X15.4030 Y14.9375
G01 X15.4113 Y14.9606
G01 X15.4187 Y14.9891
G01 X15.4233 Y15.0182
G01 X15.4250 Y15.0500
G01 X15.4250 Y15.8500
G01 X15.4233 Y15.8818
G01 X15.4197 Y15.9061
G01 X15.4127 Y15.9347
G01 X15.4012 Y15.9670
G01 X15.3907 Y15.9892
G01 X15.3758 Y16.0146
G01 X15.3553 Y16.0422
G01 X15.3354 Y16.0638
G01 X15.3172 Y16.0803
G01 X15.2896 Y16.1008
G01 X15.2642 Y16.1157
G01 X15.2420 Y16.1262
G01 X15.2097 Y16.1377
G01 X15.1859 Y16.1437
G01 X15.1568 Y16.1483
G01 X15.1250 Y16.1500
G01 X13.8750 Y16.1500
G01 X13.8432 Y16.1483
G01 X13.8141 Y16.1437
G01 X13.7856 Y16.1363
G01 X13.7580 Y16.1262
G01 X13.7358 Y16.1157
G01 X13.7063 Y16.0980
G01 X13.6828 Y16.0803
G01 X13.6612 Y16.0604
G01 X13.6447 Y16.0422
G01 X13.6270 Y16.0187
G01 X13.6093 Y15.9892
G01 X13.5970 Y15.9625
G01 X13.5873 Y15.9347
G01 X13.5813 Y15.9109
G01 X13.5767 Y15.8818
G01 X13.5750 Y15.8500
G01 X13.5750 Y15.0500
G01 X13.5763 Y15.0230
G01 X13.5779 Y15.0106
G01 X7.2105 Y15.0106
G01 X7.1786 Y15.0089
G01 X7.1495 Y15.0043
G01 X7.1210 Y14.9969
G01 X7.0979 Y14.9886
G01 X7.0669 Y14.9740
G01 X7.0417 Y14.9586
G01 X7.0220 Y14.9440
G01 X7.0000 Y14.9244
G01 X5.7957 Y13.7201
G01 X4.0744 Y13.7201
G01 X4.0643 Y13.7475
G01 X4.0307 Y13.8185
G01 X3.9881 Y13.8902
G01 X3.9355 Y13.9611
G01 X3.8793 Y14.0227
G01 X3.8173 Y14.0786
G01 X3.7542 Y14.1253
G01 X3.6828 Y14.1684
G01 X3.6075 Y14.2043
G01 X3.5244 Y14.2341
G01 X3.4434 Y14.2541
G01 X3.3658 Y14.2656
G01 X3.2825 Y14.2699
G01 X2.4800 Y14.2700
G01 X2.3942 Y14.2656
G01 X2.3118 Y14.2531
G01 X2.2356 Y14.2341
G01 X2.1570 Y14.2062
G01 X2.0815 Y14.1707
G01 X2.0098 Y14.1281
G01 X1.9427 Y14.0786
G01 X1.8773 Y14.0193
G01 X1.8214 Y13.9573
G01 X1.7719 Y13.8902
G01 X1.7293 Y13.8185
G01 X1.6957 Y13.7475
G01 X1.6674 Y13.6691
G01 X1.6469 Y13.5882
G01 X1.6344 Y13.5058
G01 X1.6301 Y13.4225
G01 X1.6344 Y13.3342
G01 X1.6469 Y13.2518
G01 X1.6674 Y13.1709
G01 X1.6957 Y13.0925
G01 X1.7316 Y13.0172
G01 X1.7747 Y12.9458
G01 X1.8245 Y12.8789
G01 X1.8773 Y12.8207
G01 X1.9389 Y12.7645
G01 X2.0058 Y12.7147
G01 X2.0772 Y12.6716
G01 X2.1570 Y12.6338
G01 X2.2356 Y12.6059
G01 X2.3166 Y12.5859
G01 X2.3991 Y12.5739
G01 X2.4800 Y12.5700
G00 Z3.0000
G00 X0.1999 Y13.5800
G01 F60.00
G01 Z-0.0400
G01 F50.00
G01 X0.1999 Y2.0000
G01 X0.2016 Y1.9681
G01 X0.2052 Y1.9439
G01 X0.2121 Y1.9152
G01 X0.2218 Y1.8874
G01 X0.2342 Y1.8607
G01 X0.2519 Y1.8313
G01 X0.2696 Y1.8077
G01 X0.2878 Y1.7878
G01 X1.7878 Y0.2878
G01 X1.8077 Y0.2696
G01 X1.8313 Y0.2519
G01 X1.8607 Y0.2342
G01 X1.8829 Y0.2237
G01 X1.9105 Y0.2136
G01 X1.9439 Y0.2052
G01 X1.9730 Y0.2011
G01 X2.0000 Y0.1999
G01 X25.0000 Y0.1999
G01 X25.0319 Y0.2016
G01 X25.0609 Y0.2062
G01 X25.0848 Y0.2121
G01 X25.1171 Y0.2237
G01 X25.1436 Y0.2365
G01 X25.1687 Y0.2519
G01 X25.1885 Y0.2665
G01 X25.2122 Y0.2878
G01 X27.2122 Y2.2878
G01 X27.2304 Y2.3077
G01 X27.2481 Y2.3313
G01 X27.2658 Y2.3607
G01 X27.2782 Y2.3874
G01 X27.2864 Y2.4105
G01 X27.2938 Y2.4391
G01 X27.2984 Y2.4681
G01 X27.3001 Y2.5000
G01 X27.3001 Y4.8757
G01 X28.9248 Y6.5004
G01 X30.2898 Y6.5004
G01 X30.3216 Y6.5021
G01 X30.3507 Y6.5067
G01 X30.3792 Y6.5140
G01 X30.4068 Y6.5242
G01 X30.4290 Y6.5347
G01 X30.4585 Y6.5523
G01 X30.4820 Y6.5701
G01 X30.5020 Y6.5883
G01 X31.9887 Y8.0750
G01 X32.4525 Y8.0751
G01 X32.4770 Y8.0763
G01 X32.5061 Y8.0803
G01 X32.5394 Y8.0887
G01 X32.5670 Y8.0988
G01 X32.5892 Y8.1093
G01 X32.6146 Y8.1242
G01 X32.6422 Y8.1447
G01 X32.6638 Y8.1646
G01 X32.6803 Y8.1828
G01 X32.6980 Y8.2063
G01 X32.7157 Y8.2358
G01 X32.7262 Y8.2580
G01 X32.7363 Y8.2856
G01 X32.7447 Y8.3189
G01 X32.7487 Y8.3480
G01 X32.7500 Y8.3750
G01 X32.7499 Y9.6275
G01 X32.7487 Y9.6520
G01 X32.7447 Y9.6811
G01 X32.7377 Y9.7097
G01 X32.7280 Y9.7375
G01 X32.7157 Y9.7642
G01 X32.7008 Y9.7896
G01 X32.6803 Y9.8172
G01 X32.6604 Y9.8388
G01 X32.6422 Y9.8553
G01 X32.6187 Y9.8730
G01 X32.5936 Y9.8884
G01 X32.5670 Y9.9012
G01 X32.5394 Y9.9113
G01 X32.5109 Y9.9187
G01 X32.4818 Y9.9233
G01 X32.4525 Y9.9249
G01 X31.6500 Y9.9250
G01 X31.6230 Y9.9237
G01 X31.5891 Y9.9187
G01 X31.5606 Y9.9113
G01 X31.5330 Y9.9012
G01 X31.5064 Y9.8884
G01 X31.4854 Y9.8758
G01 X31.4578 Y9.8553
G01 X31.4362 Y9.8354
G01 X31.4166 Y9.8134
G01 X31.3992 Y9.7896
G01 X31.3843 Y9.7642
G01 X31.3720 Y9.7375
G01 X31.3623 Y9.7097
G01 X31.3553 Y9.6811
G01 X31.3513 Y9.6520
G01 X31.3500 Y9.6250
G01 X31.3500 Y8.3750
G01 X31.3517 Y8.3432
G01 X31.3553 Y8.3189
G01 X31.3608 Y8.2960
G01 X30.1654 Y7.1006
G01 X28.8005 Y7.1006
G01 X28.7686 Y7.0989
G01 X28.7395 Y7.0943
G01 X28.7157 Y7.0883
G01 X28.6834 Y7.0768
G01 X28.6569 Y7.0640
G01 X28.6317 Y7.0486
G01 X28.6120 Y7.0340
G01 X28.5883 Y7.0127
G01 X26.7878 Y5.2122
G01 X26.7696 Y5.1923
G01 X26.7519 Y5.1687
G01 X26.7342 Y5.1393
G01 X26.7237 Y5.1171
G01 X26.7136 Y5.0895
G01 X26.7052 Y5.0561
G01 X26.7011 Y5.0270
G01 X26.6999 Y5.0000
G01 X26.6999 Y2.6243
G01 X24.8757 Y0.8001
G01 X2.1243 Y0.8001
G01 X0.8001 Y2.1243
G01 X0.8001 Y13.4557
G01 X2.4556 Y15.1111
G01 X2.4800 Y15.1100
G01 X3.2800 Y15.1100
G01 X3.3609 Y15.1139
G01 X3.4434 Y15.1259
G01 X3.5291 Y15.1474
G01 X3.6030 Y15.1738
G01 X3.6785 Y15.2093
G01 X3.7542 Y15.2547
G01 X3.8211 Y15.3045
G01 X3.8793 Y15.3573
G01 X3.9355 Y15.4189
G01 X3.9853 Y15.4858
G01 X4.0284 Y15.5572
G01 X4.0643 Y15.6325
G01 X4.0926 Y15.7109
G01 X4.1131 Y15.7918
G01 X4.1261 Y15.8791
G01 X4.1299 Y15.9625
G01 X4.1256 Y16.0458
G01 X4.1131 Y16.1282
G01 X4.0926 Y16.2091
G01 X4.0643 Y16.2875
G01 X4.0284 Y16.3628
G01 X3.9881 Y16.4302
G01 X3.9386 Y16.4973
G01 X3.8827 Y16.5593
G01 X3.8211 Y16.6155
G01 X3.7542 Y16.6653
G01 X3.6828 Y16.7084
G01 X3.6075 Y16.7443
G01 X3.5291 Y16.7726
G01 X3.4482 Y16.7931
G01 X3.3609 Y16.8061
G01 X3.2800 Y16.8100
G01 X2.4800 Y16.8100
G01 X2.3942 Y16.8056
G01 X2.3166 Y16.7941
G01 X2.2356 Y16.7741
G01 X2.1525 Y16.7443
G01 X2.0772 Y16.7084
G01 X2.0058 Y16.6653
G01 X1.9427 Y16.6186
G01 X1.8807 Y16.5627
G01 X1.8245 Y16.5011
G01 X1.7719 Y16.4302
G01 X1.7293 Y16.3585
G01 X1.6938 Y16.2830
G01 X1.6659 Y16.2044
G01 X1.6459 Y16.1234
G01 X1.6339 Y16.0409
G01 X1.6301 Y15.9575
G01 X1.6344 Y15.8742
G01 X1.6469 Y15.7918
G01 X1.6674 Y15.7109
G01 X1.6957 Y15.6325
G01 X1.7316 Y15.5572
G01 X1.7747 Y15.4858
G01 X1.8214 Y15.4227
G01 X1.8673 Y15.3717
G01 X0.2861 Y13.7904
G01 X0.2665 Y13.7685
G01 X0.2491 Y13.7447
G01 X0.2342 Y13.7193
G01 X0.2218 Y13.6926
G01 X0.2121 Y13.6648
G01 X0.2052 Y13.6361
G01 X0.2011 Y13.6070
G01 X0.1999 Y13.5800
G00 Z3.0000
G00 X2.4800 Y17.6500
G01 F60.00
G01 Z-0.0400
G01 F50.00
G01 X3.2800 Y17.6500
G01 X3.3658 Y17.6544
G01 X3.4434 Y17.6659
G01 X3.5244 Y17.6859
G01 X3.6075 Y17.7157
G01 X3.6785 Y17.7493
G01 X3.7502 Y17.7919
G01 X3.8211 Y17.8445
G01 X3.8827 Y17.9007
G01 X3.9355 Y17.9589
G01 X3.9881 Y18.0298
G01 X4.0284 Y18.0972
G01 X4.0643 Y18.1725
G01 X4.0941 Y18.2556
G01 X4.1131 Y18.3318
G01 X4.1256 Y18.4142
G01 X4.1299 Y18.5025
G01 X4.1261 Y18.5809
G01 X4.1141 Y18.6634
G01 X4.0941 Y18.7444
G01 X4.0823 Y18.7779
G01 X5.5043 Y20.1999
G01 X12.4257 Y20.1999
G01 X13.5881 Y19.0375
G01 X13.5803 Y19.0061
G01 X13.5763 Y18.9770
G01 X13.5750 Y18.9500
G01 X13.5750 Y18.1500
G01 X13.5763 Y18.1230
G01 X13.5803 Y18.0939
G01 X13.5887 Y18.0606
G01 X13.5988 Y18.0330
G01 X13.6093 Y18.0108
G01 X13.6270 Y17.9813
G01 X13.6416 Y17.9616
G01 X13.6612 Y17.9396
G01 X13.6866 Y17.9166
G01 X13.7063 Y17.9020
G01 X13.7314 Y17.8866
G01 X13.7580 Y17.8738
G01 X13.7903 Y17.8623
G01 X13.8141 Y17.8563
G01 X13.8432 Y17.8517
G01 X13.8750 Y17.8500
G01 X15.1250 Y17.8500
G01 X15.1568 Y17.8517
G01 X15.1859 Y17.8563
G01 X15.2144 Y17.8637
G01 X15.2420 Y17.8738
G01 X15.2686 Y17.8866
G01 X15.2937 Y17.9020
G01 X15.3172 Y17.9197
G01 X15.3388 Y17.9396
G01 X15.3584 Y17.9616
G01 X15.3758 Y17.9854
G01 X15.3907 Y18.0108
G01 X15.4030 Y18.0375
G01 X15.4127 Y18.0653
G01 X15.4197 Y18.0939
G01 X15.4237 Y18.1230
G01 X15.4249 Y18.1475
G01 X15.4250 Y18.2499
G01 X16.5750 Y18.2499
G01 X16.5751 Y18.1475
G01 X16.5767 Y18.1182
G01 X16.5813 Y18.0891
G01 X16.5887 Y18.0606
G01 X16.5988 Y18.0330
G01 X16.6093 Y18.0108
G01 X16.6242 Y17.9854
G01 X16.6416 Y17.9616
G01 X16.6612 Y17.9396
G01 X16.6828 Y17.9197
G01 X16.7063 Y17.9020
G01 X16.7358 Y17.8843
G01 X16.7580 Y17.8738
G01 X16.7856 Y17.8637
G01 X16.8141 Y17.8563
G01 X16.8432 Y17.8517
G01 X16.8750 Y17.8500
G01 X18.1250 Y17.8500
G01 X18.1568 Y17.8517
G01 X18.1859 Y17.8563
G01 X18.2097 Y17.8623
G01 X18.2375 Y17.8720
G01 X18.2642 Y17.8843
G01 X18.2896 Y17.8992
G01 X18.3134 Y17.9166
G01 X18.3354 Y17.9362
G01 X18.3553 Y17.9578
G01 X18.3730 Y17.9813
G01 X18.3884 Y18.0064
G01 X18.4030 Y18.0375
G01 X18.4127 Y18.0653
G01 X18.4197 Y18.0939
G01 X18.4237 Y18.1230
G01 X18.4249 Y18.1475
G01 X18.4250 Y18.2499
G01 X20.5750 Y18.2499
G01 X20.5751 Y18.1475
G01 X20.5763 Y18.1230
G01 X20.5803 Y18.0939
G01 X20.5873 Y18.0653
G01 X20.5970 Y18.0375
G01 X20.6093 Y18.0108
G01 X20.6270 Y17.9813
G01 X20.6447 Y17.9578
G01 X20.6646 Y17.9362
G01 X20.6866 Y17.9166
G01 X20.7063 Y17.9020
G01 X20.7314 Y17.8866
G01 X20.7580 Y17.8738
G01 X20.7856 Y17.8637
G01 X20.8141 Y17.8563
G01 X20.8480 Y17.8513
G01 X20.8750 Y17.8500
G01 X22.1250 Y17.8500
G01 X22.1520 Y17.8513
G01 X22.1811 Y17.8553
G01 X22.2144 Y17.8637
G01 X22.2420 Y17.8738
G01 X22.2642 Y17.8843
G01 X22.2937 Y17.9020
G01 X22.3172 Y17.9197
G01 X22.3388 Y17.9396
G01 X22.3553 Y17.9578
G01 X22.3730 Y17.9813
G01 X22.3907 Y18.0108
G01 X22.4030 Y18.0375
G01 X22.4113 Y18.0606
G01 X22.4187 Y18.0891
G01 X22.4198 Y18.0950
G01 X23.2270 Y17.2878
G01 X23.2470 Y17.2696
G01 X23.2705 Y17.2519
G01 X23.2957 Y17.2365
G01 X23.3267 Y17.2218
G01 X23.3545 Y17.2121
G01 X23.3831 Y17.2052
G01 X23.4123 Y17.2011
G01 X23.4393 Y17.1999
G01 X25.5465 Y17.1999
G01 X25.5783 Y17.2016
G01 X25.6074 Y17.2062
G01 X25.6312 Y17.2121
G01 X25.6636 Y17.2237
G01 X25.6901 Y17.2365
G01 X25.7152 Y17.2519
G01 X25.7349 Y17.2665
G01 X25.7587 Y17.2878
G01 X28.6708 Y20.1999
G01 X36.9247 Y20.1999
G01 X37.1999 Y19.9247
G01 X37.1999 Y16.0753
G01 X36.7682 Y15.6436
G01 X33.7935 Y15.6436
G01 X33.7665 Y15.6423
G01 X33.7325 Y15.6373
G01 X33.7087 Y15.6313
G01 X33.6809 Y15.6216
G01 X33.6498 Y15.6069
G01 X33.6247 Y15.5916
G01 X33.6050 Y15.5770
G01 X33.5812 Y15.5557
G01 X33.2756 Y15.2500
G01 X32.3750 Y15.2500
G01 X32.3480 Y15.2487
G01 X32.3189 Y15.2447
G01 X32.2903 Y15.2377
G01 X32.2625 Y15.2280
G01 X32.2314 Y15.2134
G01 X32.2063 Y15.1980
G01 X32.1866 Y15.1834
G01 X32.1646 Y15.1638
G01 X32.1447 Y15.1422
G01 X32.1270 Y15.1187
G01 X32.1093 Y15.0892
G01 X32.0988 Y15.0670
G01 X32.0887 Y15.0394
G01 X32.0803 Y15.0061
G01 X32.0763 Y14.9770
G01 X32.0750 Y14.9500
G01 X32.0750 Y14.1500
G01 X32.0763 Y14.1230
G01 X32.0813 Y14.0891
G01 X32.0887 Y14.0606
G01 X32.0988 Y14.0330
G01 X32.1093 Y14.0108
G01 X32.1242 Y13.9854
G01 X32.1447 Y13.9578
G01 X32.1646 Y13.9362
G01 X32.1828 Y13.9197
G01 X32.2063 Y13.9020
G01 X32.2314 Y13.8866
G01 X32.2625 Y13.8720
G01 X32.2903 Y13.8623
G01 X32.3141 Y13.8563
G01 X32.3432 Y13.8517
G01 X32.3750 Y13.8500
G01 X33.2756 Y13.8500
G01 X34.0244 Y13.1012
G01 X34.0244 Y11.1755
G01 X34.0261 Y11.1436
G01 X34.0307 Y11.1145
G01 X34.0367 Y11.0907
G01 X34.0464 Y11.0629
G01 X34.0587 Y11.0362
G01 X34.0764 Y11.0067
G01 X34.0941 Y10.9832
G01 X34.1123 Y10.9633
G01 X35.9699 Y9.1057
G01 X35.9699 Y8.6188
G01 X35.9607 Y8.6181
G01 X35.9292 Y8.6132
G01 X35.8983 Y8.6052
G01 X35.8684 Y8.5943
G01 X35.8397 Y8.5804
G01 X35.8165 Y8.5665
G01 X35.7908 Y8.5477
G01 X35.7670 Y8.5265
G01 X35.7423 Y8.4992
G01 X35.7235 Y8.4735
G01 X35.7073 Y8.4460
G01 X35.6957 Y8.4216
G01 X35.6848 Y8.3917
G01 X35.6768 Y8.3608
G01 X35.6719 Y8.3293
G01 X35.6700 Y8.2950
G01 X35.6700 Y7.0450
G01 X35.6714 Y7.0156
G01 X35.6758 Y6.9840
G01 X35.6833 Y6.9530
G01 X35.6939 Y6.9229
G01 X35.7073 Y6.8940
G01 X35.7262 Y6.8624
G01 X35.7454 Y6.8370
G01 X35.7635 Y6.8170
G01 X35.7870 Y6.7954
G01 X35.8124 Y6.7762
G01 X35.8440 Y6.7573
G01 X35.8729 Y6.7439
G01 X35.8983 Y6.7348
G01 X35.9292 Y6.7268
G01 X35.9607 Y6.7219
G01 X35.9950 Y6.7200
G01 X36.5450 Y6.7200
G01 X36.5793 Y6.7219
G01 X36.6108 Y6.7268
G01 X36.6370 Y6.7333
G01 X36.6671 Y6.7439
G01 X36.7003 Y6.7596
G01 X36.7276 Y6.7762
G01 X36.7492 Y6.7923
G01 X36.7765 Y6.8170
G01 X36.7946 Y6.8370
G01 X36.8138 Y6.8624
G01 X36.8327 Y6.8940
G01 X36.8443 Y6.9184
G01 X36.8552 Y6.9483
G01 X36.8642 Y6.9840
G01 X36.8686 Y7.0156
G01 X36.8700 Y7.0450
G01 X36.8700 Y8.2950
G01 X36.8686 Y8.3244
G01 X36.8642 Y8.3560
G01 X36.8567 Y8.3870
G01 X36.8461 Y8.4171
G01 X36.8327 Y8.4460
G01 X36.8165 Y8.4735
G01 X36.7977 Y8.4992
G01 X36.7765 Y8.5230
G01 X36.7530 Y8.5446
G01 X36.7276 Y8.5638
G01 X36.7003 Y8.5804
G01 X36.6716 Y8.5943
G01 X36.6417 Y8.6052
G01 X36.6108 Y8.6132
G01 X36.5793 Y8.6181
G01 X36.5701 Y8.6188
G01 X36.5701 Y9.2300
G01 X36.5689 Y9.2570
G01 X36.5648 Y9.2861
G01 X36.5564 Y9.3195
G01 X36.5463 Y9.3471
G01 X36.5335 Y9.3736
G01 X36.5209 Y9.3947
G01 X36.5035 Y9.4185
G01 X36.4822 Y9.4422
G01 X34.6246 Y11.2998
G01 X34.6246 Y13.2255
G01 X34.6234 Y13.2524
G01 X34.6193 Y13.2816
G01 X34.6124 Y13.3102
G01 X34.6008 Y13.3426
G01 X34.5903 Y13.3648
G01 X34.5754 Y13.3901
G01 X34.5549 Y13.4177
G01 X34.5367 Y13.4377
G01 X33.9119 Y14.0625
G01 X33.9197 Y14.0939
G01 X33.9237 Y14.1230
G01 X33.9250 Y14.1500
G01 X33.9250 Y14.9500
G01 X33.9237 Y14.9770
G01 X33.9197 Y15.0061
G01 X33.9119 Y15.0375
G01 X33.9178 Y15.0433
G01 X36.8925 Y15.0433
G01 X36.9194 Y15.0446
G01 X36.9486 Y15.0487
G01 X36.9819 Y15.0570
G01 X37.0096 Y15.0672
G01 X37.0318 Y15.0777
G01 X37.0571 Y15.0926
G01 X37.0809 Y15.1099
G01 X37.1029 Y15.1295
G01 X37.1999 Y15.2264
G01 X37.1999 Y12.4893
G01 X37.2016 Y12.4574
G01 X37.2052 Y12.4331
G01 X37.2121 Y12.4045
G01 X37.2237 Y12.3722
G01 X37.2365 Y12.3457
G01 X37.2491 Y12.3246
G01 X37.2696 Y12.2970
G01 X37.2878 Y12.2770
G01 X37.6689 Y11.8959
G01 X37.6689 Y6.5795
G01 X35.3896 Y4.3001
G01 X30.6006 Y4.3001
G01 X30.5625 Y4.4523
G01 X30.5110 Y4.5954
G01 X30.4458 Y4.7328
G01 X30.3674 Y4.8631
G01 X30.2766 Y4.9852
G01 X30.1742 Y5.0977
G01 X30.0614 Y5.1997
G01 X29.9391 Y5.2901
G01 X29.8128 Y5.3658
G01 X29.6754 Y5.4310
G01 X29.5323 Y5.4825
G01 X29.3848 Y5.5197
G01 X29.2344 Y5.5422
G01 X29.0825 Y5.5499
G01 X28.9305 Y5.5427
G01 X28.7800 Y5.5206
G01 X28.6324 Y5.4839
G01 X28.4891 Y5.4329
G01 X28.3515 Y5.3681
G01 X28.2209 Y5.2901
G01 X28.0986 Y5.1997
G01 X27.9858 Y5.0977
G01 X27.8834 Y4.9852
G01 X27.7926 Y4.8631
G01 X27.7142 Y4.7328
G01 X27.6490 Y4.5954
G01 X27.5975 Y4.4523
G01 X27.5603 Y4.3048
G01 X27.5378 Y4.1544
G01 X27.5301 Y4.0025
G01 X27.5373 Y3.8505
G01 X27.5594 Y3.7000
G01 X27.5961 Y3.5524
G01 X27.6490 Y3.4046
G01 X27.7142 Y3.2672
G01 X27.7926 Y3.1369
G01 X27.8803 Y3.0186
G01 X27.9823 Y2.9058
G01 X28.0948 Y2.8034
G01 X28.2169 Y2.7126
G01 X28.3515 Y2.6319
G01 X28.4846 Y2.5690
G01 X28.6277 Y2.5175
G01 X28.7800 Y2.4794
G01 X28.9305 Y2.4573
G01 X29.0825 Y2.4501
G01 X29.2344 Y2.4578
G01 X29.3848 Y2.4803
G01 X29.5276 Y2.5161
G01 X29.6709 Y2.5671
G01 X29.8085 Y2.6319
G01 X29.9391 Y2.7099
G01 X30.0652 Y2.8034
G01 X30.1777 Y2.9058
G01 X30.2766 Y3.0148
G01 X30.3674 Y3.1369
G01 X30.4458 Y3.2672
G01 X30.5129 Y3.4091
G01 X30.5639 Y3.5524
G01 X30.6006 Y3.6999
G01 X35.5139 Y3.6999
G01 X35.5457 Y3.7016
G01 X35.5748 Y3.7062
G01 X35.5987 Y3.7121
G01 X35.6265 Y3.7218
G01 X35.6575 Y3.7365
G01 X35.6786 Y3.7491
G01 X35.7024 Y3.7665
G01 X35.7261 Y3.7878
G01 X38.1813 Y6.2429
G01 X38.2025 Y6.2667
G01 X38.2186 Y6.2884
G01 X38.2325 Y6.3115
G01 X38.2463 Y6.3403
G01 X38.2562 Y6.3680
G01 X38.2638 Y6.3990
G01 X38.2677 Y6.4257
G01 X38.2692 Y6.4551
G01 X38.2692 Y12.0202
G01 X38.2679 Y12.0472
G01 X38.2629 Y12.0812
G01 X38.2569 Y12.1050
G01 X38.2472 Y12.1328
G01 X38.2325 Y12.1638
G01 X38.2172 Y12.1890
G01 X38.1994 Y12.2125
G01 X38.1813 Y12.2325
G01 X37.8001 Y12.6136
G01 X37.8001 Y20.0490
G01 X37.7989 Y20.0760
G01 X37.7938 Y20.1100
G01 X37.7864 Y20.1385
G01 X37.7763 Y20.1661
G01 X37.7635 Y20.1926
G01 X37.7481 Y20.2178
G01 X37.7304 Y20.2413
G01 X37.7139 Y20.2595
G01 X37.2595 Y20.7139
G01 X37.2375 Y20.7335
G01 X37.2137 Y20.7509
G01 X37.1883 Y20.7658
G01 X37.1661 Y20.7763
G01 X37.1385 Y20.7864
G01 X37.1052 Y20.7948
G01 X37.0760 Y20.7989
G01 X37.0490 Y20.8001
G01 X28.5465 Y20.8001
G01 X28.5146 Y20.7984
G01 X28.4855 Y20.7938
G01 X28.4617 Y20.7879
G01 X28.4339 Y20.7782
G01 X28.4028 Y20.7635
G01 X28.3777 Y20.7481
G01 X28.3580 Y20.7335
G01 X28.3342 Y20.7122
G01 X25.4221 Y17.8001
G01 X23.5636 Y17.8001
G01 X22.5997 Y18.7639
G01 X22.5815 Y18.7804
G01 X22.5580 Y18.7981
G01 X22.5286 Y18.8158
G01 X22.5064 Y18.8263
G01 X22.4787 Y18.8364
G01 X22.4502 Y18.8438
G01 X22.4250 Y18.8478
G01 X22.4249 Y18.9525
G01 X22.4237 Y18.9770
G01 X22.4197 Y19.0061
G01 X22.4127 Y19.0347
G01 X22.4030 Y19.0625
G01 X22.3907 Y19.0892
G01 X22.3758 Y19.1146
G01 X22.3584 Y19.1384
G01 X22.3388 Y19.1604
G01 X22.3172 Y19.1803
G01 X22.2896 Y19.2008
G01 X22.2642 Y19.2157
G01 X22.2375 Y19.2280
G01 X22.2097 Y19.2377
G01 X22.1811 Y19.2447
G01 X22.1520 Y19.2487
G01 X22.1250 Y19.2500
G01 X20.8750 Y19.2500
G01 X20.8432 Y19.2483
G01 X20.8141 Y19.2437
G01 X20.7856 Y19.2363
G01 X20.7580 Y19.2262
G01 X20.7314 Y19.2134
G01 X20.7063 Y19.1980
G01 X20.6828 Y19.1803
G01 X20.6612 Y19.1604
G01 X20.6416 Y19.1384
G01 X20.6242 Y19.1146
G01 X20.6093 Y19.0892
G01 X20.5970 Y19.0625
G01 X20.5873 Y19.0347
G01 X20.5803 Y19.0061
G01 X20.5763 Y18.9770
G01 X20.5751 Y18.9525
G01 X20.5750 Y18.8501
G01 X18.4250 Y18.8501
G01 X18.4249 Y18.9525
G01 X18.4237 Y18.9770
G01 X18.4197 Y19.0061
G01 X18.4127 Y19.0347
G01 X18.4030 Y19.0625
G01 X18.3884 Y19.0936
G01 X18.3730 Y19.1187
G01 X18.3553 Y19.1422
G01 X18.3354 Y19.1638
G01 X18.3134 Y19.1834
G01 X18.2896 Y19.2008
G01 X18.2642 Y19.2157
G01 X18.2375 Y19.2280
G01 X18.2097 Y19.2377
G01 X18.1859 Y19.2437
G01 X18.1568 Y19.2483
G01 X18.1250 Y19.2500
G01 X16.8750 Y19.2500
G01 X16.8480 Y19.2487
G01 X16.8189 Y19.2447
G01 X16.7903 Y19.2377
G01 X16.7580 Y19.2262
G01 X16.7314 Y19.2134
G01 X16.7063 Y19.1980
G01 X16.6866 Y19.1834
G01 X16.6646 Y19.1638
G01 X16.6447 Y19.1422
G01 X16.6270 Y19.1187
G01 X16.6116 Y19.0936
G01 X16.5988 Y19.0670
G01 X16.5887 Y19.0394
G01 X16.5803 Y19.0061
G01 X16.5763 Y18.9770
G01 X16.5751 Y18.9525
G01 X16.5750 Y18.8501
G01 X15.4250 Y18.8501
G01 X15.4249 Y18.9525
G01 X15.4237 Y18.9770
G01 X15.4197 Y19.0061
G01 X15.4127 Y19.0347
G01 X15.4030 Y19.0625
G01 X15.3884 Y19.0936
G01 X15.3730 Y19.1187
G01 X15.3553 Y19.1422
G01 X15.3354 Y19.1638
G01 X15.3134 Y19.1834
G01 X15.2896 Y19.2008
G01 X15.2642 Y19.2157
G01 X15.2420 Y19.2262
G01 X15.2144 Y19.2363
G01 X15.1811 Y19.2447
G01 X15.1520 Y19.2487
G01 X15.1250 Y19.2500
G01 X14.2244 Y19.2500
G01 X12.7622 Y20.7122
G01 X12.7423 Y20.7304
G01 X12.7187 Y20.7481
G01 X12.6893 Y20.7658
G01 X12.6671 Y20.7763
G01 X12.6395 Y20.7864
G01 X12.6061 Y20.7948
G01 X12.5770 Y20.7989
G01 X12.5500 Y20.8001
G01 X5.3800 Y20.8001
G01 X5.3530 Y20.7989
G01 X5.3191 Y20.7938
G01 X5.2905 Y20.7864
G01 X5.2629 Y20.7763
G01 X5.2364 Y20.7635
G01 X5.2113 Y20.7481
G01 X5.1877 Y20.7304
G01 X5.1696 Y20.7139
G01 X3.6961 Y19.2405
G01 X3.6785 Y19.2507
G01 X3.6075 Y19.2843
G01 X3.5291 Y19.3126
G01 X3.4482 Y19.3331
G01 X3.3609 Y19.3461
G01 X3.2800 Y19.3500
G01 X2.4800 Y19.3500
G01 X2.3991 Y19.3461
G01 X2.3166 Y19.3341
G01 X2.2356 Y19.3141
G01 X2.1570 Y19.2862
G01 X2.0815 Y19.2507
G01 X2.0058 Y19.2053
G01 X1.9389 Y19.1555
G01 X1.8773 Y19.0993
G01 X1.8245 Y19.0411
G01 X1.7747 Y18.9742
G01 X1.7293 Y18.8985
G01 X1.6957 Y18.8275
G01 X1.6674 Y18.7491
G01 X1.6459 Y18.6634
G01 X1.6344 Y18.5858
G01 X1.6301 Y18.5025
G01 X1.6344 Y18.4142
G01 X1.6459 Y18.3366
G01 X1.6659 Y18.2556
G01 X1.6957 Y18.1725
G01 X1.7316 Y18.0972
G01 X1.7719 Y18.0298
G01 X1.8245 Y17.9589
G01 X1.8807 Y17.8973
G01 X1.9389 Y17.8445
G01 X2.0098 Y17.7919
G01 X2.0772 Y17.7516
G01 X2.1525 Y17.7157
G01 X2.2356 Y17.6859
G01 X2.3118 Y17.6669
G01 X2.3942 Y17.6544
G01 X2.4800 Y17.6500
G00 Z3.0000
G00 X9.3000 Y17.6500
G01 F60.00
G01 Z-0.0400
G01 F50.00
G01 X10.9256 Y17.6500
G01 X11.3373 Y17.2383
G01 X11.3611 Y17.2170
G01 X11.3849 Y17.1996
G01 X11.4102 Y17.1847
G01 X11.4324 Y17.1742
G01 X11.4601 Y17.1640
G01 X11.4934 Y17.1557
G01 X11.5226 Y17.1516
G01 X11.5471 Y17.1504
G01 X22.3752 Y17.1504
G01 X23.2500 Y16.2756
G01 X23.2500 Y15.3750
G01 X23.2513 Y15.3480
G01 X23.2553 Y15.3189
G01 X23.2623 Y15.2903
G01 X23.2720 Y15.2625
G01 X23.2843 Y15.2358
G01 X23.3020 Y15.2063
G01 X23.3197 Y15.1828
G01 X23.3396 Y15.1612
G01 X23.3616 Y15.1416
G01 X23.3813 Y15.1270
G01 X23.4064 Y15.1116
G01 X23.4375 Y15.0970
G01 X23.4653 Y15.0873
G01 X23.4891 Y15.0813
G01 X23.5230 Y15.0763
G01 X23.5500 Y15.0750
G01 X24.3500 Y15.0750
G01 X24.3818 Y15.0767
G01 X24.4109 Y15.0813
G01 X24.4347 Y15.0873
G01 X24.4625 Y15.0970
G01 X24.4892 Y15.1093
G01 X24.5187 Y15.1270
G01 X24.5384 Y15.1416
G01 X24.5604 Y15.1612
G01 X24.5834 Y15.1866
G01 X24.5980 Y15.2063
G01 X24.6134 Y15.2314
G01 X24.6280 Y15.2625
G01 X24.6377 Y15.2903
G01 X24.6447 Y15.3189
G01 X24.6487 Y15.3480
G01 X24.6500 Y15.3750
G01 X24.6499 Y16.6275
G01 X24.6487 Y16.6520
G01 X24.6447 Y16.6811
G01 X24.6377 Y16.7097
G01 X24.6280 Y16.7375
G01 X24.6157 Y16.7642
G01 X24.6008 Y16.7896
G01 X24.5803 Y16.8172
G01 X24.5604 Y16.8388
G01 X24.5384 Y16.8584
G01 X24.5146 Y16.8758
G01 X24.4892 Y16.8907
G01 X24.4625 Y16.9030
G01 X24.4347 Y16.9127
G01 X24.4061 Y16.9197
G01 X24.3770 Y16.9237
G01 X24.3500 Y16.9250
G01 X23.5500 Y16.9250
G01 X23.5230 Y16.9237
G01 X23.4939 Y16.9197
G01 X23.4625 Y16.9119
G01 X22.7100 Y17.6644
G01 X22.6918 Y17.6809
G01 X22.6683 Y17.6986
G01 X22.6388 Y17.7163
G01 X22.6166 Y17.7268
G01 X22.5890 Y17.7369
G01 X22.5557 Y17.7453
G01 X22.5265 Y17.7493
G01 X22.4995 Y17.7506
G01 X11.7500 Y17.7506
G01 X11.7500 Y19.3000
G01 X11.7498 Y19.3049
G01 X11.7478 Y19.3145
G01 X11.7441 Y19.3236
G01 X11.7387 Y19.3317
G01 X11.7354 Y19.3354
G01 X11.7278 Y19.3416
G01 X11.7236 Y19.3441
G01 X11.7145 Y19.3478
G01 X11.7098 Y19.3490
G01 X11.7000 Y19.3500
G01 X9.3000 Y19.3500
G01 X9.2902 Y19.3490
G01 X9.2809 Y19.3462
G01 X9.2722 Y19.3416
G01 X9.2646 Y19.3354
G01 X9.2584 Y19.3278
G01 X9.2538 Y19.3191
G01 X9.2510 Y19.3098
G01 X9.2500 Y19.3000
G01 X9.2500 Y17.7000
G01 X9.2510 Y17.6902
G01 X9.2538 Y17.6809
G01 X9.2584 Y17.6722
G01 X9.2646 Y17.6646
G01 X9.2722 Y17.6584
G01 X9.2809 Y17.6538
G01 X9.2902 Y17.6510
G01 X9.3000 Y17.6500
G00 Z3.0000
G00 X10.1000 Y15.1100
G01 F60.00
G01 Z-0.0400
G01 F50.00
G01 X10.9000 Y15.1100
G01 X10.9809 Y15.1139
G01 X11.0634 Y15.1259
G01 X11.1444 Y15.1459
G01 X11.2275 Y15.1757
G01 X11.3028 Y15.2116
G01 X11.3742 Y15.2547
G01 X11.4411 Y15.3045
G01 X11.5027 Y15.3607
G01 X11.5586 Y15.4227
G01 X11.6081 Y15.4898
G01 X11.6507 Y15.5615
G01 X11.6843 Y15.6325
G01 X11.6944 Y15.6599
G01 X11.9000 Y15.6599
G01 X11.9319 Y15.6616
G01 X11.9609 Y15.6662
G01 X11.9895 Y15.6736
G01 X12.0126 Y15.6818
G01 X12.0393 Y15.6942
G01 X12.0647 Y15.7091
G01 X12.0885 Y15.7265
G01 X12.1122 Y15.7478
G01 X12.6138 Y16.2494
G01 X16.2762 Y16.2494
G01 X16.5881 Y15.9375
G01 X16.5803 Y15.9061
G01 X16.5763 Y15.8770
G01 X16.5750 Y15.8500
G01 X16.5751 Y15.0475
G01 X16.5767 Y15.0182
G01 X16.5813 Y14.9891
G01 X16.5873 Y14.9653
G01 X16.5988 Y14.9330
G01 X16.6093 Y14.9108
G01 X16.6242 Y14.8854
G01 X16.6416 Y14.8616
G01 X16.6612 Y14.8396
G01 X16.6828 Y14.8197
G01 X16.7063 Y14.8020
G01 X16.7314 Y14.7866
G01 X16.7580 Y14.7738
G01 X16.7856 Y14.7637
G01 X16.8141 Y14.7563
G01 X16.8432 Y14.7517
G01 X16.8750 Y14.7500
G01 X17.1999 Y14.7500
G01 X17.1999 Y13.7500
G01 X16.8725 Y13.7499
G01 X16.8480 Y13.7487
G01 X16.8189 Y13.7447
G01 X16.7856 Y13.7363
G01 X16.7580 Y13.7262
G01 X16.7358 Y13.7157
G01 X16.7104 Y13.7008
G01 X16.6866 Y13.6834
G01 X16.6612 Y13.6604
G01 X16.6416 Y13.6384
G01 X16.6270 Y13.6187
G01 X16.6116 Y13.5936
G01 X16.5970 Y13.5625
G01 X16.5873 Y13.5347
G01 X16.5813 Y13.5109
G01 X16.5767 Y13.4818
G01 X16.5750 Y13.4500
G01 X16.5750 Y12.6500
G01 X16.5767 Y12.6182
G01 X16.5813 Y12.5891
G01 X16.5873 Y12.5653
G01 X16.5970 Y12.5375
G01 X16.6116 Y12.5064
G01 X16.6270 Y12.4813
G01 X16.6416 Y12.4616
G01 X16.6612 Y12.4396
G01 X16.6828 Y12.4197
G01 X16.7104 Y12.3992
G01 X16.7358 Y12.3843
G01 X16.7580 Y12.3738
G01 X16.7856 Y12.3637
G01 X16.8141 Y12.3563
G01 X16.8432 Y12.3517
G01 X16.8750 Y12.3500
G01 X18.1275 Y12.3501
G01 X18.1520 Y12.3513
G01 X18.1811 Y12.3553
G01 X18.2144 Y12.3637
G01 X18.2420 Y12.3738
G01 X18.2642 Y12.3843
G01 X18.2937 Y12.4020
G01 X18.3134 Y12.4166
G01 X18.3354 Y12.4362
G01 X18.3584 Y12.4616
G01 X18.3758 Y12.4854
G01 X18.3907 Y12.5108
G01 X18.4030 Y12.5375
G01 X18.4113 Y12.5606
G01 X18.4197 Y12.5939
G01 X18.4237 Y12.6230
G01 X18.4250 Y12.6500
G01 X18.4250 Y13.4500
G01 X18.4233 Y13.4818
G01 X18.4187 Y13.5109
G01 X18.4127 Y13.5347
G01 X18.4030 Y13.5625
G01 X18.3907 Y13.5892
G01 X18.3730 Y13.6187
G01 X18.3553 Y13.6422
G01 X18.3354 Y13.6638
G01 X18.3134 Y13.6834
G01 X18.2896 Y13.7008
G01 X18.2642 Y13.7157
G01 X18.2375 Y13.7280
G01 X18.2097 Y13.7377
G01 X18.1859 Y13.7437
G01 X18.1568 Y13.7483
G01 X18.1275 Y13.7499
G01 X17.8001 Y13.7500
G01 X17.8001 Y14.7500
G01 X18.1275 Y14.7501
G01 X18.1520 Y14.7513
G01 X18.1811 Y14.7553
G01 X18.2144 Y14.7637
G01 X18.2420 Y14.7738
G01 X18.2642 Y14.7843
G01 X18.2896 Y14.7992
G01 X18.3134 Y14.8166
G01 X18.3388 Y14.8396
G01 X18.3584 Y14.8616
G01 X18.3730 Y14.8813
G01 X18.3884 Y14.9064
G01 X18.4030 Y14.9375
G01 X18.4127 Y14.9653
G01 X18.4187 Y14.9891
G01 X18.4233 Y15.0182
G01 X18.4250 Y15.0500
G01 X18.4250 Y15.8500
G01 X18.4233 Y15.8818
G01 X18.4187 Y15.9109
G01 X18.4113 Y15.9394
G01 X18.4012 Y15.9670
G01 X18.3907 Y15.9892
G01 X18.3758 Y16.0146
G01 X18.3584 Y16.0384
G01 X18.3354 Y16.0638
G01 X18.3134 Y16.0834
G01 X18.2937 Y16.0980
G01 X18.2686 Y16.1134
G01 X18.2420 Y16.1262
G01 X18.2097 Y16.1377
G01 X18.1811 Y16.1447
G01 X18.1520 Y16.1487
G01 X18.1250 Y16.1500
G01 X17.2244 Y16.1500
G01 X16.6109 Y16.7634
G01 X16.5889 Y16.7830
G01 X16.5651 Y16.8004
G01 X16.5398 Y16.8153
G01 X16.5176 Y16.8258
G01 X16.4899 Y16.8360
G01 X16.4566 Y16.8443
G01 X16.4274 Y16.8484
G01 X16.4005 Y16.8496
G01 X12.4895 Y16.8496
G01 X12.4577 Y16.8479
G01 X12.4286 Y16.8433
G01 X12.4048 Y16.8374
G01 X12.3724 Y16.8258
G01 X12.3502 Y16.8153
G01 X12.3249 Y16.8004
G01 X12.2973 Y16.7799
G01 X12.2773 Y16.7617
G01 X11.7757 Y16.2601
G01 X11.6944 Y16.2601
G01 X11.6843 Y16.2875
G01 X11.6507 Y16.3585
G01 X11.6053 Y16.4342
G01 X11.5555 Y16.5011
G01 X11.5027 Y16.5593
G01 X11.4373 Y16.6186
G01 X11.3702 Y16.6681
G01 X11.2985 Y16.7107
G01 X11.2230 Y16.7462
G01 X11.1444 Y16.7741
G01 X11.0682 Y16.7931
G01 X10.9858 Y16.8056
G01 X10.9025 Y16.8099
G01 X10.1000 Y16.8100
G01 X10.0142 Y16.8056
G01 X9.9366 Y16.7941
G01 X9.8556 Y16.7741
G01 X9.7770 Y16.7462
G01 X9.7015 Y16.7107
G01 X9.6298 Y16.6681
G01 X9.5627 Y16.6186
G01 X9.4973 Y16.5593
G01 X9.4414 Y16.4973
G01 X9.3919 Y16.4302
G01 X9.3516 Y16.3628
G01 X9.3157 Y16.2875
G01 X9.2874 Y16.2091
G01 X9.2669 Y16.1282
G01 X9.2544 Y16.0458
G01 X9.2501 Y15.9625
G01 X9.2544 Y15.8742
G01 X9.2669 Y15.7918
G01 X9.2874 Y15.7109
G01 X9.3157 Y15.6325
G01 X9.3516 Y15.5572
G01 X9.3947 Y15.4858
G01 X9.4445 Y15.4189
G01 X9.4973 Y15.3607
G01 X9.5589 Y15.3045
G01 X9.6258 Y15.2547
G01 X9.6972 Y15.2116
G01 X9.7770 Y15.1738
G01 X9.8556 Y15.1459
G01 X9.9366 Y15.1259
G01 X10.0191 Y15.1139
G01 X10.1000 Y15.1100
G00 Z3.0000
G00 X20.3529 Y11.9639
G01 F60.00
G01 Z-0.0400
G01 F50.00
G01 X20.3830 Y11.9533
G01 X20.4140 Y11.9458
G01 X20.4456 Y11.9414
G01 X20.4750 Y11.9400
G01 X21.7250 Y11.9400
G01 X21.7593 Y11.9419
G01 X21.7908 Y11.9468
G01 X21.8170 Y11.9533
G01 X21.8471 Y11.9639
G01 X21.8760 Y11.9773
G01 X21.9076 Y11.9962
G01 X21.9330 Y12.0154
G01 X21.9565 Y12.0370
G01 X21.9777 Y12.0608
G01 X21.9965 Y12.0865
G01 X22.0127 Y12.1140
G01 X22.0243 Y12.1384
G01 X22.0352 Y12.1683
G01 X22.0432 Y12.1992
G01 X22.0481 Y12.2307
G01 X22.0488 Y12.2399
G01 X23.0507 Y12.2399
G01 X23.0777 Y12.2411
G01 X23.1117 Y12.2462
G01 X23.1355 Y12.2521
G01 X23.1633 Y12.2618
G01 X23.1943 Y12.2765
G01 X23.2195 Y12.2919
G01 X23.2430 Y12.3096
G01 X23.2630 Y12.3278
G01 X25.2617 Y14.3266
G01 X25.2830 Y14.3503
G01 X25.2977 Y14.3700
G01 X25.3130 Y14.3952
G01 X25.3258 Y14.4217
G01 X25.3374 Y14.4540
G01 X25.3443 Y14.4827
G01 X25.3479 Y14.5069
G01 X25.3496 Y14.5388
G01 X25.3496 Y15.8895
G01 X27.7000 Y18.2399
G01 X30.4700 Y18.2399
G01 X30.4702 Y17.9851
G01 X30.4722 Y17.9755
G01 X30.4738 Y17.9709
G01 X30.4784 Y17.9622
G01 X30.4813 Y17.9583
G01 X30.4883 Y17.9513
G01 X30.4964 Y17.9459
G01 X30.5055 Y17.9422
G01 X30.5102 Y17.9410
G01 X30.5200 Y17.9400
G01 X32.3200 Y17.9400
G01 X32.3298 Y17.9410
G01 X32.3345 Y17.9422
G01 X32.3436 Y17.9459
G01 X32.3517 Y17.9513
G01 X32.3587 Y17.9583
G01 X32.3641 Y17.9664
G01 X32.3678 Y17.9755
G01 X32.3698 Y17.9851
G01 X32.3700 Y17.9900
G01 X32.3700 Y19.0900
G01 X32.3690 Y19.0998
G01 X32.3662 Y19.1091
G01 X32.3641 Y19.1136
G01 X32.3587 Y19.1217
G01 X32.3554 Y19.1254
G01 X32.3478 Y19.1316
G01 X32.3391 Y19.1362
G01 X32.3345 Y19.1378
G01 X32.3249 Y19.1398
G01 X32.3200 Y19.1400
G01 X30.5151 Y19.1398
G01 X30.5102 Y19.1390
G01 X30.5009 Y19.1362
G01 X30.4922 Y19.1316
G01 X30.4846 Y19.1254
G01 X30.4813 Y19.1217
G01 X30.4759 Y19.1136
G01 X30.4722 Y19.1045
G01 X30.4710 Y19.0998
G01 X30.4700 Y19.0900
G01 X30.4700 Y18.8401
G01 X27.5757 Y18.8401
G01 X27.5439 Y18.8384
G01 X27.5148 Y18.8338
G01 X27.4910 Y18.8279
G01 X27.4586 Y18.8163
G01 X27.4321 Y18.8035
G01 X27.4111 Y18.7909
G01 X27.3873 Y18.7735
G01 X27.3635 Y18.7522
G01 X24.8373 Y16.2260
G01 X24.8160 Y16.2023
G01 X24.7987 Y16.1785
G01 X24.7837 Y16.1531
G01 X24.7732 Y16.1309
G01 X24.7631 Y16.1032
G01 X24.7547 Y16.0699
G01 X24.7507 Y16.0408
G01 X24.7495 Y16.0162
G01 X24.7494 Y14.6631
G01 X22.9264 Y12.8401
G01 X22.0488 Y12.8401
G01 X22.0481 Y12.8493
G01 X22.0432 Y12.8808
G01 X22.0352 Y12.9117
G01 X22.0261 Y12.9371
G01 X22.0127 Y12.9660
G01 X21.9965 Y12.9935
G01 X21.9746 Y13.0230
G01 X21.9530 Y13.0465
G01 X21.9330 Y13.0646
G01 X21.9035 Y13.0865
G01 X21.8760 Y13.1027
G01 X21.8516 Y13.1143
G01 X21.8217 Y13.1252
G01 X21.8001 Y13.1309
G01 X21.8001 Y14.7500
G01 X22.1275 Y14.7501
G01 X22.1520 Y14.7513
G01 X22.1811 Y14.7553
G01 X22.2144 Y14.7637
G01 X22.2420 Y14.7738
G01 X22.2642 Y14.7843
G01 X22.2896 Y14.7992
G01 X22.3134 Y14.8166
G01 X22.3354 Y14.8362
G01 X22.3553 Y14.8578
G01 X22.3730 Y14.8813
G01 X22.3884 Y14.9064
G01 X22.4012 Y14.9330
G01 X22.4113 Y14.9606
G01 X22.4187 Y14.9891
G01 X22.4233 Y15.0182
G01 X22.4249 Y15.0475
G01 X22.4249 Y15.8525
G01 X22.4237 Y15.8770
G01 X22.4197 Y15.9061
G01 X22.4113 Y15.9394
G01 X22.4012 Y15.9670
G01 X22.3907 Y15.9892
G01 X22.3730 Y16.0187
G01 X22.3553 Y16.0422
G01 X22.3354 Y16.0638
G01 X22.3134 Y16.0834
G01 X22.2937 Y16.0980
G01 X22.2686 Y16.1134
G01 X22.2420 Y16.1262
G01 X22.2144 Y16.1363
G01 X22.1859 Y16.1437
G01 X22.1520 Y16.1487
G01 X22.1250 Y16.1500
G01 X20.8725 Y16.1499
G01 X20.8432 Y16.1483
G01 X20.8141 Y16.1437
G01 X20.7903 Y16.1377
G01 X20.7580 Y16.1262
G01 X20.7314 Y16.1134
G01 X20.7063 Y16.0980
G01 X20.6866 Y16.0834
G01 X20.6646 Y16.0638
G01 X20.6447 Y16.0422
G01 X20.6270 Y16.0187
G01 X20.6093 Y15.9892
G01 X20.5970 Y15.9625
G01 X20.5873 Y15.9347
G01 X20.5813 Y15.9109
G01 X20.5767 Y15.8818
G01 X20.5750 Y15.8500
G01 X20.5750 Y15.0500
G01 X20.5763 Y15.0230
G01 X20.5803 Y14.9939
G01 X20.5873 Y14.9653
G01 X20.5988 Y14.9330
G01 X20.6093 Y14.9108
G01 X20.6242 Y14.8854
G01 X20.6447 Y14.8578
G01 X20.6646 Y14.8362
G01 X20.6866 Y14.8166
G01 X20.7063 Y14.8020
G01 X20.7314 Y14.7866
G01 X20.7625 Y14.7720
G01 X20.7903 Y14.7623
G01 X20.8141 Y14.7563
G01 X20.8480 Y14.7513
G01 X20.8750 Y14.7500
G01 X21.1999 Y14.7500
G01 X21.1999 Y13.1400
G01 X20.4750 Y13.1400
G01 X20.4407 Y13.1381
G01 X20.4092 Y13.1332
G01 X20.3783 Y13.1252
G01 X20.3484 Y13.1143
G01 X20.3240 Y13.1027
G01 X20.2965 Y13.0865
G01 X20.2708 Y13.0677
G01 X20.2470 Y13.0465
G01 X20.2254 Y13.0230
G01 X20.2062 Y12.9976
G01 X20.1873 Y12.9660
G01 X20.1739 Y12.9371
G01 X20.1648 Y12.9117
G01 X20.1568 Y12.8808
G01 X20.1514 Y12.8444
G01 X20.1500 Y12.8150
G01 X20.1500 Y12.2650
G01 X20.1519 Y12.2307
G01 X20.1568 Y12.1992
G01 X20.1648 Y12.1683
G01 X20.1739 Y12.1429
G01 X20.1896 Y12.1097
G01 X20.2062 Y12.0824
G01 X20.2223 Y12.0608
G01 X20.2470 Y12.0335
G01 X20.2708 Y12.0123
G01 X20.2965 Y11.9935
G01 X20.3197 Y11.9796
G01 X20.3529 Y11.9639
G00 Z3.0000
G00 X22.4229 Y10.6939
G01 F60.00
G01 Z-0.0400
G01 F50.00
G01 X22.4530 Y10.6833
G01 X22.4840 Y10.6758
G01 X22.5156 Y10.6714
G01 X22.5450 Y10.6700
G01 X23.7950 Y10.6700
G01 X23.8244 Y10.6714
G01 X23.8560 Y10.6758
G01 X23.8870 Y10.6833
G01 X23.9171 Y10.6939
G01 X23.9460 Y10.7073
G01 X23.9735 Y10.7235
G01 X23.9992 Y10.7423
G01 X24.0230 Y10.7635
G01 X24.0446 Y10.7870
G01 X24.0665 Y10.8165
G01 X24.0827 Y10.8440
G01 X24.0943 Y10.8684
G01 X24.1067 Y10.9030
G01 X24.1142 Y10.9340
G01 X24.1186 Y10.9656
G01 X24.1200 Y10.9950
G01 X24.1200 Y11.5450
G01 X24.1181 Y11.5793
G01 X24.1132 Y11.6108
G01 X24.1052 Y11.6417
G01 X24.0961 Y11.6671
G01 X24.0827 Y11.6960
G01 X24.0665 Y11.7235
G01 X24.0477 Y11.7492
G01 X24.0265 Y11.7730
G01 X23.9992 Y11.7977
G01 X23.9735 Y11.8165
G01 X23.9503 Y11.8304
G01 X23.9216 Y11.8443
G01 X23.8917 Y11.8552
G01 X23.8560 Y11.8642
G01 X23.8244 Y11.8686
G01 X23.7944 Y11.8700
G01 X26.9994 Y15.0750
G01 X27.4500 Y15.0750
G01 X27.4818 Y15.0767
G01 X27.5109 Y15.0813
G01 X27.5394 Y15.0887
G01 X27.5670 Y15.0988
G01 X27.5936 Y15.1116
G01 X27.6187 Y15.1270
G01 X27.6422 Y15.1447
G01 X27.6638 Y15.1646
G01 X27.6834 Y15.1866
G01 X27.6980 Y15.2063
G01 X27.7134 Y15.2314
G01 X27.7262 Y15.2580
G01 X27.7377 Y15.2903
G01 X27.7447 Y15.3189
G01 X27.7483 Y15.3432
G01 X27.7499 Y15.3725
G01 X27.7499 Y16.6275
G01 X27.7483 Y16.6568
G01 X27.7437 Y16.6859
G01 X27.7363 Y16.7144
G01 X27.7262 Y16.7420
G01 X27.7157 Y16.7642
G01 X27.7008 Y16.7896
G01 X27.6834 Y16.8134
G01 X27.6638 Y16.8354
G01 X27.6422 Y16.8553
G01 X27.6146 Y16.8758
G01 X27.5892 Y16.8907
G01 X27.5670 Y16.9012
G01 X27.5347 Y16.9127
G01 X27.5061 Y16.9197
G01 X27.4770 Y16.9237
G01 X27.4500 Y16.9250
G01 X26.6475 Y16.9249
G01 X26.6182 Y16.9233
G01 X26.5891 Y16.9187
G01 X26.5606 Y16.9113
G01 X26.5330 Y16.9012
G01 X26.5064 Y16.8884
G01 X26.4813 Y16.8730
G01 X26.4616 Y16.8584
G01 X26.4396 Y16.8388
G01 X26.4197 Y16.8172
G01 X26.4020 Y16.7937
G01 X26.3866 Y16.7686
G01 X26.3720 Y16.7375
G01 X26.3623 Y16.7097
G01 X26.3553 Y16.6811
G01 X26.3513 Y16.6520
G01 X26.3501 Y16.6275
G01 X26.3500 Y15.3750
G01 X26.3513 Y15.3480
G01 X26.3553 Y15.3189
G01 X26.3631 Y15.2875
G01 X22.9456 Y11.8700
G01 X22.5450 Y11.8700
G01 X22.5156 Y11.8686
G01 X22.4840 Y11.8642
G01 X22.4483 Y11.8552
G01 X22.4184 Y11.8443
G01 X22.3897 Y11.8304
G01 X22.3624 Y11.8138
G01 X22.3370 Y11.7946
G01 X22.3135 Y11.7730
G01 X22.2954 Y11.7530
G01 X22.2735 Y11.7235
G01 X22.2573 Y11.6960
G01 X22.2457 Y11.6716
G01 X22.2333 Y11.6370
G01 X22.2258 Y11.6060
G01 X22.2214 Y11.5744
G01 X22.2200 Y11.5450
G01 X22.2200 Y10.9950
G01 X22.2219 Y10.9607
G01 X22.2268 Y10.9292
G01 X22.2348 Y10.8983
G01 X22.2439 Y10.8729
G01 X22.2596 Y10.8397
G01 X22.2762 Y10.8124
G01 X22.2923 Y10.7908
G01 X22.3170 Y10.7635
G01 X22.3408 Y10.7423
G01 X22.3665 Y10.7235
G01 X22.3897 Y10.7096
G01 X22.4229 Y10.6939
G00 Z3.0000
G00 X20.2000 Y9.4000
G01 F60.00
G01 Z-0.0400
G01 F50.00
G01 X22.0000 Y9.4000
G01 X22.0098 Y9.4010
G01 X22.0191 Y9.4038
G01 X22.0236 Y9.4059
G01 X22.0278 Y9.4084
G01 X22.0354 Y9.4146
G01 X22.0416 Y9.4222
G01 X22.0441 Y9.4264
G01 X22.0478 Y9.4355
G01 X22.0498 Y9.4451
G01 X22.0500 Y9.6999
G01 X24.1623 Y9.6999
G01 X24.1942 Y9.7016
G01 X24.2233 Y9.7062
G01 X24.2518 Y9.7136
G01 X24.2794 Y9.7237
G01 X24.3016 Y9.7342
G01 X24.3311 Y9.7519
G01 X24.3546 Y9.7696
G01 X24.3745 Y9.7878
G01 X26.5268 Y11.9400
G01 X27.2250 Y11.9400
G01 X27.2593 Y11.9419
G01 X27.2908 Y11.9468
G01 X27.3170 Y11.9533
G01 X27.3471 Y11.9639
G01 X27.3760 Y11.9773
G01 X27.4076 Y11.9962
G01 X27.4330 Y12.0154
G01 X27.4565 Y12.0370
G01 X27.4777 Y12.0608
G01 X27.4965 Y12.0865
G01 X27.5127 Y12.1140
G01 X27.5243 Y12.1384
G01 X27.5367 Y12.1730
G01 X27.5442 Y12.2040
G01 X27.5486 Y12.2356
G01 X27.5500 Y12.2650
G01 X27.5500 Y12.8150
G01 X27.5486 Y12.8444
G01 X27.5442 Y12.8760
G01 X27.5367 Y12.9070
G01 X27.5261 Y12.9371
G01 X27.5127 Y12.9660
G01 X27.4938 Y12.9976
G01 X27.4746 Y13.0230
G01 X27.4530 Y13.0465
G01 X27.4330 Y13.0646
G01 X27.4076 Y13.0838
G01 X27.3760 Y13.1027
G01 X27.3471 Y13.1161
G01 X27.3170 Y13.1267
G01 X27.2908 Y13.1332
G01 X27.2544 Y13.1386
G01 X27.2250 Y13.1400
G01 X25.9725 Y13.1399
G01 X25.9456 Y13.1386
G01 X25.9140 Y13.1342
G01 X25.8783 Y13.1252
G01 X25.8484 Y13.1143
G01 X25.8197 Y13.1004
G01 X25.7924 Y13.0838
G01 X25.7708 Y13.0677
G01 X25.7470 Y13.0465
G01 X25.7254 Y13.0230
G01 X25.7062 Y12.9976
G01 X25.6873 Y12.9660
G01 X25.6739 Y12.9371
G01 X25.6648 Y12.9117
G01 X25.6568 Y12.8808
G01 X25.6519 Y12.8493
G01 X25.6500 Y12.8150
G01 X25.6500 Y12.2650
G01 X25.6519 Y12.2307
G01 X25.6568 Y12.1992
G01 X25.6648 Y12.1683
G01 X25.6757 Y12.1384
G01 X25.6873 Y12.1140
G01 X25.7035 Y12.0865
G01 X25.7223 Y12.0608
G01 X25.7435 Y12.0370
G01 X25.7598 Y12.0219
G01 X24.0380 Y10.3001
G01 X22.0500 Y10.3001
G01 X22.0498 Y10.5549
G01 X22.0478 Y10.5645
G01 X22.0462 Y10.5691
G01 X22.0416 Y10.5778
G01 X22.0354 Y10.5854
G01 X22.0278 Y10.5916
G01 X22.0236 Y10.5941
G01 X22.0191 Y10.5962
G01 X22.0098 Y10.5990
G01 X22.0000 Y10.6000
G01 X20.2000 Y10.6000
G01 X20.1902 Y10.5990
G01 X20.1809 Y10.5962
G01 X20.1764 Y10.5941
G01 X20.1722 Y10.5916
G01 X20.1646 Y10.5854
G01 X20.1584 Y10.5778
G01 X20.1538 Y10.5691
G01 X20.1522 Y10.5645
G01 X20.1510 Y10.5598
G01 X20.1500 Y10.5500
G01 X20.1500 Y9.4500
G01 X20.1510 Y9.4402
G01 X20.1538 Y9.4309
G01 X20.1584 Y9.4222
G01 X20.1646 Y9.4146
G01 X20.1722 Y9.4084
G01 X20.1809 Y9.4038
G01 X20.1902 Y9.4010
G01 X20.2000 Y9.4000
G00 Z3.0000
G00 X27.9229 Y10.6939
G01 F60.00
G01 Z-0.0400
G01 F50.00
G01 X27.9530 Y10.6833
G01 X27.9840 Y10.6758
G01 X28.0156 Y10.6714
G01 X28.0425 Y10.6701
G01 X28.4456 Y10.6700
G01 X28.6499 Y10.4657
G01 X28.6499 Y9.9250
G01 X28.5475 Y9.9249
G01 X28.5230 Y9.9237
G01 X28.4939 Y9.9197
G01 X28.4653 Y9.9127
G01 X28.4375 Y9.9030
G01 X28.4108 Y9.8907
G01 X28.3854 Y9.8758
G01 X28.3616 Y9.8584
G01 X28.3396 Y9.8388
G01 X28.3197 Y9.8172
G01 X28.3020 Y9.7937
G01 X28.2866 Y9.7686
G01 X28.2738 Y9.7420
G01 X28.2637 Y9.7144
G01 X28.2553 Y9.6811
G01 X28.2513 Y9.6520
G01 X28.2500 Y9.6250
G01 X28.2501 Y8.3725
G01 X28.2517 Y8.3432
G01 X28.2553 Y8.3189
G01 X28.2623 Y8.2903
G01 X28.2738 Y8.2580
G01 X28.2843 Y8.2358
G01 X28.2992 Y8.2104
G01 X28.3166 Y8.1866
G01 X28.3362 Y8.1646
G01 X28.3616 Y8.1416
G01 X28.3854 Y8.1242
G01 X28.4108 Y8.1093
G01 X28.4330 Y8.0988
G01 X28.4606 Y8.0887
G01 X28.4891 Y8.0813
G01 X28.5230 Y8.0763
G01 X28.5500 Y8.0750
G01 X29.3525 Y8.0751
G01 X29.3818 Y8.0767
G01 X29.4109 Y8.0813
G01 X29.4347 Y8.0873
G01 X29.4670 Y8.0988
G01 X29.4936 Y8.1116
G01 X29.5146 Y8.1242
G01 X29.5384 Y8.1416
G01 X29.5638 Y8.1646
G01 X29.5834 Y8.1866
G01 X29.6008 Y8.2104
G01 X29.6157 Y8.2358
G01 X29.6262 Y8.2580
G01 X29.6363 Y8.2856
G01 X29.6437 Y8.3141
G01 X29.6487 Y8.3480
G01 X29.6500 Y8.3750
G01 X29.6500 Y9.6250
G01 X29.6483 Y9.6568
G01 X29.6437 Y9.6859
G01 X29.6363 Y9.7144
G01 X29.6262 Y9.7420
G01 X29.6157 Y9.7642
G01 X29.6008 Y9.7896
G01 X29.5834 Y9.8134
G01 X29.5638 Y9.8354
G01 X29.5422 Y9.8553
G01 X29.5187 Y9.8730
G01 X29.4892 Y9.8907
G01 X29.4625 Y9.9030
G01 X29.4347 Y9.9127
G01 X29.4061 Y9.9197
G01 X29.3770 Y9.9237
G01 X29.3525 Y9.9249
G01 X29.2501 Y9.9250
G01 X29.2501 Y10.5900
G01 X29.2484 Y10.6219
G01 X29.2448 Y10.6461
G01 X29.2390 Y10.6700
G01 X29.2950 Y10.6700
G01 X29.3244 Y10.6714
G01 X29.3608 Y10.6768
G01 X29.3917 Y10.6848
G01 X29.4216 Y10.6957
G01 X29.4460 Y10.7073
G01 X29.4735 Y10.7235
G01 X29.4992 Y10.7423
G01 X29.5230 Y10.7635
G01 X29.5477 Y10.7908
G01 X29.5665 Y10.8165
G01 X29.5827 Y10.8440
G01 X29.5943 Y10.8684
G01 X29.6052 Y10.8983
G01 X29.6142 Y10.9340
G01 X29.6186 Y10.9656
G01 X29.6200 Y10.9950
G01 X29.6199 Y11.5475
G01 X29.6181 Y11.5793
G01 X29.6142 Y11.6060
G01 X29.6067 Y11.6370
G01 X29.5943 Y11.6716
G01 X29.5827 Y11.6960
G01 X29.5665 Y11.7235
G01 X29.5477 Y11.7492
G01 X29.5265 Y11.7730
G01 X29.5030 Y11.7946
G01 X29.4735 Y11.8165
G01 X29.4460 Y11.8327
G01 X29.4216 Y11.8443
G01 X29.3917 Y11.8552
G01 X29.3608 Y11.8632
G01 X29.3244 Y11.8686
G01 X29.2950 Y11.8700
G01 X28.0425 Y11.8699
G01 X28.0107 Y11.8681
G01 X27.9792 Y11.8632
G01 X27.9530 Y11.8567
G01 X27.9184 Y11.8443
G01 X27.8940 Y11.8327
G01 X27.8665 Y11.8165
G01 X27.8408 Y11.7977
G01 X27.8135 Y11.7730
G01 X27.7923 Y11.7492
G01 X27.7735 Y11.7235
G01 X27.7573 Y11.6960
G01 X27.7439 Y11.6671
G01 X27.7333 Y11.6370
G01 X27.7258 Y11.6060
G01 X27.7214 Y11.5744
G01 X27.7200 Y11.5450
G01 X27.7200 Y10.9950
G01 X27.7214 Y10.9656
G01 X27.7258 Y10.9340
G01 X27.7348 Y10.8983
G01 X27.7457 Y10.8684
G01 X27.7573 Y10.8440
G01 X27.7762 Y10.8124
G01 X27.7923 Y10.7908
G01 X27.8135 Y10.7670
G01 X27.8408 Y10.7423
G01 X27.8665 Y10.7235
G01 X27.8897 Y10.7096
G01 X27.9229 Y10.6939
G00 Z3.0000
G00 X30.6729 Y15.4239
G01 F60.00
G01 Z-0.0400
G01 F50.00
G01 X30.7030 Y15.4133
G01 X30.7340 Y15.4058
G01 X30.7656 Y15.4014
G01 X30.7925 Y15.4001
G01 X31.1956 Y15.4000
G01 X31.3499 Y15.2457
G01 X31.3499 Y13.3000
G01 X31.3511 Y13.2730
G01 X31.3552 Y13.2439
G01 X31.3636 Y13.2105
G01 X31.3737 Y13.1829
G01 X31.3842 Y13.1607
G01 X31.3991 Y13.1353
G01 X31.4165 Y13.1115
G01 X31.4378 Y13.0878
G01 X32.3756 Y12.1500
G01 X32.3480 Y12.1487
G01 X32.3189 Y12.1447
G01 X32.2856 Y12.1363
G01 X32.2580 Y12.1262
G01 X32.2314 Y12.1134
G01 X32.2104 Y12.1008
G01 X32.1866 Y12.0834
G01 X32.1646 Y12.0638
G01 X32.1447 Y12.0422
G01 X32.1242 Y12.0146
G01 X32.1093 Y11.9892
G01 X32.0988 Y11.9670
G01 X32.0887 Y11.9394
G01 X32.0813 Y11.9109
G01 X32.0767 Y11.8818
G01 X32.0750 Y11.8500
G01 X32.0751 Y11.0475
G01 X32.0767 Y11.0182
G01 X32.0813 Y10.9891
G01 X32.0873 Y10.9653
G01 X32.0988 Y10.9330
G01 X32.1116 Y10.9064
G01 X32.1270 Y10.8813
G01 X32.1416 Y10.8616
G01 X32.1612 Y10.8396
G01 X32.1828 Y10.8197
G01 X32.2104 Y10.7992
G01 X32.2358 Y10.7843
G01 X32.2625 Y10.7720
G01 X32.2856 Y10.7637
G01 X32.3141 Y10.7563
G01 X32.3432 Y10.7517
G01 X32.3750 Y10.7500
G01 X33.2756 Y10.7500
G01 X33.4299 Y10.5957
G01 X33.4299 Y8.6200
G01 X33.1751 Y8.6198
G01 X33.1702 Y8.6190
G01 X33.1609 Y8.6162
G01 X33.1522 Y8.6116
G01 X33.1483 Y8.6087
G01 X33.1446 Y8.6054
G01 X33.1384 Y8.5978
G01 X33.1338 Y8.5891
G01 X33.1310 Y8.5798
G01 X33.1300 Y8.5700
G01 X33.1300 Y6.7700
G01 X33.1310 Y6.7602
G01 X33.1338 Y6.7509
G01 X33.1384 Y6.7422
G01 X33.1413 Y6.7383
G01 X33.1446 Y6.7346
G01 X33.1522 Y6.7284
G01 X33.1564 Y6.7259
G01 X33.1655 Y6.7222
G01 X33.1702 Y6.7210
G01 X33.1800 Y6.7200
G01 X34.2800 Y6.7200
G01 X34.2898 Y6.7210
G01 X34.2991 Y6.7238
G01 X34.3036 Y6.7259
G01 X34.3117 Y6.7313
G01 X34.3154 Y6.7346
G01 X34.3216 Y6.7422
G01 X34.3262 Y6.7509
G01 X34.3278 Y6.7555
G01 X34.3290 Y6.7602
G01 X34.3300 Y6.7700
G01 X34.3298 Y8.5749
G01 X34.3290 Y8.5798
G01 X34.3262 Y8.5891
G01 X34.3241 Y8.5936
G01 X34.3187 Y8.6017
G01 X34.3117 Y8.6087
G01 X34.3078 Y8.6116
G01 X34.2991 Y8.6162
G01 X34.2898 Y8.6190
G01 X34.2800 Y8.6200
G01 X34.0301 Y8.6200
G01 X34.0301 Y10.7225
G01 X34.0284 Y10.7519
G01 X34.0238 Y10.7809
G01 X34.0179 Y10.8048
G01 X34.0082 Y10.8326
G01 X33.9958 Y10.8593
G01 X33.9809 Y10.8847
G01 X33.9635 Y10.9085
G01 X33.9422 Y10.9322
G01 X33.9119 Y10.9625
G01 X33.9197 Y10.9939
G01 X33.9237 Y11.0230
G01 X33.9250 Y11.0500
G01 X33.9250 Y11.8500
G01 X33.9237 Y11.8770
G01 X33.9197 Y11.9061
G01 X33.9113 Y11.9394
G01 X33.9012 Y11.9670
G01 X33.8907 Y11.9892
G01 X33.8758 Y12.0146
G01 X33.8584 Y12.0384
G01 X33.8354 Y12.0638
G01 X33.8134 Y12.0834
G01 X33.7937 Y12.0980
G01 X33.7686 Y12.1134
G01 X33.7420 Y12.1262
G01 X33.7144 Y12.1363
G01 X33.6811 Y12.1447
G01 X33.6520 Y12.1487
G01 X33.6275 Y12.1499
G01 X33.2234 Y12.1500
G01 X33.2122 Y12.1622
G01 X31.9501 Y13.4243
G01 X31.9501 Y15.3700
G01 X31.9486 Y15.4000
G01 X32.0475 Y15.4001
G01 X32.0744 Y15.4014
G01 X32.1060 Y15.4058
G01 X32.1417 Y15.4148
G01 X32.1716 Y15.4257
G01 X32.2003 Y15.4396
G01 X32.2276 Y15.4562
G01 X32.2530 Y15.4754
G01 X32.2765 Y15.4970
G01 X32.2977 Y15.5208
G01 X32.3165 Y15.5465
G01 X32.3304 Y15.5697
G01 X32.3443 Y15.5984
G01 X32.3552 Y15.6283
G01 X32.3642 Y15.6640
G01 X32.3686 Y15.6956
G01 X32.3700 Y15.7250
G01 X32.3699 Y16.2775
G01 X32.3681 Y16.3093
G01 X32.3632 Y16.3408
G01 X32.3567 Y16.3670
G01 X32.3443 Y16.4016
G01 X32.3327 Y16.4260
G01 X32.3165 Y16.4535
G01 X32.2977 Y16.4792
G01 X32.2765 Y16.5030
G01 X32.2530 Y16.5246
G01 X32.2235 Y16.5465
G01 X32.1960 Y16.5627
G01 X32.1671 Y16.5761
G01 X32.1417 Y16.5852
G01 X32.1108 Y16.5932
G01 X32.0744 Y16.5986
G01 X32.0450 Y16.6000
G01 X30.7925 Y16.5999
G01 X30.7607 Y16.5981
G01 X30.7292 Y16.5932
G01 X30.7030 Y16.5867
G01 X30.6684 Y16.5743
G01 X30.6440 Y16.5627
G01 X30.6165 Y16.5465
G01 X30.5908 Y16.5277
G01 X30.5635 Y16.5030
G01 X30.5423 Y16.4792
G01 X30.5235 Y16.4535
G01 X30.5073 Y16.4260
G01 X30.4939 Y16.3971
G01 X30.4833 Y16.3670
G01 X30.4758 Y16.3360
G01 X30.4714 Y16.3044
G01 X30.4700 Y16.2750
G01 X30.4700 Y15.7250
G01 X30.4714 Y15.6956
G01 X30.4758 Y15.6640
G01 X30.4848 Y15.6283
G01 X30.4957 Y15.5984
G01 X30.5073 Y15.5740
G01 X30.5262 Y15.5424
G01 X30.5423 Y15.5208
G01 X30.5635 Y15.4970
G01 X30.5908 Y15.4723
G01 X30.6165 Y15.4535
G01 X30.6397 Y15.4396
G01 X30.6729 Y15.4239
G00 Z3.0000
G00 X34.4000 Y6.2250
G01 F60.00
G01 Z-0.0400
G01 F50.00
G01 X34.4001 Y4.9725
G01 X34.4019 Y4.9407
G01 X34.4068 Y4.9092
G01 X34.4133 Y4.8830
G01 X34.4257 Y4.8484
G01 X34.4396 Y4.8197
G01 X34.4562 Y4.7924
G01 X34.4754 Y4.7670
G01 X34.4935 Y4.7470
G01 X34.5170 Y4.7254
G01 X34.5424 Y4.7062
G01 X34.5740 Y4.6873
G01 X34.6029 Y4.6739
G01 X34.6330 Y4.6633
G01 X34.6640 Y4.6558
G01 X34.6956 Y4.6514
G01 X34.7250 Y4.6500
G01 X35.2750 Y4.6500
G01 X35.3093 Y4.6519
G01 X35.3360 Y4.6558
G01 X35.3670 Y4.6633
G01 X35.4016 Y4.6757
G01 X35.4303 Y4.6896
G01 X35.4535 Y4.7035
G01 X35.4830 Y4.7254
G01 X35.5065 Y4.7470
G01 X35.5246 Y4.7670
G01 X35.5465 Y4.7965
G01 X35.5627 Y4.8240
G01 X35.5743 Y4.8484
G01 X35.5867 Y4.8830
G01 X35.5932 Y4.9092
G01 X35.5981 Y4.9407
G01 X35.6000 Y4.9750
G01 X35.6000 Y5.6999
G01 X36.5271 Y5.6999
G01 X36.5565 Y5.7016
G01 X36.5856 Y5.7062
G01 X36.6141 Y5.7136
G01 X36.6372 Y5.7218
G01 X36.6639 Y5.7342
G01 X36.6934 Y5.7519
G01 X36.7169 Y5.7696
G01 X36.7368 Y5.7878
G01 X37.4817 Y6.5327
G01 X37.5030 Y6.5564
G01 X37.5177 Y6.5761
G01 X37.5330 Y6.6013
G01 X37.5477 Y6.6323
G01 X37.5574 Y6.6601
G01 X37.5643 Y6.6888
G01 X37.5679 Y6.7130
G01 X37.5696 Y6.7449
G01 X37.5696 Y11.7305
G01 X37.5684 Y11.7574
G01 X37.5633 Y11.7914
G01 X37.5574 Y11.8152
G01 X37.5477 Y11.8430
G01 X37.5330 Y11.8741
G01 X37.5177 Y11.8992
G01 X37.4999 Y11.9227
G01 X37.4817 Y11.9427
G01 X36.9500 Y12.4744
G01 X36.9500 Y14.7500
G01 X36.9490 Y14.7598
G01 X36.9462 Y14.7691
G01 X36.9441 Y14.7736
G01 X36.9387 Y14.7817
G01 X36.9317 Y14.7887
G01 X36.9278 Y14.7916
G01 X36.9191 Y14.7962
G01 X36.9145 Y14.7978
G01 X36.9098 Y14.7990
G01 X36.9000 Y14.8000
G01 X35.1000 Y14.8000
G01 X35.0902 Y14.7990
G01 X35.0855 Y14.7978
G01 X35.0764 Y14.7941
G01 X35.0683 Y14.7887
G01 X35.0646 Y14.7854
G01 X35.0584 Y14.7778
G01 X35.0559 Y14.7736
G01 X35.0522 Y14.7645
G01 X35.0502 Y14.7549
G01 X35.0500 Y14.7500
G01 X35.0500 Y11.2500
G01 X35.0510 Y11.2402
G01 X35.0538 Y11.2309
G01 X35.0584 Y11.2222
G01 X35.0646 Y11.2146
G01 X35.0722 Y11.2084
G01 X35.0809 Y11.2038
G01 X35.0902 Y11.2010
G01 X35.1000 Y11.2000
G01 X36.9000 Y11.2000
G01 X36.9098 Y11.2010
G01 X36.9145 Y11.2022
G01 X36.9236 Y11.2059
G01 X36.9278 Y11.2084
G01 X36.9354 Y11.2146
G01 X36.9416 Y11.2222
G01 X36.9462 Y11.2309
G01 X36.9490 Y11.2402
G01 X36.9498 Y11.2451
G01 X36.9500 Y11.6256
G01 X36.9694 Y11.6062
G01 X36.9694 Y6.8692
G01 X36.4003 Y6.3001
G01 X35.5909 Y6.3001
G01 X35.5852 Y6.3217
G01 X35.5761 Y6.3471
G01 X35.5604 Y6.3803
G01 X35.5438 Y6.4076
G01 X35.5246 Y6.4330
G01 X35.5065 Y6.4530
G01 X35.4792 Y6.4777
G01 X35.4576 Y6.4938
G01 X35.4303 Y6.5104
G01 X35.3971 Y6.5261
G01 X35.3670 Y6.5367
G01 X35.3408 Y6.5432
G01 X35.3093 Y6.5481
G01 X35.2750 Y6.5500
G01 X34.7225 Y6.5499
G01 X34.6907 Y6.5481
G01 X34.6592 Y6.5432
G01 X34.6283 Y6.5352
G01 X34.5984 Y6.5243
G01 X34.5697 Y6.5104
G01 X34.5424 Y6.4938
G01 X34.5170 Y6.4746
G01 X34.4935 Y6.4530
G01 X34.4723 Y6.4292
G01 X34.4535 Y6.4035
G01 X34.4373 Y6.3760
G01 X34.4239 Y6.3471
G01 X34.4133 Y6.3170
G01 X34.4058 Y6.2860
G01 X34.4014 Y6.2544
G01 X34.4000 Y6.2250
G00 Z3.0000
G00 X8.2944 Y3.1999
G01 F60.00
G01 Z-0.0400
G01 F50.00
G01 X15.7056 Y3.1999
G01 X15.7157 Y3.1725
G01 X15.7516 Y3.0972
G01 X15.7947 Y3.0258
G01 X15.8414 Y2.9627
G01 X15.9007 Y2.8973
G01 X15.9627 Y2.8414
G01 X16.0258 Y2.7947
G01 X16.1015 Y2.7493
G01 X16.1770 Y2.7138
G01 X16.2509 Y2.6874
G01 X16.3366 Y2.6659
G01 X16.4142 Y2.6544
G01 X16.4975 Y2.6501
G01 X16.5858 Y2.6544
G01 X16.6682 Y2.6669
G01 X16.7444 Y2.6859
G01 X16.8230 Y2.7138
G01 X16.8985 Y2.7493
G01 X16.9742 Y2.7947
G01 X17.0373 Y2.8414
G01 X17.0993 Y2.8973
G01 X17.1586 Y2.9627
G01 X17.2053 Y3.0258
G01 X17.2484 Y3.0972
G01 X17.2843 Y3.1725
G01 X17.2944 Y3.1999
G01 X22.4500 Y3.1999
G01 X22.4502 Y2.4951
G01 X22.4522 Y2.4855
G01 X22.4538 Y2.4809
G01 X22.4559 Y2.4764
G01 X22.4613 Y2.4683
G01 X22.4683 Y2.4613
G01 X22.4764 Y2.4559
G01 X22.4855 Y2.4522
G01 X22.4902 Y2.4510
G01 X22.5000 Y2.4500
G01 X25.5000 Y2.4500
G01 X25.5098 Y2.4510
G01 X25.5191 Y2.4538
G01 X25.5236 Y2.4559
G01 X25.5317 Y2.4613
G01 X25.5387 Y2.4683
G01 X25.5416 Y2.4722
G01 X25.5462 Y2.4809
G01 X25.5478 Y2.4855
G01 X25.5498 Y2.4951
G01 X25.5500 Y2.5000
G01 X25.5500 Y5.5000
G01 X25.5490 Y5.5098
G01 X25.5478 Y5.5145
G01 X25.5441 Y5.5236
G01 X25.5387 Y5.5317
G01 X25.5354 Y5.5354
G01 X25.5278 Y5.5416
G01 X25.5191 Y5.5462
G01 X25.5098 Y5.5490
G01 X25.5000 Y5.5500
G01 X22.5000 Y5.5500
G01 X22.4902 Y5.5490
G01 X22.4809 Y5.5462
G01 X22.4764 Y5.5441
G01 X22.4683 Y5.5387
G01 X22.4646 Y5.5354
G01 X22.4584 Y5.5278
G01 X22.4538 Y5.5191
G01 X22.4522 Y5.5145
G01 X22.4510 Y5.5098
G01 X22.4500 Y5.5000
G01 X22.4500 Y3.8001
G01 X17.2944 Y3.8001
G01 X17.2843 Y3.8275
G01 X17.2739 Y3.8495
G01 X18.7127 Y5.2883
G01 X18.7340 Y5.3120
G01 X18.7513 Y5.3358
G01 X18.7663 Y5.3612
G01 X18.7768 Y5.3834
G01 X18.7869 Y5.4110
G01 X18.7953 Y5.4444
G01 X18.7993 Y5.4735
G01 X18.8006 Y5.5005
G01 X18.8006 Y8.7004
G01 X26.0005 Y8.7004
G01 X26.0275 Y8.7016
G01 X26.0614 Y8.7067
G01 X26.0852 Y8.7126
G01 X26.1131 Y8.7223
G01 X26.1441 Y8.7370
G01 X26.1692 Y8.7524
G01 X26.1927 Y8.7701
G01 X26.2127 Y8.7883
G01 X26.6999 Y9.2754
G01 X26.6999 Y8.9357
G01 X26.7016 Y8.9039
G01 X26.7062 Y8.8748
G01 X26.7121 Y8.8510
G01 X26.7218 Y8.8232
G01 X26.7365 Y8.7921
G01 X26.7519 Y8.7670
G01 X26.7665 Y8.7473
G01 X26.7878 Y8.7235
G01 X28.2235 Y7.2878
G01 X28.2473 Y7.2665
G01 X28.2670 Y7.2519
G01 X28.2921 Y7.2365
G01 X28.3186 Y7.2237
G01 X28.3510 Y7.2121
G01 X28.3748 Y7.2062
G01 X28.4039 Y7.2016
G01 X28.4357 Y7.1999
G01 X30.0000 Y7.1999
G01 X30.0319 Y7.2016
G01 X30.0609 Y7.2062
G01 X30.0848 Y7.2121
G01 X30.1171 Y7.2237
G01 X30.1436 Y7.2365
G01 X30.1647 Y7.2491
G01 X30.1885 Y7.2665
G01 X30.2122 Y7.2878
G01 X31.1644 Y8.2400
G01 X31.1809 Y8.2582
G01 X31.1986 Y8.2817
G01 X31.2163 Y8.3112
G01 X31.2268 Y8.3334
G01 X31.2369 Y8.3610
G01 X31.2453 Y8.3943
G01 X31.2493 Y8.4235
G01 X31.2506 Y8.4505
G01 X31.2506 Y14.5449
G01 X31.2493 Y14.5719
G01 X31.2453 Y14.6010
G01 X31.2383 Y14.6297
G01 X31.2286 Y14.6575
G01 X31.2140 Y14.6885
G01 X31.1986 Y14.7136
G01 X31.1809 Y14.7371
G01 X31.1627 Y14.7571
G01 X30.0501 Y15.8697
G01 X30.0501 Y16.6791
G01 X30.0717 Y16.6848
G01 X30.1016 Y16.6957
G01 X30.1260 Y16.7073
G01 X30.1535 Y16.7235
G01 X30.1830 Y16.7454
G01 X30.2065 Y16.7670
G01 X30.2246 Y16.7870
G01 X30.2438 Y16.8124
G01 X30.2604 Y16.8397
G01 X30.2761 Y16.8729
G01 X30.2852 Y16.8983
G01 X30.2932 Y16.9292
G01 X30.2981 Y16.9607
G01 X30.2988 Y16.9699
G01 X35.0500 Y16.9699
G01 X35.0500 Y16.2500
G01 X35.0510 Y16.2402
G01 X35.0522 Y16.2355
G01 X35.0538 Y16.2309
G01 X35.0584 Y16.2222
G01 X35.0613 Y16.2183
G01 X35.0683 Y16.2113
G01 X35.0722 Y16.2084
G01 X35.0809 Y16.2038
G01 X35.0902 Y16.2010
G01 X35.1000 Y16.2000
G01 X36.9000 Y16.2000
G01 X36.9098 Y16.2010
G01 X36.9191 Y16.2038
G01 X36.9236 Y16.2059
G01 X36.9317 Y16.2113
G01 X36.9387 Y16.2183
G01 X36.9416 Y16.2222
G01 X36.9441 Y16.2264
G01 X36.9478 Y16.2355
G01 X36.9498 Y16.2451
G01 X36.9500 Y16.2500
G01 X36.9500 Y19.7500
G01 X36.9490 Y19.7598
G01 X36.9462 Y19.7691
G01 X36.9441 Y19.7736
G01 X36.9416 Y19.7778
G01 X36.9354 Y19.7854
G01 X36.9278 Y19.7916
G01 X36.9236 Y19.7941
G01 X36.9145 Y19.7978
G01 X36.9049 Y19.7998
G01 X36.9000 Y19.8000
G01 X35.1000 Y19.8000
G01 X35.0902 Y19.7990
G01 X35.0855 Y19.7978
G01 X35.0764 Y19.7941
G01 X35.0683 Y19.7887
G01 X35.0613 Y19.7817
G01 X35.0584 Y19.7778
G01 X35.0538 Y19.7691
G01 X35.0510 Y19.7598
G01 X35.0500 Y19.7500
G01 X35.0500 Y17.5701
G01 X30.2988 Y17.5701
G01 X30.2981 Y17.5793
G01 X30.2932 Y17.6108
G01 X30.2852 Y17.6417
G01 X30.2743 Y17.6716
G01 X30.2604 Y17.7003
G01 X30.2438 Y17.7276
G01 X30.2246 Y17.7530
G01 X30.2030 Y17.7765
G01 X30.1792 Y17.7977
G01 X30.1535 Y17.8165
G01 X30.1260 Y17.8327
G01 X30.0971 Y17.8461
G01 X30.0670 Y17.8567
G01 X30.0360 Y17.8642
G01 X30.0044 Y17.8686
G01 X29.9750 Y17.8700
G01 X28.7250 Y17.8700
G01 X28.6907 Y17.8681
G01 X28.6592 Y17.8632
G01 X28.6330 Y17.8567
G01 X28.6029 Y17.8461
G01 X28.5740 Y17.8327
G01 X28.5424 Y17.8138
G01 X28.5170 Y17.7946
G01 X28.4935 Y17.7730
G01 X28.4723 Y17.7492
G01 X28.4562 Y17.7276
G01 X28.4396 Y17.7003
G01 X28.4257 Y17.6716
G01 X28.4148 Y17.6417
G01 X28.4068 Y17.6108
G01 X28.4014 Y17.5744
G01 X28.4000 Y17.5450
G01 X28.4000 Y16.9950
G01 X28.4014 Y16.9656
G01 X28.4058 Y16.9340
G01 X28.4148 Y16.8983
G01 X28.4257 Y16.8684
G01 X28.4373 Y16.8440
G01 X28.4562 Y16.8124
G01 X28.4754 Y16.7870
G01 X28.4970 Y16.7635
G01 X28.5170 Y16.7454
G01 X28.5424 Y16.7262
G01 X28.5697 Y16.7096
G01 X28.5984 Y16.6957
G01 X28.6283 Y16.6848
G01 X28.6592 Y16.6768
G01 X28.6907 Y16.6719
G01 X28.7250 Y16.6700
G01 X29.4499 Y16.6700
G01 X29.4499 Y15.7429
G01 X29.4516 Y15.7135
G01 X29.4562 Y15.6844
G01 X29.4621 Y15.6606
G01 X29.4718 Y15.6328
G01 X29.4842 Y15.6061
G01 X29.5019 Y15.5766
G01 X29.5196 Y15.5531
G01 X29.5378 Y15.5332
G01 X30.6504 Y14.4206
G01 X30.6504 Y8.5748
G01 X29.8757 Y7.8001
G01 X28.5600 Y7.8001
G01 X27.3001 Y9.0600
G01 X27.3001 Y9.4000
G01 X27.5000 Y9.4000
G01 X27.5098 Y9.4010
G01 X27.5145 Y9.4022
G01 X27.5236 Y9.4059
G01 X27.5278 Y9.4084
G01 X27.5354 Y9.4146
G01 X27.5416 Y9.4222
G01 X27.5462 Y9.4309
G01 X27.5490 Y9.4402
G01 X27.5498 Y9.4451
G01 X27.5500 Y10.5500
G01 X27.5490 Y10.5598
G01 X27.5462 Y10.5691
G01 X27.5416 Y10.5778
G01 X27.5387 Y10.5817
G01 X27.5317 Y10.5887
G01 X27.5278 Y10.5916
G01 X27.5191 Y10.5962
G01 X27.5098 Y10.5990
G01 X27.5000 Y10.6000
G01 X25.7000 Y10.6000
G01 X25.6902 Y10.5990
G01 X25.6809 Y10.5962
G01 X25.6764 Y10.5941
G01 X25.6683 Y10.5887
G01 X25.6613 Y10.5817
G01 X25.6559 Y10.5736
G01 X25.6538 Y10.5691
G01 X25.6510 Y10.5598
G01 X25.6500 Y10.5500
G01 X25.6500 Y9.4500
G01 X25.6510 Y9.4402
G01 X25.6522 Y9.4355
G01 X25.6559 Y9.4264
G01 X25.6613 Y9.4183
G01 X25.6646 Y9.4146
G01 X25.6722 Y9.4084
G01 X25.6809 Y9.4038
G01 X25.6855 Y9.4022
G01 X25.6951 Y9.4002
G01 X25.9756 Y9.4000
G01 X25.8762 Y9.3006
G01 X18.5738 Y9.3006
G01 X18.4119 Y9.4625
G01 X18.4197 Y9.4939
G01 X18.4237 Y9.5230
G01 X18.4250 Y9.5500
G01 X18.4250 Y10.3500
G01 X18.4233 Y10.3818
G01 X18.4187 Y10.4109
G01 X18.4127 Y10.4347
G01 X18.4012 Y10.4670
G01 X18.3907 Y10.4892
G01 X18.3758 Y10.5146
G01 X18.3553 Y10.5422
G01 X18.3354 Y10.5638
G01 X18.3134 Y10.5834
G01 X18.2937 Y10.5980
G01 X18.2686 Y10.6134
G01 X18.2420 Y10.6262
G01 X18.2097 Y10.6377
G01 X18.1859 Y10.6437
G01 X18.1568 Y10.6483
G01 X18.1250 Y10.6500
G01 X16.8750 Y10.6500
G01 X16.8432 Y10.6483
G01 X16.8141 Y10.6437
G01 X16.7856 Y10.6363
G01 X16.7580 Y10.6262
G01 X16.7358 Y10.6157
G01 X16.7104 Y10.6008
G01 X16.6866 Y10.5834
G01 X16.6646 Y10.5638
G01 X16.6447 Y10.5422
G01 X16.6270 Y10.5187
G01 X16.6116 Y10.4936
G01 X16.5988 Y10.4670
G01 X16.5887 Y10.4394
G01 X16.5803 Y10.4061
G01 X16.5763 Y10.3770
G01 X16.5751 Y10.3525
G01 X16.5750 Y10.2501
G01 X15.4250 Y10.2501
G01 X15.4249 Y10.3525
G01 X15.4237 Y10.3770
G01 X15.4197 Y10.4061
G01 X15.4127 Y10.4347
G01 X15.4030 Y10.4625
G01 X15.3884 Y10.4936
G01 X15.3730 Y10.5187
G01 X15.3553 Y10.5422
G01 X15.3354 Y10.5638
G01 X15.3134 Y10.5834
G01 X15.2896 Y10.6008
G01 X15.2642 Y10.6157
G01 X15.2375 Y10.6280
G01 X15.2097 Y10.6377
G01 X15.1859 Y10.6437
G01 X15.1568 Y10.6483
G01 X15.1250 Y10.6500
G01 X13.8750 Y10.6500
G01 X13.8480 Y10.6487
G01 X13.8189 Y10.6447
G01 X13.7903 Y10.6377
G01 X13.7580 Y10.6262
G01 X13.7314 Y10.6134
G01 X13.7063 Y10.5980
G01 X13.6866 Y10.5834
G01 X13.6646 Y10.5638
G01 X13.6447 Y10.5422
G01 X13.6270 Y10.5187
G01 X13.6116 Y10.4936
G01 X13.5988 Y10.4670
G01 X13.5887 Y10.4394
G01 X13.5803 Y10.4061
G01 X13.5763 Y10.3770
G01 X13.5751 Y10.3525
G01 X13.5750 Y10.2501
G01 X12.6743 Y10.2501
G01 X11.8304 Y11.0939
G01 X11.8085 Y11.1135
G01 X11.7847 Y11.1309
G01 X11.7636 Y11.1435
G01 X11.7326 Y11.1582
G01 X11.7095 Y11.1664
G01 X11.6982 Y11.1695
G01 X11.6843 Y11.2075
G01 X11.6484 Y11.2828
G01 X11.6053 Y11.3542
G01 X11.5555 Y11.4211
G01 X11.4993 Y11.4827
G01 X11.4373 Y11.5386
G01 X11.3702 Y11.5881
G01 X11.2985 Y11.6307
G01 X11.2230 Y11.6662
G01 X11.1444 Y11.6941
G01 X11.0634 Y11.7141
G01 X10.9809 Y11.7261
G01 X10.9000 Y11.7300
G01 X10.1000 Y11.7300
G01 X10.0142 Y11.7256
G01 X9.9318 Y11.7131
G01 X9.8509 Y11.6926
G01 X9.7770 Y11.6662
G01 X9.7015 Y11.6307
G01 X9.6298 Y11.5881
G01 X9.5589 Y11.5355
G01 X9.5007 Y11.4827
G01 X9.4445 Y11.4211
G01 X9.3947 Y11.3542
G01 X9.3516 Y11.2828
G01 X9.3138 Y11.2030
G01 X9.2859 Y11.1244
G01 X9.2669 Y11.0482
G01 X9.2544 Y10.9658
G01 X9.2501 Y10.8825
G01 X9.2544 Y10.7942
G01 X9.2669 Y10.7118
G01 X9.2859 Y10.6356
G01 X9.3138 Y10.5570
G01 X9.3493 Y10.4815
G01 X9.3947 Y10.4058
G01 X9.4445 Y10.3389
G01 X9.4973 Y10.2807
G01 X9.5627 Y10.2214
G01 X9.6298 Y10.1719
G01 X9.7015 Y10.1293
G01 X9.7725 Y10.0957
G01 X9.8509 Y10.0674
G01 X9.9366 Y10.0459
G01 X10.0191 Y10.0339
G01 X10.1000 Y10.0300
G01 X10.9000 Y10.0300
G01 X10.9858 Y10.0344
G01 X11.0682 Y10.0469
G01 X11.1491 Y10.0674
G01 X11.2275 Y10.0957
G01 X11.3028 Y10.1316
G01 X11.3742 Y10.1747
G01 X11.4411 Y10.2245
G01 X11.5027 Y10.2807
G01 X11.5586 Y10.3427
G01 X11.6053 Y10.4058
G01 X11.6297 Y10.4459
G01 X12.3378 Y9.7378
G01 X12.3615 Y9.7165
G01 X12.3813 Y9.7019
G01 X12.4064 Y9.6865
G01 X12.4329 Y9.6737
G01 X12.4652 Y9.6621
G01 X12.4891 Y9.6562
G01 X12.5181 Y9.6516
G01 X12.5475 Y9.6499
G01 X13.5750 Y9.6499
G01 X13.5751 Y9.5475
G01 X13.5763 Y9.5230
G01 X13.5803 Y9.4939
G01 X13.5873 Y9.4653
G01 X13.5970 Y9.4375
G01 X13.6093 Y9.4108
G01 X13.6242 Y9.3854
G01 X13.6416 Y9.3616
G01 X13.6612 Y9.3396
G01 X13.6866 Y9.3166
G01 X13.7104 Y9.2992
G01 X13.7358 Y9.2843
G01 X13.7625 Y9.2720
G01 X13.7903 Y9.2623
G01 X13.8189 Y9.2553
G01 X13.8480 Y9.2513
G01 X13.8750 Y9.2500
G01 X15.1250 Y9.2500
G01 X15.1568 Y9.2517
G01 X15.1859 Y9.2563
G01 X15.2144 Y9.2637
G01 X15.2420 Y9.2738
G01 X15.2642 Y9.2843
G01 X15.2896 Y9.2992
G01 X15.3134 Y9.3166
G01 X15.3354 Y9.3362
G01 X15.3553 Y9.3578
G01 X15.3730 Y9.3813
G01 X15.3884 Y9.4064
G01 X15.4012 Y9.4330
G01 X15.4113 Y9.4606
G01 X15.4197 Y9.4939
G01 X15.4237 Y9.5230
G01 X15.4249 Y9.5475
G01 X15.4250 Y9.6499
G01 X16.5750 Y9.6499
G01 X16.5751 Y9.5475
G01 X16.5763 Y9.5230
G01 X16.5803 Y9.4939
G01 X16.5873 Y9.4653
G01 X16.5970 Y9.4375
G01 X16.6116 Y9.4064
G01 X16.6270 Y9.3813
G01 X16.6447 Y9.3578
G01 X16.6646 Y9.3362
G01 X16.6828 Y9.3197
G01 X16.7063 Y9.3020
G01 X16.7314 Y9.2866
G01 X16.7580 Y9.2738
G01 X16.7856 Y9.2637
G01 X16.8189 Y9.2553
G01 X16.8480 Y9.2513
G01 X16.8750 Y9.2500
G01 X17.7756 Y9.2500
G01 X18.2004 Y8.8252
G01 X18.2004 Y5.6248
G01 X16.8495 Y4.2739
G01 X16.8230 Y4.2862
G01 X16.7491 Y4.3126
G01 X16.6682 Y4.3331
G01 X16.5858 Y4.3456
G01 X16.5025 Y4.3499
G01 X16.4191 Y4.3461
G01 X16.3366 Y4.3341
G01 X16.2509 Y4.3126
G01 X16.1725 Y4.2843
G01 X16.0972 Y4.2484
G01 X16.0258 Y4.2053
G01 X15.9589 Y4.1555
G01 X15.8973 Y4.0993
G01 X15.8414 Y4.0373
G01 X15.7919 Y3.9702
G01 X15.7493 Y3.8985
G01 X15.7157 Y3.8275
G01 X15.7056 Y3.8001
G01 X8.2944 Y3.8001
G01 X8.2843 Y3.8275
G01 X8.2484 Y3.9028
G01 X8.2081 Y3.9702
G01 X8.1586 Y4.0373
G01 X8.0993 Y4.1027
G01 X8.0411 Y4.1555
G01 X7.9742 Y4.2053
G01 X7.8985 Y4.2507
G01 X7.8275 Y4.2843
G01 X7.7491 Y4.3126
G01 X7.6634 Y4.3341
G01 X7.5858 Y4.3456
G01 X7.5025 Y4.3499
G01 X7.4142 Y4.3456
G01 X7.3318 Y4.3331
G01 X7.2556 Y4.3141
G01 X7.1770 Y4.2862
G01 X7.1015 Y4.2507
G01 X7.0258 Y4.2053
G01 X6.9627 Y4.1586
G01 X6.9007 Y4.1027
G01 X6.8414 Y4.0373
G01 X6.7919 Y3.9702
G01 X6.7516 Y3.9028
G01 X6.7138 Y3.8230
G01 X6.6859 Y3.7444
G01 X6.6659 Y3.6634
G01 X6.6539 Y3.5809
G01 X6.6501 Y3.4975
G01 X6.6544 Y3.4142
G01 X6.6669 Y3.3318
G01 X6.6874 Y3.2509
G01 X6.7157 Y3.1725
G01 X6.7516 Y3.0972
G01 X6.7947 Y3.0258
G01 X6.8445 Y2.9589
G01 X6.9007 Y2.8973
G01 X6.9627 Y2.8414
G01 X7.0298 Y2.7919
G01 X7.1015 Y2.7493
G01 X7.1770 Y2.7138
G01 X7.2556 Y2.6859
G01 X7.3366 Y2.6659
G01 X7.4191 Y2.6539
G01 X7.5025 Y2.6501
G01 X7.5858 Y2.6544
G01 X7.6682 Y2.6669
G01 X7.7491 Y2.6874
G01 X7.8275 Y2.7157
G01 X7.9028 Y2.7516
G01 X7.9742 Y2.7947
G01 X8.0411 Y2.8445
G01 X8.1027 Y2.9007
G01 X8.1586 Y2.9627
G01 X8.2081 Y3.0298
G01 X8.2507 Y3.1015
G01 X8.2843 Y3.1725
G01 X8.2944 Y3.1999
G00 Z3.0000
M05
G00 Z3.0000
G00 Z15.00
G00 X0.0 Y0.0

