(G-CODE GENERATED BY FLATCAM v8.991 - www.flatcam.org - Version Date: 2019/12/27)

(Name: lamp-remote-drill-1.5mm.drl_cnc)
(Type: G-code from Excellon)
(Units: MM)

(Created on Tuesday, 18 April 2023 at 09:32)

(Feedrate: 300.0 mm/min)
(Feedrate rapids 1500.0 mm/min)

(Z_Cut: -1.7 mm)
(Z_Move: 2.0 mm)
(Z Toolchange: 15.0 mm)
(X,Y Toolchange: 0.0000, 0.0000 mm)
(Z Start: None mm)
(Z End: 0.5 mm)
(Steps per circle: 64)
(Preprocessor Excellon: default)

(X range:    2.1506 ...   36.6451  mm)
(Y range:    2.1483 ...   18.9135  mm)

(Spindle Speed: None RPM)
G21
G90
G94




G01 F300.00
G00 Z2.0000

M03
G00 X23.9997 Y3.9999
G01 Z-1.7000
G01 Z0
G00 Z2.0000
G00 X29.0797 Y3.9999
G01 Z-1.7000
G01 Z0
G00 Z2.0000
M05
G00 Z0.50
G00 X0.0 Y0.0

